;FLAVOR:Marlin
;TIME:2652
;Filament used: 3.02592m
;Layer height: 0.30625
;MINX:1.475
;MINY:6.626
;MINZ:0.306
;MAXX:110.686
;MAXY:113.489
;MAXZ:4.896
;Generated with Cura_SteamEngine 4.2.1
M140 S65
M105
M190 S65
M104 S205
M105
M109 S205
M82 ;absolute extrusion mode
G21;(metric values)
G90;(absolute positioning)
M82;(set extruder to absolute mode)
M107;(start with the fan off)
G28;(Home the printer)
G92 E0;(Reset the extruder to 0)
G0 Z5 E5 F500;(Move up and prime the nozzle)
G0 X-1 Z0;(Move outside the printable area)
G1 Y60 E8 F500;(Draw a priming/wiping line to the rear)
G1 X-1;(Move a little closer to the print area)
G1 Y10 E16 F500;(draw more priming/wiping)
G1 E15 F250;(Small retract)
G92 E0;(Zero the extruder)
M141 S28
G92 E0
G92 E0
G1 F2400 E-2.5
;LAYER_COUNT:16
;LAYER:0
M107
G0 F4320 X5.028 Y7.361 Z0.306
;TYPE:SKIRT
G1 F2400 E0
G1 F1980 X5.472 Y7.071 E0.02361
G1 X5.955 Y6.851 E0.04725
G1 X6.466 Y6.706 E0.0709
G1 X7.071 Y6.636 E0.09802
G1 X7.392 Y6.627 E0.11231
G1 X7.491 Y6.626 E0.11672
G1 X106.504 Y6.626 E4.52548
G1 X107.202 Y6.636 E4.55656
G1 X107.731 Y6.684 E4.58021
G1 X108.246 Y6.81 E4.60382
G1 X108.737 Y7.012 E4.62746
G1 X109.192 Y7.286 E4.65111
G1 X109.6 Y7.625 E4.67473
G1 X109.953 Y8.021 E4.69835
G1 X110.243 Y8.466 E4.722
G1 X110.462 Y8.949 E4.74561
G1 X110.607 Y9.46 E4.76927
G1 X110.676 Y10.062 E4.79625
G1 X110.685 Y10.382 E4.8105
G1 X110.686 Y10.481 E4.81491
G1 X110.686 Y34.474 E5.88325
G1 X110.676 Y35.191 E5.91517
G1 X110.628 Y35.72 E5.93883
G1 X110.502 Y36.235 E5.96243
G1 X110.209 Y36.894 E5.99455
G1 X109.652 Y37.867 E6.04447
G1 X108.297 Y40.293 E6.1682
G1 X107.032 Y42.721 E6.2901
G1 X105.848 Y45.157 E6.4107
G1 X104.713 Y47.671 E6.53352
G1 X103.679 Y50.146 E6.65296
G1 X102.67 Y52.76 E6.77772
G1 X101.781 Y55.288 E6.89705
G1 X100.945 Y57.89 E7.01874
G1 X100.189 Y60.49 E7.1393
G1 X99.493 Y63.169 E7.26255
G1 X98.887 Y65.799 E7.38272
G1 X98.344 Y68.506 E7.50566
G1 X97.887 Y71.179 E7.62641
G1 X97.506 Y73.862 E7.74707
G1 X97.193 Y76.615 E7.87045
G1 X96.965 Y79.306 E7.9907
G1 X96.812 Y82.004 E8.11102
G1 X96.735 Y84.758 E8.2337
G1 X96.735 Y87.47 E8.35446
G1 X96.814 Y90.242 E8.47794
G1 X96.967 Y92.937 E8.59813
G1 X97.199 Y95.658 E8.71973
G1 X97.505 Y98.348 E8.84028
G1 X97.895 Y101.085 E8.96338
G1 X98.348 Y103.728 E9.08278
G1 X98.395 Y103.969 E9.09371
G1 X98.409 Y104.047 E9.09724
G1 X98.463 Y104.361 E9.11143
G1 X98.512 Y104.843 E9.133
G1 X98.523 Y105.179 E9.14797
G1 X98.525 Y105.294 E9.15309
G1 X98.525 Y109.272 E9.33022
G1 X98.516 Y109.999 E9.36259
G1 X98.469 Y110.527 E9.3862
G1 X98.344 Y111.043 E9.40984
G1 X98.143 Y111.534 E9.43346
G1 X97.87 Y111.989 E9.45709
G1 X97.532 Y112.398 E9.48071
G1 X97.136 Y112.752 E9.50436
G1 X96.692 Y113.042 E9.52798
G1 X96.209 Y113.263 E9.55163
G1 X95.699 Y113.408 E9.57524
G1 X95.09 Y113.479 E9.60254
G1 X94.769 Y113.488 E9.61684
G1 X94.67 Y113.489 E9.62124
G1 X5.662 Y113.489 E13.5845
G1 X4.964 Y113.48 E13.61559
G1 X4.435 Y113.433 E13.63923
G1 X3.919 Y113.307 E13.66288
G1 X3.428 Y113.106 E13.68651
G1 X2.973 Y112.833 E13.71014
G1 X2.564 Y112.495 E13.73376
G1 X2.211 Y112.099 E13.75738
G1 X1.921 Y111.655 E13.781
G1 X1.701 Y111.172 E13.80463
G1 X1.555 Y110.661 E13.82829
G1 X1.485 Y110.05 E13.85568
G1 X1.476 Y109.717 E13.87051
G1 X1.475 Y109.622 E13.87474
G1 X1.475 Y105.62 E14.05294
G1 X1.485 Y104.923 E14.08397
G1 X1.533 Y104.395 E14.10758
G1 X1.731 Y103.68 E14.14062
G1 X1.946 Y103.135 E14.1667
G1 X2.935 Y100.568 E14.28919
G1 X3.839 Y98.007 E14.41012
G1 X4.681 Y95.387 E14.53266
G1 X5.438 Y92.781 E14.6535
G1 X6.126 Y90.143 E14.77489
G1 X6.745 Y87.458 E14.89758
G1 X7.279 Y84.783 E15.01904
G1 X7.734 Y82.13 E15.13889
G1 X8.122 Y79.398 E15.26176
G1 X8.429 Y76.699 E15.38271
G1 X8.66 Y73.982 E15.50413
G1 X8.813 Y71.286 E15.62437
G1 X8.891 Y68.515 E15.7478
G1 X8.891 Y65.816 E15.86798
G1 X8.813 Y63.046 E15.99137
G1 X8.66 Y60.353 E16.11147
G1 X8.43 Y57.657 E16.23195
G1 X8.119 Y54.912 E16.35496
G1 X7.733 Y52.203 E16.4768
G1 X7.275 Y49.531 E16.59752
G1 X6.739 Y46.857 E16.71895
G1 X6.135 Y44.236 E16.83871
G1 X5.438 Y41.554 E16.9621
G1 X4.662 Y38.887 E17.08578
G1 X4.236 Y37.532 E17.14903
G1 X3.816 Y36.231 E17.2099
G1 X3.692 Y35.715 E17.23353
G1 X3.648 Y35.256 E17.25406
G1 X3.638 Y34.929 E17.26863
G1 X3.636 Y34.821 E17.27344
G1 X3.636 Y10.777 E18.34405
G1 X3.645 Y10.112 E18.37366
G1 X3.692 Y9.584 E18.39726
G1 X3.818 Y9.068 E18.42091
G1 X4.02 Y8.577 E18.44455
G1 X4.293 Y8.123 E18.46814
G1 X4.59 Y7.765 E18.48885
G0 F1782 X4.632 Y7.714
G0 X5.028 Y7.361
G0 F4320 X5.365 Y7.548
G1 F2400 E18.51544
G1 F1980 X5.801 Y7.295 E18.53788
G1 X6.271 Y7.115 E18.56029
G1 X6.764 Y7.011 E18.58273
G1 X7.081 Y6.986 E18.59689
G1 X7.402 Y6.977 E18.61118
G1 X7.491 Y6.976 E18.61515
G1 X106.499 Y6.976 E23.02368
G1 X107.197 Y6.986 E23.05476
G1 X107.699 Y7.033 E23.07721
G1 X108.186 Y7.159 E23.09961
G1 X108.648 Y7.361 E23.12206
G1 X109.072 Y7.632 E23.14447
G1 X109.448 Y7.968 E23.16692
G1 X109.766 Y8.358 E23.18933
G1 X110.018 Y8.794 E23.21175
G1 X110.198 Y9.264 E23.23416
G1 X110.301 Y9.757 E23.25659
G1 X110.326 Y10.072 E23.27066
G1 X110.335 Y10.392 E23.28491
G1 X110.336 Y10.481 E23.28887
G1 X110.336 Y34.469 E24.35699
G1 X110.326 Y35.186 E24.38892
G1 X110.279 Y35.688 E24.41137
G1 X110.153 Y36.175 E24.43377
G1 X109.906 Y36.72 E24.46041
G1 X109.329 Y37.727 E24.51209
G1 X107.994 Y40.119 E24.63406
G1 X106.713 Y42.577 E24.75748
G1 X105.534 Y45.002 E24.87754
G1 X104.391 Y47.534 E25.00124
G1 X103.349 Y50.028 E25.12159
G1 X102.349 Y52.618 E25.24522
G1 X101.449 Y55.175 E25.36592
G1 X100.611 Y57.786 E25.48802
G1 X99.847 Y60.415 E25.60992
G1 X99.155 Y63.078 E25.73244
G1 X98.547 Y65.72 E25.85315
G1 X97.999 Y68.446 E25.97696
G1 X97.539 Y71.14 E26.09865
G1 X97.159 Y73.809 E26.21869
G1 X96.848 Y76.549 E26.34148
G1 X96.616 Y79.289 E26.46392
G1 X96.462 Y82.01 E26.58527
G1 X96.385 Y84.761 E26.70782
G1 X96.385 Y87.48 E26.82888
G1 X96.464 Y90.237 E26.9517
G1 X96.618 Y92.952 E27.07278
G1 X96.851 Y95.693 E27.19527
G1 X97.163 Y98.433 E27.31806
G1 X97.547 Y101.124 E27.4391
G1 X98.007 Y103.809 E27.56039
G1 X98.051 Y104.036 E27.57069
G1 X98.064 Y104.106 E27.57386
G1 X98.118 Y104.42 E27.58805
G1 X98.162 Y104.854 E27.60747
G1 X98.173 Y105.19 E27.62244
G1 X98.175 Y105.294 E27.62707
G1 X98.175 Y109.267 E27.80398
G1 X98.166 Y109.994 E27.83635
G1 X98.12 Y110.496 E27.8588
G1 X97.995 Y110.984 E27.88123
G1 X97.794 Y111.446 E27.90366
G1 X97.523 Y111.87 E27.92607
G1 X97.189 Y112.246 E27.94846
G1 X96.799 Y112.565 E27.9709
G1 X96.363 Y112.818 E27.99334
G1 X95.893 Y112.999 E28.01577
G1 X95.401 Y113.103 E28.03816
G1 X95.08 Y113.129 E28.0525
G1 X94.759 Y113.138 E28.0668
G1 X94.67 Y113.139 E28.07076
G1 X5.666 Y113.139 E32.03384
G1 X4.968 Y113.13 E32.06493
G1 X4.467 Y113.083 E32.08733
G1 X3.979 Y112.958 E32.10976
G1 X3.517 Y112.758 E32.13218
G1 X3.093 Y112.486 E32.15461
G1 X2.716 Y112.152 E32.17704
G1 X2.398 Y111.761 E32.19948
G1 X2.145 Y111.326 E32.22188
G1 X1.964 Y110.856 E32.24431
G1 X1.86 Y110.363 E32.26675
G1 X1.835 Y110.041 E32.28113
G1 X1.826 Y109.708 E32.29596
G1 X1.825 Y109.622 E32.29979
G1 X1.825 Y105.625 E32.47776
G1 X1.835 Y104.928 E32.5088
G1 X1.882 Y104.427 E32.53121
G1 X2.057 Y103.809 E32.55981
G1 X2.263 Y103.287 E32.58479
G1 X2.262 Y103.287 E32.58484
G1 X3.271 Y100.668 E32.70981
G1 X4.167 Y98.131 E32.82961
G1 X5.015 Y95.491 E32.95308
G1 X5.783 Y92.848 E33.07563
G1 X6.462 Y90.242 E33.19554
G1 X7.086 Y87.536 E33.3192
G1 X7.627 Y84.826 E33.44225
G1 X8.082 Y82.169 E33.56228
G1 X8.464 Y79.483 E33.68308
G1 X8.777 Y76.734 E33.80627
G1 X9.009 Y73.999 E33.92849
G1 X9.163 Y71.278 E34.04985
G1 X9.241 Y68.525 E34.17248
G1 X9.241 Y65.806 E34.29355
G1 X9.163 Y63.054 E34.41613
G1 X9.009 Y60.336 E34.53735
G1 X8.775 Y57.591 E34.66002
G1 X8.465 Y54.858 E34.7825
G1 X8.081 Y52.164 E34.90366
G1 X7.62 Y49.472 E35.02527
G1 X7.079 Y46.778 E35.14763
G1 X6.474 Y44.145 E35.26792
G1 X5.777 Y41.469 E35.39105
G1 X4.998 Y38.789 E35.51532
G1 X4.562 Y37.4 E35.58014
G1 X4.15 Y36.123 E35.63989
G1 X4.033 Y35.633 E35.66232
G1 X3.997 Y35.245 E35.67967
G1 X3.987 Y34.918 E35.69424
G1 X3.986 Y34.821 E35.69856
G1 X3.986 Y10.782 E36.76895
G1 X3.995 Y10.117 E36.79856
G1 X4.042 Y9.616 E36.82096
G1 X4.167 Y9.128 E36.8434
G1 X4.368 Y8.666 E36.86583
G1 X4.64 Y8.242 E36.88826
G1 X4.913 Y7.936 E36.90652
G0 F1782 X4.975 Y7.866
G0 X5.365 Y7.548
G1 F2400 E34.40652
;MESH:TraySlider.stl
G0 F4320 X6.534 Y10.349
G0 X11.354 Y21.893
G0 X10.106 Y20.826
G0 X9.653 Y22.034
;TYPE:WALL-INNER
G1 F2400 E36.9331
G1 F1980 X9.581 Y22.651 E36.96076
G1 X9.653 Y23.268 E36.98842
G1 X9.875 Y23.851 E37.0162
G1 X10.228 Y24.363 E37.04389
G1 X10.695 Y24.776 E37.07165
G1 X11.245 Y25.064 E37.09929
G1 X11.848 Y25.214 E37.12696
G1 X12.474 Y25.214 E37.15484
G1 X13.077 Y25.063 E37.18251
G1 X13.626 Y24.776 E37.2101
G1 X14.093 Y24.363 E37.23786
G1 X14.446 Y23.851 E37.26555
G1 X14.667 Y23.27 E37.29323
G1 X14.743 Y22.651 E37.321
G1 X14.667 Y22.032 E37.34877
G1 X14.446 Y21.451 E37.37644
G1 X14.093 Y20.939 E37.40413
G1 X13.627 Y20.527 E37.43183
G1 X13.077 Y20.237 E37.45952
G1 X12.472 Y20.088 E37.48726
G1 X11.849 Y20.088 E37.515
G1 X11.246 Y20.237 E37.54266
G1 X10.709 Y20.518 E37.56965
G1 X10.231 Y20.937 E37.59795
G1 X9.875 Y21.451 E37.62579
G1 X9.865 Y21.476 E37.62699
G0 F1782 X9.653 Y22.034
G1 F2400 E35.12699
G0 F4320 X10.103 Y24.474
G0 X8.221 Y24.474
G0 X8.036 Y34.276
G1 F2400 E37.65357
G1 F1980 X8.036 Y11.026 E38.68882
G1 X106.286 Y11.026 E43.0636
G1 X106.286 Y34.276 E44.09885
G1 X8.633 Y34.276 E48.44705
G0 F1782 X8.036 Y34.276
G1 F2400 E45.94705
G0 F4320 X99.653 Y34.091
G0 X99.653 Y35.816
G0 X101.56 Y23.576
G0 X100.6 Y24.913
G0 X99.653 Y22.034
G1 F2400 E48.47363
G1 F1980 X99.581 Y22.651 E48.50129
G1 X99.653 Y23.268 E48.52895
G1 X99.875 Y23.851 E48.55673
G1 X100.228 Y24.363 E48.58442
G1 X100.695 Y24.776 E48.61218
G1 X101.245 Y25.064 E48.63982
G1 X101.848 Y25.214 E48.66749
G1 X102.474 Y25.214 E48.69537
G1 X103.077 Y25.063 E48.72304
G1 X103.626 Y24.776 E48.75063
G1 X104.093 Y24.363 E48.77839
G1 X104.446 Y23.851 E48.80608
G1 X104.667 Y23.27 E48.83376
G1 X104.743 Y22.651 E48.86153
G1 X104.667 Y22.032 E48.8893
G1 X104.446 Y21.451 E48.91697
G1 X104.093 Y20.939 E48.94467
G1 X103.627 Y20.527 E48.97236
G1 X103.077 Y20.237 E49.00005
G1 X102.472 Y20.088 E49.02779
G1 X101.849 Y20.088 E49.05553
G1 X101.246 Y20.237 E49.08319
G1 X100.709 Y20.518 E49.11018
G1 X100.231 Y20.937 E49.13848
G1 X99.875 Y21.451 E49.16632
G1 X99.865 Y21.476 E49.16752
G0 F1782 X99.653 Y22.034
G0 F4320 X99.996 Y22.118
G1 F2400 E49.1941
G1 F1980 X99.933 Y22.651 E49.218
G1 X99.996 Y23.184 E49.2419
G1 X100.187 Y23.687 E49.26586
G1 X100.492 Y24.129 E49.28977
G1 X100.895 Y24.486 E49.31374
G1 X101.37 Y24.734 E49.3376
G1 X101.891 Y24.864 E49.36151
G1 X102.431 Y24.864 E49.38555
G1 X102.952 Y24.734 E49.40946
G1 X103.426 Y24.486 E49.43328
G1 X103.829 Y24.129 E49.45726
G1 X104.134 Y23.687 E49.48117
G1 X104.325 Y23.185 E49.50508
G1 X104.39 Y22.651 E49.52904
G1 X104.325 Y22.117 E49.55299
G1 X104.134 Y21.615 E49.57691
G1 X103.829 Y21.173 E49.60082
G1 X103.427 Y20.817 E49.62473
G1 X102.952 Y20.567 E49.64863
G1 X102.429 Y20.438 E49.67261
G1 X101.892 Y20.438 E49.69652
G1 X101.371 Y20.567 E49.72042
G1 X100.908 Y20.809 E49.74369
G1 X100.494 Y21.172 E49.7682
G1 X100.22 Y21.567 E49.78961
G0 F1782 X100.187 Y21.615
G0 X99.996 Y22.118
G1 F2400 E47.28961
G0 F4320 X99.415 Y22.651
G0 X101.131 Y22.651
G0 X13.272 Y22.651
G0 X14.909 Y22.651
G0 X13.745 Y21.247
G0 X12.913 Y20.671
G0 X11.907 Y20.549
G0 X10.971 Y20.902
G0 X9.996 Y22.118
G1 F2400 E49.81619
G1 F1980 X9.933 Y22.651 E49.84009
G1 X9.996 Y23.184 E49.86399
G1 X10.187 Y23.687 E49.88794
G1 X10.492 Y24.129 E49.91186
G1 X10.895 Y24.486 E49.93583
G1 X11.37 Y24.734 E49.95969
G1 X11.891 Y24.864 E49.9836
G1 X12.431 Y24.864 E50.00764
G1 X12.952 Y24.734 E50.03155
G1 X13.426 Y24.486 E50.05537
G1 X13.829 Y24.129 E50.07935
G1 X14.134 Y23.687 E50.10326
G1 X14.325 Y23.185 E50.12717
G1 X14.39 Y22.651 E50.15113
G1 X14.325 Y22.117 E50.17508
G1 X14.134 Y21.615 E50.19899
G1 X13.829 Y21.173 E50.22291
G1 X13.427 Y20.817 E50.24682
G1 X12.952 Y20.567 E50.27072
G1 X12.429 Y20.438 E50.2947
G1 X11.892 Y20.438 E50.31861
G1 X11.371 Y20.567 E50.34251
G1 X10.908 Y20.809 E50.36577
G1 X10.494 Y21.172 E50.39029
G1 X10.22 Y21.567 E50.4117
G0 F1782 X10.187 Y21.615
G0 X9.996 Y22.118
G1 F2400 E47.9117
G0 F4320 X10.103 Y24.474
G0 X8.221 Y24.474
G0 X7.686 Y34.626
G1 F2400 E50.43828
G1 F1980 X7.686 Y10.676 E51.5047
G1 X106.636 Y10.676 E55.91065
G1 X106.636 Y34.626 E56.97707
G1 X8.283 Y34.626 E61.35644
G0 F1782 X7.686 Y34.626
G0 F4320 X7.361 Y34.951
;TYPE:WALL-OUTER
G1 F2400 E61.38302
G1 F1980 X7.361 Y10.351 E62.47838
G1 X106.961 Y10.351 E66.91327
G1 X106.961 Y34.951 E68.00864
G1 X7.958 Y34.951 E72.41694
G0 F1782 X7.361 Y34.951
G0 F4320 X7.361 Y34.751
G1 F2400 E69.91694
G0 F4320 X7.636 Y34.676
G0 X8.22 Y21.26
G0 X9.583 Y21.75
G0 X10.513 Y21.232
G0 X10.738 Y21.39
G1 F2400 E72.44353
G1 F1980 X10.477 Y21.767 E72.46394
G1 X10.314 Y22.196 E72.48438
G1 X10.26 Y22.651 E72.50478
G1 X10.314 Y23.106 E72.52518
G1 X10.477 Y23.535 E72.54562
G1 X10.737 Y23.912 E72.56601
G1 X11.081 Y24.216 E72.58645
G1 X11.486 Y24.428 E72.6068
G1 X11.931 Y24.539 E72.62723
G1 X12.391 Y24.539 E72.64771
G1 X12.836 Y24.428 E72.66813
G1 X13.24 Y24.216 E72.68844
G1 X13.584 Y23.912 E72.70889
G1 X13.844 Y23.535 E72.72928
G1 X14.007 Y23.106 E72.74971
G1 X14.063 Y22.651 E72.77012
G1 X14.007 Y22.196 E72.79054
G1 X13.844 Y21.767 E72.81097
G1 X13.584 Y21.39 E72.83136
G1 X13.241 Y21.086 E72.85177
G1 X12.836 Y20.873 E72.87215
G1 X12.39 Y20.763 E72.8926
G1 X11.932 Y20.763 E72.91299
G1 X11.487 Y20.873 E72.93341
G1 X11.204 Y21.021 E72.94763
G0 F1782 X11.093 Y21.079
G0 X10.738 Y21.39
G0 F4320 X10.625 Y21.554
G1 F2400 E70.44763
G0 F4320 X10.399 Y21.397
G0 X10.971 Y20.902
G0 X11.907 Y20.549
G0 X12.913 Y20.671
G0 X14.829 Y21.991
G0 X13.163 Y22.407
G0 X101.08 Y22.402
G0 X99.491 Y21.994
G0 X100.513 Y21.232
G0 X100.738 Y21.39
G1 F2400 E72.97421
G1 F1980 X100.477 Y21.767 E72.99463
G1 X100.314 Y22.196 E73.01506
G1 X100.26 Y22.651 E73.03546
G1 X100.314 Y23.106 E73.05586
G1 X100.477 Y23.535 E73.0763
G1 X100.737 Y23.912 E73.09669
G1 X101.081 Y24.216 E73.11713
G1 X101.486 Y24.428 E73.13749
G1 X101.931 Y24.539 E73.15791
G1 X102.391 Y24.539 E73.17839
G1 X102.836 Y24.428 E73.19881
G1 X103.24 Y24.216 E73.21913
G1 X103.584 Y23.912 E73.23957
G1 X103.844 Y23.535 E73.25996
G1 X104.007 Y23.106 E73.28039
G1 X104.063 Y22.651 E73.30081
G1 X104.007 Y22.196 E73.32122
G1 X103.844 Y21.767 E73.34165
G1 X103.584 Y21.39 E73.36205
G1 X103.241 Y21.086 E73.38245
G1 X102.836 Y20.873 E73.40283
G1 X102.39 Y20.763 E73.42328
G1 X101.932 Y20.763 E73.44368
G1 X101.487 Y20.873 E73.46409
G1 X101.204 Y21.021 E73.47831
G0 F1782 X101.093 Y21.079
G0 X100.738 Y21.39
G0 F4320 X100.625 Y21.554
G0 X100.399 Y21.397
G0 X99.975 Y20.709
;TYPE:SKIN
G1 F2400 E73.50489
G1 F1980 X99.572 Y21.292 E73.53645
G1 X99.32 Y21.952 E73.5679
G1 X99.239 Y22.651 E73.59924
G1 X99.32 Y23.35 E73.63057
G1 X99.572 Y24.01 E73.66203
G1 X99.972 Y24.59 E73.6934
G1 X100.501 Y25.058 E73.72485
G1 X101.123 Y25.384 E73.75612
G1 X101.807 Y25.554 E73.7875
G1 X102.516 Y25.554 E73.81907
G1 X103.199 Y25.383 E73.85042
G1 X103.82 Y25.058 E73.88163
G1 X104.349 Y24.59 E73.91308
G1 X104.749 Y24.01 E73.94445
G1 X104.999 Y23.352 E73.97579
G1 X105.085 Y22.651 E74.00724
G1 X104.999 Y21.95 E74.03869
G1 X104.749 Y21.292 E74.07003
G1 X104.349 Y20.712 E74.1014
G1 X103.821 Y20.245 E74.13279
G1 X103.199 Y19.917 E74.1641
G1 X102.513 Y19.748 E74.19556
G1 X101.808 Y19.748 E74.22695
G1 X101.125 Y19.917 E74.25828
G1 X100.515 Y20.236 E74.28893
G1 X100.424 Y20.316 E74.29433
G0 F1782 X99.975 Y20.709
G1 F2400 E71.79433
G0 F4320 X100.167 Y20.881
G0 X101.828 Y19.922
G0 X102.324 Y21.636
G0 X107.747 Y19.945
G0 X106.101 Y19.922
G0 X106.129 Y11.183
G0 X105.946 Y11.366
G1 F2400 E74.32091
G1 F1980 X105.946 Y33.936 E75.32588
G1 X8.376 Y33.936 E79.67038
G1 X8.376 Y11.366 E80.67536
G1 X105.349 Y11.366 E84.99328
G0 F1782 X105.946 Y11.366
G1 F2400 E82.49328
G0 F4320 X105.946 Y11.111
G0 X14.828 Y11.211
G0 X14.828 Y9.486
G0 X13.084 Y22.071
G0 X14.594 Y21.373
G0 X14.828 Y22.652
G0 X15.085 Y22.651
G1 F2400 E85.01986
G1 F1980 X14.999 Y21.95 E85.05131
