;FLAVOR:Marlin
;TIME:8183
;Filament used: 11.5288m
;Layer height: 0.30625
;MINX:7.746
;MINY:7.539
;MINZ:0.306
;MAXX:69.196
;MAXY:63.289
;MAXZ:57.834
;Generated with Cura_SteamEngine 4.2.1
M140 S65
M105
M190 S65
M104 S205
M105
M109 S205
M82 ;absolute extrusion mode
G21;(metric values)
G90;(absolute positioning)
M82;(set extruder to absolute mode)
M107;(start with the fan off)
G28;(Home the printer)
G92 E0;(Reset the extruder to 0)
G0 Z5 E5 F500;(Move up and prime the nozzle)
G0 X-1 Z0;(Move outside the printable area)
G1 Y60 E8 F500;(Draw a priming/wiping line to the rear)
G1 X-1;(Move a little closer to the print area)
G1 Y10 E16 F500;(draw more priming/wiping)
G1 E15 F250;(Small retract)
G92 E0;(Zero the extruder)
M141 S28
G92 E0
G92 E0
G1 F2400 E-2.5
;LAYER_COUNT:189
;LAYER:0
M107
G0 F4320 X8.742 Y8.627 Z0.306
;TYPE:SKIRT
G1 F2400 E0
G1 F1980 X9.138 Y8.274 E0.02362
G1 X9.582 Y7.984 E0.04723
G1 X10.065 Y7.764 E0.07087
G1 X10.576 Y7.619 E0.09452
G1 X11.181 Y7.549 E0.12164
G1 X11.502 Y7.54 E0.13594
G1 X11.601 Y7.539 E0.14034
G1 X65.014 Y7.539 E2.51867
G1 X65.712 Y7.549 E2.54975
G1 X66.241 Y7.597 E2.5734
G1 X66.756 Y7.723 E2.59701
G1 X67.247 Y7.925 E2.62065
G1 X67.702 Y8.199 E2.6443
G1 X68.11 Y8.538 E2.66792
G1 X68.463 Y8.934 E2.69154
G1 X68.753 Y9.379 E2.71519
G1 X68.972 Y9.862 E2.7388
G1 X69.117 Y10.373 E2.76246
G1 X69.186 Y10.975 E2.78944
G1 X69.195 Y11.295 E2.80369
G1 X69.196 Y11.394 E2.8081
G1 X69.196 Y59.072 E4.93106
G1 X69.187 Y59.799 E4.96343
G1 X69.14 Y60.327 E4.98703
G1 X69.015 Y60.843 E5.01067
G1 X68.814 Y61.334 E5.0343
G1 X68.541 Y61.789 E5.05793
G1 X68.203 Y62.198 E5.08155
G1 X67.807 Y62.552 E5.1052
G1 X67.363 Y62.842 E5.12882
G1 X66.88 Y63.063 E5.15247
G1 X66.37 Y63.208 E5.17608
G1 X65.761 Y63.279 E5.20338
G1 X65.44 Y63.288 E5.21767
G1 X65.341 Y63.289 E5.22208
G1 X11.933 Y63.289 E7.60018
G1 X11.235 Y63.28 E7.63126
G1 X10.706 Y63.233 E7.65491
G1 X10.19 Y63.107 E7.67856
G1 X9.699 Y62.906 E7.70219
G1 X9.244 Y62.633 E7.72581
G1 X8.835 Y62.295 E7.74944
G1 X8.482 Y61.899 E7.77306
G1 X8.192 Y61.455 E7.79667
G1 X7.972 Y60.972 E7.82031
G1 X7.826 Y60.461 E7.84397
G1 X7.756 Y59.85 E7.87135
G1 X7.747 Y59.517 E7.88619
G1 X7.746 Y59.422 E7.89042
G1 X7.746 Y11.69 E10.01578
G1 X7.755 Y11.025 E10.04539
G1 X7.802 Y10.497 E10.069
G1 X7.928 Y9.981 E10.09265
G1 X8.13 Y9.49 E10.11629
G1 X8.369 Y9.092 E10.13696
G0 F1782 X8.403 Y9.036
G0 X8.742 Y8.627
G0 F4320 X9.085 Y8.779
G1 F2400 E10.16354
G1 F1980 X9.475 Y8.461 E10.18595
G1 X9.911 Y8.208 E10.20839
G1 X10.381 Y8.028 E10.2308
G1 X10.874 Y7.924 E10.25324
G1 X11.191 Y7.899 E10.2674
G1 X11.512 Y7.89 E10.2817
G1 X11.601 Y7.889 E10.28566
G1 X65.009 Y7.889 E12.66376
G1 X65.707 Y7.899 E12.69484
G1 X66.209 Y7.946 E12.71729
G1 X66.696 Y8.072 E12.73969
G1 X67.158 Y8.274 E12.76214
G1 X67.582 Y8.545 E12.78455
G1 X67.958 Y8.881 E12.807
G1 X68.276 Y9.271 E12.82941
G1 X68.528 Y9.707 E12.85183
G1 X68.708 Y10.177 E12.87424
G1 X68.811 Y10.67 E12.89667
G1 X68.836 Y10.985 E12.91074
G1 X68.845 Y11.305 E12.92499
G1 X68.846 Y11.394 E12.92895
G1 X68.846 Y59.067 E15.05169
G1 X68.837 Y59.794 E15.08406
G1 X68.791 Y60.296 E15.10651
G1 X68.666 Y60.784 E15.12894
G1 X68.465 Y61.246 E15.15137
G1 X68.194 Y61.67 E15.17378
G1 X67.86 Y62.046 E15.19617
G1 X67.47 Y62.365 E15.21861
G1 X67.034 Y62.618 E15.24105
G1 X66.564 Y62.799 E15.26348
G1 X66.072 Y62.903 E15.28587
G1 X65.751 Y62.929 E15.30021
G1 X65.43 Y62.938 E15.31451
G1 X65.341 Y62.939 E15.31847
G1 X11.937 Y62.939 E17.69639
G1 X11.239 Y62.93 E17.72748
G1 X10.738 Y62.883 E17.74988
G1 X10.25 Y62.758 E17.77231
G1 X9.788 Y62.558 E17.79473
G1 X9.364 Y62.286 E17.81716
G1 X8.987 Y61.952 E17.83959
G1 X8.669 Y61.561 E17.86203
G1 X8.416 Y61.126 E17.88444
G1 X8.235 Y60.656 E17.90686
G1 X8.131 Y60.163 E17.9293
G1 X8.106 Y59.841 E17.94368
G1 X8.097 Y59.508 E17.95851
G1 X8.096 Y59.422 E17.96234
G1 X8.096 Y11.695 E20.08748
G1 X8.105 Y11.03 E20.11709
G1 X8.152 Y10.529 E20.1395
G1 X8.277 Y10.041 E20.16193
G1 X8.478 Y9.579 E20.18436
G1 X8.7 Y9.234 E20.20263
G0 F1782 X8.75 Y9.155
G0 X9.085 Y8.779
G1 F2400 E17.70263
;MESH:Holder-v-0-1.stl
G0 F4320 X11.66 Y10.399
G0 X11.66 Y11.453
G0 X12.146 Y58.889
;TYPE:WALL-INNER
G1 F2400 E20.22921
G1 F1980 X12.146 Y11.939 E22.31976
G1 X64.796 Y11.939 E24.6641
G1 X64.796 Y58.889 E26.75465
G1 X12.743 Y58.889 E29.07241
G0 F1782 X12.146 Y58.889
G0 F4320 X11.796 Y59.239
G1 F2400 E29.09899
G1 F1980 X11.796 Y11.589 E31.22071
G1 X65.146 Y11.589 E33.59622
G1 X65.146 Y59.239 E35.71793
G1 X12.393 Y59.239 E38.06687
G0 F1782 X11.796 Y59.239
G0 F4320 X11.471 Y59.564
;TYPE:WALL-OUTER
G1 F2400 E38.09345
G1 F1980 X11.471 Y11.264 E40.2441
G1 X65.471 Y11.264 E42.64856
G1 X65.471 Y59.564 E44.79922
G1 X12.068 Y59.564 E47.17709
G0 F1782 X11.471 Y59.564
G0 F4320 X11.471 Y59.364
G0 X11.746 Y59.364
G0 X12.231 Y58.549
G0 X12.486 Y58.549
;TYPE:SKIN
G1 F2400 E47.20367
G1 F1980 X12.486 Y12.279 E49.26394
G1 X64.456 Y12.279 E51.57801
G1 X64.456 Y58.549 E53.63827
G1 X13.083 Y58.549 E55.92576
G0 F1782 X12.486 Y58.549
G0 F4320 X12.853 Y58.391
G1 F2400 E55.95234
G1 F1980 X12.642 Y58.18 E55.96563
G0 F4320 X12.642 Y57.685
G1 F1980 X13.348 Y58.391 E56.01008
G0 F4320 X13.843 Y58.391
G1 F1980 X12.642 Y57.19 E56.08571
G0 F4320 X12.642 Y56.695
G1 F1980 X14.338 Y58.391 E56.19251
G0 F4320 X14.833 Y58.391
G1 F1980 X12.642 Y56.2 E56.33048
G0 F4320 X12.642 Y55.705
G1 F1980 X15.328 Y58.391 E56.49962
G0 F4320 X15.823 Y58.391
G1 F1980 X12.642 Y55.21 E56.69993
G0 F4320 X12.642 Y54.715
G1 F1980 X16.318 Y58.391 E56.93141
G0 F4320 X16.813 Y58.391
G1 F1980 X12.642 Y54.22 E57.19406
G0 F4320 X12.642 Y53.725
G1 F1980 X17.308 Y58.391 E57.48788
G0 F4320 X17.803 Y58.391
G1 F1980 X12.642 Y53.23 E57.81287
G0 F4320 X12.642 Y52.735
G1 F1980 X18.298 Y58.391 E58.16903
G0 F4320 X18.793 Y58.391
G1 F1980 X12.642 Y52.24 E58.55637
G0 F4320 X12.642 Y51.745
G1 F1980 X19.288 Y58.391 E58.97487
G0 F4320 X19.783 Y58.391
G1 F1980 X12.642 Y51.25 E59.42454
G0 F4320 X12.642 Y50.755
G1 F1980 X20.278 Y58.391 E59.90539
G0 F4320 X20.773 Y58.391
G1 F1980 X12.642 Y50.26 E60.4174
G0 F4320 X12.642 Y49.765
G1 F1980 X21.268 Y58.391 E60.96059
G0 F4320 X21.763 Y58.391
G1 F1980 X12.642 Y49.27 E61.53494
G0 F4320 X12.642 Y48.775
G1 F1980 X22.258 Y58.391 E62.14047
G0 F4320 X22.753 Y58.391
G1 F1980 X12.642 Y48.28 E62.77717
G0 F4320 X12.642 Y47.785
G1 F1980 X23.248 Y58.391 E63.44503
G0 F4320 X23.743 Y58.391
G1 F1980 X12.642 Y47.29 E64.14407
G0 F4320 X12.642 Y46.795
G1 F1980 X24.238 Y58.391 E64.87428
G0 F4320 X24.733 Y58.391
G1 F1980 X12.642 Y46.3 E65.63566
G0 F4320 X12.642 Y45.805
G1 F1980 X25.228 Y58.391 E66.42821
G0 F4320 X25.723 Y58.391
G1 F1980 X12.642 Y45.31 E67.25193
G0 F4320 X12.642 Y44.815
G1 F1980 X26.218 Y58.391 E68.10682
G0 F4320 X26.713 Y58.391
G1 F1980 X12.642 Y44.32 E68.99288
G0 F4320 X12.642 Y43.825
G1 F1980 X27.208 Y58.391 E69.91011
G0 F4320 X27.703 Y58.391
G1 F1980 X12.642 Y43.33 E70.85851
G0 F4320 X12.642 Y42.835
G1 F1980 X28.198 Y58.391 E71.83808
G0 F4320 X28.692 Y58.391
G1 F1980 X12.642 Y42.34 E72.84879
G0 F4320 X12.642 Y41.845
G1 F1980 X29.187 Y58.391 E73.89068
G0 F4320 X29.682 Y58.391
G1 F1980 X12.642 Y41.35 E74.96373
G0 F4320 X12.642 Y40.855
G1 F1980 X30.177 Y58.391 E76.06795
G0 F4320 X30.672 Y58.391
G1 F1980 X12.642 Y40.36 E77.20334
G0 F4320 X12.642 Y39.865
G1 F1980 X31.167 Y58.391 E78.36991
G0 F4320 X31.662 Y58.391
G1 F1980 X12.642 Y39.37 E79.56764
G0 F4320 X12.642 Y38.876
G1 F1980 X32.157 Y58.391 E80.79651
G0 F4320 X32.652 Y58.391
G1 F1980 X12.642 Y38.381 E82.05656
G0 F4320 X12.642 Y37.886
G1 F1980 X33.147 Y58.391 E83.34777
G0 F4320 X33.642 Y58.391
G1 F1980 X12.642 Y37.391 E84.67016
G0 F4320 X12.642 Y36.896
G1 F1980 X34.137 Y58.391 E86.02371
G0 F4320 X34.632 Y58.391
G1 F1980 X12.642 Y36.401 E87.40844
G0 F4320 X12.642 Y35.906
G1 F1980 X35.127 Y58.391 E88.82433
G0 F4320 X35.622 Y58.391
G1 F1980 X12.642 Y35.411 E90.2714
G0 F4320 X12.642 Y34.916
G1 F1980 X36.117 Y58.391 E91.74964
G0 F4320 X36.612 Y58.391
G1 F1980 X12.642 Y34.421 E93.25905
G0 F4320 X12.642 Y33.926
G1 F1980 X37.107 Y58.391 E94.79962
G0 F4320 X37.602 Y58.391
G1 F1980 X12.642 Y33.431 E96.37137
G0 F4320 X12.642 Y32.936
G1 F1980 X38.097 Y58.391 E97.97429
G0 F4320 X38.592 Y58.391
G1 F1980 X12.642 Y32.441 E99.60838
G0 F4320 X12.642 Y31.946
G1 F1980 X39.087 Y58.391 E101.27364
G0 F4320 X39.582 Y58.391
G1 F1980 X12.642 Y31.451 E102.97007
G0 F4320 X12.642 Y30.956
G1 F1980 X40.077 Y58.391 E104.69767
G0 F4320 X40.572 Y58.391
G1 F1980 X12.642 Y30.461 E106.45644
G0 F4320 X12.642 Y29.966
G1 F1980 X41.067 Y58.391 E108.24639
G0 F4320 X41.562 Y58.391
G1 F1980 X12.642 Y29.471 E110.0675
G0 F4320 X12.642 Y28.976
G1 F1980 X42.057 Y58.391 E111.91978
G0 F4320 X42.552 Y58.391
G1 F1980 X12.642 Y28.481 E113.80323
G0 F4320 X12.642 Y27.986
G1 F1980 X43.047 Y58.391 E115.71786
G0 F4320 X43.542 Y58.391
G1 F1980 X12.642 Y27.491 E117.66365
G0 F4320 X12.642 Y26.996
G1 F1980 X44.037 Y58.391 E119.64062
G0 F4320 X44.532 Y58.391
G1 F1980 X12.642 Y26.501 E121.64875
G0 F4320 X12.642 Y26.006
G1 F1980 X45.027 Y58.391 E123.68806
G0 F4320 X45.522 Y58.391
G1 F1980 X12.642 Y25.511 E125.75854
G0 F4320 X12.642 Y25.016
G1 F1980 X46.017 Y58.391 E127.86018
G0 F4320 X46.512 Y58.391
G1 F1980 X12.642 Y24.521 E129.993
G0 F4320 X12.642 Y24.026
G1 F1980 X47.007 Y58.391 E132.15699
G0 F4320 X47.502 Y58.391
G1 F1980 X12.642 Y23.531 E134.35215
G0 F4320 X12.642 Y23.036
G1 F1980 X47.996 Y58.391 E136.57844
G0 F4320 X48.491 Y58.391
G1 F1980 X12.642 Y22.541 E138.83591
G0 F4320 X12.642 Y22.046
G1 F1980 X48.986 Y58.391 E141.12455
G0 F4320 X49.481 Y58.391
G1 F1980 X12.642 Y21.551 E143.44436
G0 F4320 X12.642 Y21.056
G1 F1980 X49.976 Y58.391 E145.79534
G0 F4320 X50.471 Y58.391
G1 F1980 X12.642 Y20.561 E148.17749
G0 F4320 X12.642 Y20.066
G1 F1980 X50.966 Y58.391 E150.59081
G0 F4320 X51.461 Y58.391
G1 F1980 X12.642 Y19.572 E153.03527
G0 F4320 X12.642 Y19.077
G1 F1980 X51.956 Y58.391 E155.5109
G0 F4320 X52.451 Y58.391
G1 F1980 X12.642 Y18.582 E158.0177
G0 F4320 X12.642 Y18.087
G1 F1980 X52.946 Y58.391 E160.55567
G0 F4320 X53.441 Y58.391
G1 F1980 X12.642 Y17.592 E163.12481
G0 F4320 X12.642 Y17.097
G1 F1980 X53.936 Y58.391 E165.72512
G0 F4320 X54.431 Y58.391
G1 F1980 X12.642 Y16.602 E168.35661
G0 F4320 X12.642 Y16.107
G1 F1980 X54.926 Y58.391 E171.01926
G0 F4320 X55.421 Y58.391
G1 F1980 X12.642 Y15.612 E173.71308
G0 F4320 X12.642 Y15.117
G1 F1980 X55.916 Y58.391 E176.43808
G0 F4320 X56.411 Y58.391
G1 F1980 X12.642 Y14.622 E179.19424
G0 F4320 X12.642 Y14.127
G1 F1980 X56.906 Y58.391 E181.98158
G0 F4320 X57.401 Y58.391
G1 F1980 X12.642 Y13.632 E184.80008
G0 F4320 X12.642 Y13.137
G1 F1980 X57.896 Y58.391 E187.64976
G0 F4320 X58.391 Y58.391
G1 F1980 X12.642 Y12.642 E190.5306
G0 F4320 X12.93 Y12.435
G1 F1980 X58.886 Y58.391 E193.42448
G0 F4320 X59.381 Y58.391
G1 F1980 X13.425 Y12.435 E196.31837
G0 F4320 X13.92 Y12.435
G1 F1980 X59.876 Y58.391 E199.21225
G0 F4320 X60.371 Y58.391
G1 F1980 X14.415 Y12.435 E202.10613
G0 F4320 X14.91 Y12.435
G1 F1980 X60.866 Y58.391 E205.00001
G0 F4320 X61.361 Y58.391
G1 F1980 X15.405 Y12.435 E207.89389
G0 F4320 X15.9 Y12.435
G1 F1980 X61.856 Y58.391 E210.78777
G0 F4320 X62.351 Y58.391
G1 F1980 X16.395 Y12.435 E213.68165
G0 F4320 X16.89 Y12.435
G1 F1980 X62.846 Y58.391 E216.57553
G0 F4320 X63.341 Y58.391
G1 F1980 X17.385 Y12.435 E219.46942
G0 F4320 X17.88 Y12.435
G1 F1980 X63.836 Y58.391 E222.3633
G0 F4320 X64.297 Y58.358
G1 F1980 X18.375 Y12.435 E225.25507
G0 F4320 X18.87 Y12.435
G1 F1980 X64.297 Y57.863 E228.11567
G0 F4320 X64.297 Y57.368
G1 F1980 X19.365 Y12.435 E230.9451
G0 F4320 X19.86 Y12.435
G1 F1980 X64.297 Y56.873 E233.74336
G0 F4320 X64.297 Y56.378
G1 F1980 X20.355 Y12.435 E236.51045
G0 F4320 X20.85 Y12.435
G1 F1980 X64.297 Y55.883 E239.24637
G0 F4320 X64.297 Y55.388
G1 F1980 X21.345 Y12.435 E241.95112
G0 F4320 X21.84 Y12.435
G1 F1980 X64.297 Y54.893 E244.6247
G0 F4320 X64.297 Y54.398
G1 F1980 X22.335 Y12.435 E247.2671
G0 F4320 X22.83 Y12.435
G1 F1980 X64.297 Y53.903 E249.87834
G0 F4320 X64.297 Y53.408
G1 F1980 X23.325 Y12.435 E252.45841
G0 F4320 X23.82 Y12.435
G1 F1980 X64.297 Y52.913 E255.00731
G0 F4320 X64.297 Y52.418
G1 F1980 X24.315 Y12.435 E257.52503
G0 F4320 X24.81 Y12.435
G1 F1980 X64.297 Y51.923 E260.01159
G0 F4320 X64.297 Y51.428
G1 F1980 X25.305 Y12.435 E262.46697
G0 F4320 X25.8 Y12.435
G1 F1980 X64.297 Y50.933 E264.89119
G0 F4320 X64.297 Y50.438
G1 F1980 X26.295 Y12.435 E267.28423
G0 F4320 X26.79 Y12.435
G1 F1980 X64.297 Y49.943 E269.6461
G0 F4320 X64.297 Y49.448
G1 F1980 X27.285 Y12.435 E271.97681
G0 F4320 X27.78 Y12.435
G1 F1980 X64.297 Y48.953 E274.27634
G0 F4320 X64.297 Y48.458
G1 F1980 X28.275 Y12.435 E276.5447
G0 F4320 X28.77 Y12.435
G1 F1980 X64.297 Y47.963 E278.78189
G0 F4320 X64.297 Y47.468
G1 F1980 X29.265 Y12.435 E280.98791
G0 F4320 X29.76 Y12.435
G1 F1980 X64.297 Y46.973 E283.16276
G0 F4320 X64.297 Y46.478
G1 F1980 X30.254 Y12.435 E285.30647
G0 F4320 X30.749 Y12.435
G1 F1980 X64.297 Y45.983 E287.41901
G0 F4320 X64.297 Y45.488
G1 F1980 X31.244 Y12.435 E289.50039
G0 F4320 X31.739 Y12.435
G1 F1980 X64.297 Y44.993 E291.55059
G0 F4320 X64.297 Y44.498
G1 F1980 X32.234 Y12.435 E293.56961
G0 F4320 X32.729 Y12.435
G1 F1980 X64.297 Y44.003 E295.55747
G0 F4320 X64.297 Y43.508
G1 F1980 X33.224 Y12.435 E297.51416
G0 F4320 X33.719 Y12.435
G1 F1980 X64.297 Y43.014 E299.43971
G0 F4320 X64.297 Y42.519
G1 F1980 X34.214 Y12.435 E301.33409
G0 F4320 X34.709 Y12.435
G1 F1980 X64.297 Y42.024 E303.1973
G0 F4320 X64.297 Y41.529
G1 F1980 X35.204 Y12.435 E305.02934
G0 F4320 X35.699 Y12.435
G1 F1980 X64.297 Y41.034 E306.8302
G0 F4320 X64.297 Y40.539
G1 F1980 X36.194 Y12.435 E308.5999
G0 F4320 X36.689 Y12.435
G1 F1980 X64.297 Y40.044 E310.33843
G0 F4320 X64.297 Y39.549
G1 F1980 X37.184 Y12.435 E312.04578
G0 F4320 X37.679 Y12.435
G1 F1980 X64.297 Y39.054 E313.72197
G0 F4320 X64.297 Y38.559
G1 F1980 X38.174 Y12.435 E315.36698
G0 F4320 X38.669 Y12.435
G1 F1980 X64.297 Y38.064 E316.98083
G0 F4320 X64.297 Y37.569
G1 F1980 X39.164 Y12.435 E318.5635
G0 F4320 X39.659 Y12.435
G1 F1980 X64.297 Y37.074 E320.11501
G0 F4320 X64.297 Y36.579
G1 F1980 X40.154 Y12.435 E321.63534
G0 F4320 X40.649 Y12.435
G1 F1980 X64.297 Y36.084 E323.1245
G0 F4320 X64.297 Y35.589
G1 F1980 X41.144 Y12.435 E324.58249
G0 F4320 X41.639 Y12.435
G1 F1980 X64.297 Y35.094 E326.00931
G0 F4320 X64.297 Y34.599
G1 F1980 X42.134 Y12.435 E327.40497
G0 F4320 X42.629 Y12.435
G1 F1980 X64.297 Y34.104 E328.76945
G0 F4320 X64.297 Y33.609
G1 F1980 X43.124 Y12.435 E330.10276
G0 F4320 X43.619 Y12.435
G1 F1980 X64.297 Y33.114 E331.4049
G0 F4320 X64.297 Y32.619
G1 F1980 X44.114 Y12.435 E332.67586
G0 F4320 X44.609 Y12.435
G1 F1980 X64.297 Y32.124 E333.91566
G0 F4320 X64.297 Y31.629
G1 F1980 X45.104 Y12.435 E335.12429
G0 F4320 X45.599 Y12.435
G1 F1980 X64.297 Y31.134 E336.30175
G0 F4320 X64.297 Y30.639
G1 F1980 X46.094 Y12.435 E337.44804
G0 F4320 X46.589 Y12.435
G1 F1980 X64.297 Y30.144 E338.56315
G0 F4320 X64.297 Y29.649
G1 F1980 X47.084 Y12.435 E339.6471
G0 F4320 X47.579 Y12.435
G1 F1980 X64.297 Y29.154 E340.69987
G0 F4320 X64.297 Y28.659
G1 F1980 X48.074 Y12.435 E341.72148
G0 F4320 X48.569 Y12.435
G1 F1980 X64.297 Y28.164 E342.71191
G0 F4320 X64.297 Y27.669
G1 F1980 X49.064 Y12.435 E343.67118
G0 F4320 X49.558 Y12.435
G1 F1980 X64.297 Y27.174 E344.5993
G0 F4320 X64.297 Y26.679
G1 F1980 X50.053 Y12.435 E345.49626
G0 F4320 X50.548 Y12.435
G1 F1980 X64.297 Y26.184 E346.36204
G0 F4320 X64.297 Y25.689
G1 F1980 X51.043 Y12.435 E347.19666
G0 F4320 X51.538 Y12.435
G1 F1980 X64.297 Y25.194 E348.0001
G0 F4320 X64.297 Y24.699
G1 F1980 X52.033 Y12.435 E348.77237
G0 F4320 X52.528 Y12.435
G1 F1980 X64.297 Y24.204 E349.51347
G0 F4320 X64.297 Y23.709
G1 F1980 X53.023 Y12.435 E350.2234
G0 F4320 X53.518 Y12.435
G1 F1980 X64.297 Y23.215 E350.9022
G0 F4320 X64.297 Y22.72
G1 F1980 X54.013 Y12.435 E351.54982
G0 F4320 X54.508 Y12.435
G1 F1980 X64.297 Y22.225 E352.16627
G0 F4320 X64.297 Y21.73
G1 F1980 X55.003 Y12.435 E352.75155
G0 F4320 X55.498 Y12.435
G1 F1980 X64.297 Y21.235 E353.30566
G0 F4320 X64.297 Y20.74
G1 F1980 X55.993 Y12.435 E353.8286
G0 F4320 X56.488 Y12.435
G1 F1980 X64.297 Y20.245 E354.32037
G0 F4320 X64.297 Y19.75
