;FLAVOR:Marlin
;TIME:743
;Filament used: 0.441786m
;Layer height: 0.175
;MINX:11.2
;MINY:6.081
;MINZ:0.263
;MAXX:100.8
;MAXY:10.681
;MAXZ:2.888
;Generated with Cura_SteamEngine 4.2.1
M140 S65
M105
M190 S65
M104 S205
M105
M109 S205
M82 ;absolute extrusion mode
G21;(metric values)
G90;(absolute positioning)
M82;(set extruder to absolute mode)
M107;(start with the fan off)
G28;(Home the printer)
G92 E0;(Reset the extruder to 0)
G0 Z5 E5 F500;(Move up and prime the nozzle)
G0 X-1 Z0;(Move outside the printable area)
G1 Y60 E8 F500;(Draw a priming/wiping line to the rear)
G1 X-1;(Move a little closer to the print area)
G1 Y10 E16 F500;(draw more priming/wiping)
G1 E15 F250;(Small retract)
G92 E0;(Zero the extruder)
M141 S28
G92 E0
G92 E0
G1 F2400 E-2.5
;LAYER_COUNT:16
;LAYER:0
M107
;MESH:SlideArm.stl
G0 F4320 X11.966 Y6.818 Z0.263
;TYPE:WALL-INNER
G1 F2400 E0
G1 F1800 X11.875 Y6.949 E0.0061
G1 X11.875 Y6.756 E0.00807
G1 X12.009 Y6.756 E0.01013
G1 X11.966 Y6.818
G0 F4320 X11.9 Y8.083
G0 X11.965 Y9.944
G1 F1800 X12.008 Y10.006 E0.01302
G1 X11.875 Y10.006 E0.0151
G1 X11.875 Y9.813 E0.0196
G1 X11.965 Y9.944 E0.02023
G0 F4320 X13.746 Y10.483
G0 X95.691 Y9.839
G0 X95.715 Y7.179
G1 F1800 X95.493 Y7.764 E0.04417
G1 X95.42 Y8.381 E0.06795
G1 X95.493 Y8.998 E0.09173
G1 X95.715 Y9.581 E0.1156
G1 X95.819 Y9.732 E0.12262
G1 X96.008 Y10.006 E0.13536
G1 X95.676 Y10.006 E0.14244
G1 X95.675 Y10.006 E0.14247
G1 X16.325 Y10.006 E3.17919
G1 X16.324 Y10.006 E3.17923
G1 X15.992 Y10.006 E3.19194
G1 X16.181 Y9.732 E3.19904
G1 X16.285 Y9.581 E3.20605
G1 X16.507 Y8.998 E3.22993
G1 X16.58 Y8.381 E3.2537
G1 X16.507 Y7.764 E3.27748
G1 X16.285 Y7.181 E3.30136
G1 X16.18 Y7.03 E3.30839
G1 X15.991 Y6.756 E3.32113
G1 X16.323 Y6.756 E3.32821
G1 X16.324 Y6.756 E3.32825
G1 X95.675 Y6.756 E6.36501
G1 X95.676 Y6.756 E6.36505
G1 X96.009 Y6.756 E6.37779
G1 X95.819 Y7.03 E6.3849
G1 X95.715 Y7.179 E6.39185
G0 F4320 X97.248 Y6.402
G0 X98.255 Y6.279
G0 X100.125 Y6.949
G1 F1800 X100.034 Y6.818 E6.39796
G1 X99.991 Y6.756 E6.40085
G1 X100.125 Y6.756 E6.4029
G1 X100.125 Y6.949 E6.40487
G0 F4320 X100.125 Y10.006
G1 F1800 X99.992 Y10.006 E6.40996
G1 X100.034 Y9.945
G1 X100.125 Y9.813 E6.41301
G1 X100.125 Y10.006 E6.41495
G0 F4320 X100.117 Y8.381
G0 X99.91 Y7.488
G0 X99.267 Y6.546
G1 F1800 X98.998 Y6.406 E6.42656
G1 X99.267 Y6.406 E6.42836
G1 X99.542 Y6.406 E6.43888
G1 X100.475 Y6.406 E6.47459
G1 X100.475 Y7.74 E6.52564
G1 X100.475 Y7.848 E6.52977
G1 X100.475 Y8.381 E6.55017
G1 X100.475 Y8.914 E6.57057
G1 X100.475 Y9.022 E6.5747
G1 X100.475 Y10.356 E6.62575
G1 X99.542 Y10.356 E6.66146
G1 X99.267 Y10.356 E6.67198
G1 X98.999 Y10.356 E6.68224
G1 X99.267 Y10.215 E6.68534
G1 X99.472 Y10.033 E6.6929
G1 X99.668 Y9.859 E6.70293
G1 X99.973 Y9.417 E6.72348
G1 X100.127 Y9.014 E6.73999
G1 X100.165 Y8.914 E6.74385
G1 X100.228 Y8.381 E6.76022
G1 X100.165 Y7.848 E6.77658
G1 X100.127 Y7.748 E6.78044
G1 X99.973 Y7.345 E6.79695
G1 X99.668 Y6.903 E6.8175
G1 X99.472 Y6.729 E6.82753
G1 X99.267 Y6.546 E6.8351
G0 F4320 X98.357 Y6.306
G0 X15.267 Y6.546
G1 F1800 X14.998 Y6.406 E6.8467
G1 X15.267 Y6.406 E6.8485
G1 X15.542 Y6.406 E6.85903
G1 X96.461 Y6.406 E9.95579
G1 X96.752 Y6.406 E9.96693
G1 X97.002 Y6.406 E9.9765
G1 X96.752 Y6.537 E9.97926
G1 X96.533 Y6.728 E9.98712
G1 X96.334 Y6.902 E9.99724
G1 X96.027 Y7.344 E10.01783
G1 X95.835 Y7.848 E10.03847
G1 X95.772 Y8.381 E10.05901
G1 X95.835 Y8.914 E10.07955
G1 X96.027 Y9.417 E10.10016
G1 X96.332 Y9.859 E10.12071
G1 X96.528 Y10.033 E10.13074
G1 X96.733 Y10.215 E10.14123
G1 X97.001 Y10.356 E10.15282
G1 X96.733 Y10.356 E10.15461
G1 X96.458 Y10.356 E10.1622
G1 X15.542 Y10.356 E13.25885
G1 X15.267 Y10.356 E13.26938
G1 X14.999 Y10.356 E13.27964
G1 X15.267 Y10.215 E13.28274
G1 X15.472 Y10.033 E13.29029
G1 X15.668 Y9.859 E13.30032
G1 X15.973 Y9.417 E13.32088
G1 X16.165 Y8.914 E13.34148
G1 X16.228 Y8.381 E13.36202
G1 X16.165 Y7.848 E13.38256
G1 X15.973 Y7.345 E13.40317
G1 X15.668 Y6.903 E13.42372
G1 X15.472 Y6.729 E13.43375
G1 X15.267 Y6.546 E13.44131
G0 F4320 X14.255 Y6.279
G0 X13.248 Y6.402
G0 X12.494 Y6.909
G0 X11.835 Y7.848
G1 F1800 X11.772 Y8.381 E13.46185
G1 X11.835 Y8.914 E13.48239
G1 X11.873 Y9.014 E13.48648
G1 X12.027 Y9.417 E13.50299
G1 X12.332 Y9.859 E13.52355
G1 X12.528 Y10.033 E13.53358
G1 X12.733 Y10.215 E13.54407
G1 X13.001 Y10.356 E13.55566
G1 X12.733 Y10.356 E13.55745
G1 X12.458 Y10.356 E13.56504
G1 X11.525 Y10.356 E13.60075
G1 X11.525 Y9.022 E13.6518
G1 X11.525 Y8.914 E13.6557
G1 X11.525 Y8.381 E13.67193
G1 X11.525 Y7.848 E13.68816
G1 X11.525 Y7.74 E13.69229
G1 X11.525 Y6.406 E13.74334
G1 X12.461 Y6.406 E13.77916
G1 X12.752 Y6.406 E13.7903
G1 X13.002 Y6.406 E13.79987
G1 X12.752 Y6.537 E13.80263
G1 X12.533 Y6.728 E13.81049
G1 X12.334 Y6.902 E13.82061
G1 X12.027 Y7.344 E13.8412
G1 X11.873 Y7.748 E13.85775
G1 X11.835 Y7.848 E13.86161
G0 F4320 X12.353 Y6.964
G0 X12.578 Y7.12
;TYPE:WALL-OUTER
G1 F1800 X12.317 Y7.497 E13.87916
G1 X12.153 Y7.926 E13.89673
G1 X12.099 Y8.381 E13.91427
G1 X12.153 Y8.836 E13.93181
G1 X12.317 Y9.265 E13.94938
G1 X12.577 Y9.642 E13.96691
G1 X12.919 Y9.946 E13.98442
G1 X13.325 Y10.159 E14.00197
G1 X13.771 Y10.269 E14.01955
G1 X14.229 Y10.269 E14.03707
G1 X14.675 Y10.159 E14.05465
G1 X15.081 Y9.946 E14.0722
G1 X15.423 Y9.642 E14.08971
G1 X15.683 Y9.265 E14.10724
G1 X15.847 Y8.836 E14.12481
G1 X15.901 Y8.381 E14.14235
G1 X15.847 Y7.926 E14.15988
G1 X15.683 Y7.497 E14.17746
G1 X15.423 Y7.12 E14.19499
G1 X15.081 Y6.816 E14.2125
G1 X14.675 Y6.604 E14.23003
G1 X14.23 Y6.493 E14.24758
G1 X13.77 Y6.493 E14.26518
G1 X13.325 Y6.604 E14.28273
G1 X13.13 Y6.706 E14.29116
G0 F1620 X12.937 Y6.807
G0 X12.578 Y7.12
G0 F4320 X12.465 Y7.284
G0 X12.24 Y7.127
G0 X11.445 Y10.436
G0 X11.2 Y10.681
G1 F2400 E14.31772
G1 F1800 X11.2 Y6.081 E14.49376
G1 X100.8 Y6.081 E17.92274
G1 X100.8 Y10.681 E18.09879
G1 X11.894 Y10.681 E21.50121
G0 F1620 X11.2 Y10.681
G0 F4320 X11.2 Y10.481
G0 X11.475 Y10.481
G0 X95.691 Y9.839
G0 X95.673 Y8.226
G0 X96.353 Y6.964
G0 X96.578 Y7.12
G1 F2400 E21.52777
G1 F1800 X96.317 Y7.497 E21.54532
G1 X96.153 Y7.926 E21.5629
G1 X96.099 Y8.381 E21.58043
G1 X96.153 Y8.836 E21.59797
G1 X96.317 Y9.265 E21.61554
G1 X96.577 Y9.642 E21.63307
G1 X96.919 Y9.946 E21.65058
G1 X97.325 Y10.159 E21.66813
G1 X97.771 Y10.269 E21.68571
G1 X98.229 Y10.269 E21.70323
G1 X98.675 Y10.159 E21.72081
G1 X99.081 Y9.946 E21.73836
G1 X99.423 Y9.642 E21.75587
G1 X99.683 Y9.265 E21.7734
G1 X99.847 Y8.836 E21.79098
G1 X99.901 Y8.381 E21.80851
G1 X99.847 Y7.926 E21.82605
G1 X99.683 Y7.497 E21.84362
G1 X99.423 Y7.12 E21.86115
G1 X99.081 Y6.816 E21.87866
G1 X98.675 Y6.604 E21.89619
G1 X98.23 Y6.493 E21.91374
G1 X97.77 Y6.493 E21.93134
G1 X97.325 Y6.604 E21.9489
G1 X97.13 Y6.706 E21.95732
G0 F1620 X96.937 Y6.807
G0 X96.578 Y7.12
G0 F4320 X96.465 Y7.284
G0 X96.24 Y7.127
G0 X95.383 Y6.841
G0 X95.383 Y7.096
;TYPE:SKIN
G1 F2400 E21.98388
G1 F1800 X95.161 Y7.682 E22.00786
G1 X95.078 Y8.381 E22.0348
G1 X95.161 Y9.08 E22.06174
G1 X95.384 Y9.666 E22.08573
G1 X16.616 Y9.666 E25.10018
G1 X16.839 Y9.08 E25.12417
G1 X16.922 Y8.381 E25.15111
G1 X16.839 Y7.682 E25.17805
G1 X16.616 Y7.096 E25.20205
G1 X94.689 Y7.096 E28.18989
G0 F1620 X95.383 Y7.096
G0 F4320 X95.074 Y7.464
G1 F2400 E28.21645
G1 F1800 X94.864 Y7.253 E28.22785
G0 F4320 X94.369 Y7.253
G1 F1800 X94.98 Y7.865 E28.26094
G0 F4320 X94.928 Y8.307
G1 F1800 X93.874 Y7.253 E28.31799
G0 F4320 X93.379 Y7.253
G1 F1800 X94.975 Y8.85 E28.40439
G0 F4320 X95.139 Y9.509
G1 F1800 X92.884 Y7.253 E28.52646
G0 F4320 X92.389 Y7.253
G1 F1800 X94.644 Y9.509 E28.64854
G0 F4320 X94.149 Y9.509
G1 F1800 X91.894 Y7.253 E28.77061
G0 F4320 X91.399 Y7.253
G1 F1800 X93.654 Y9.509 E28.89268
G0 F4320 X93.159 Y9.509
G1 F1800 X90.904 Y7.253 E29.01475
G0 F4320 X90.409 Y7.253
G1 F1800 X92.664 Y9.509 E29.13682
G0 F4320 X92.169 Y9.509
G1 F1800 X89.914 Y7.253 E29.2589
G0 F4320 X89.419 Y7.253
G1 F1800 X91.674 Y9.509 E29.38097
G0 F4320 X91.18 Y9.509
G1 F1800 X88.924 Y7.253 E29.50307
G0 F4320 X88.429 Y7.253
G1 F1800 X90.685 Y9.509 E29.62517
G0 F4320 X90.19 Y9.509
G1 F1800 X87.934 Y7.253 E29.74726
G0 F4320 X87.439 Y7.253
G1 F1800 X89.695 Y9.509 E29.86936
G0 F4320 X89.2 Y9.509
G1 F1800 X86.944 Y7.253 E29.99146
G0 F4320 X86.449 Y7.253
G1 F1800 X88.705 Y9.509 E30.11356
G0 F4320 X88.21 Y9.509
G1 F1800 X85.954 Y7.253 E30.23566
G0 F4320 X85.459 Y7.253
G1 F1800 X87.715 Y9.509 E30.35776
G0 F4320 X87.22 Y9.509
G1 F1800 X84.964 Y7.253 E30.47986
G0 F4320 X84.469 Y7.253
G1 F1800 X86.725 Y9.509 E30.60196
G0 F4320 X86.23 Y9.509
G1 F1800 X83.974 Y7.253 E30.72406
G0 F4320 X83.479 Y7.253
G1 F1800 X85.735 Y9.509 E30.84615
G0 F4320 X85.24 Y9.509
G1 F1800 X82.984 Y7.253 E30.96825
G0 F4320 X82.489 Y7.253
G1 F1800 X84.745 Y9.509 E31.09035
G0 F4320 X84.25 Y9.509
G1 F1800 X81.994 Y7.253 E31.21245
G0 F4320 X81.499 Y7.253
G1 F1800 X83.755 Y9.509 E31.33455
G0 F4320 X83.26 Y9.509
G1 F1800 X81.004 Y7.253 E31.45665
G0 F4320 X80.509 Y7.253
G1 F1800 X82.765 Y9.509 E31.57875
G0 F4320 X82.27 Y9.509
G1 F1800 X80.014 Y7.253 E31.70085
G0 F4320 X79.519 Y7.253
G1 F1800 X81.775 Y9.509 E31.82295
G0 F4320 X81.28 Y9.509
G1 F1800 X79.024 Y7.253 E31.94505
G0 F4320 X78.529 Y7.253
G1 F1800 X80.785 Y9.509 E32.06714
G0 F4320 X80.29 Y9.509
G1 F1800 X78.034 Y7.253 E32.18924
G0 F4320 X77.539 Y7.253
G1 F1800 X79.795 Y9.509 E32.31134
G0 F4320 X79.3 Y9.509
G1 F1800 X77.044 Y7.253 E32.43344
G0 F4320 X76.549 Y7.253
G1 F1800 X78.805 Y9.509 E32.55554
G0 F4320 X78.31 Y9.509
G1 F1800 X76.054 Y7.253 E32.67764
G0 F4320 X75.56 Y7.253
G1 F1800 X77.815 Y9.509 E32.79971
G0 F4320 X77.32 Y9.509
G1 F1800 X75.065 Y7.253 E32.92178
G0 F4320 X74.57 Y7.253
G1 F1800 X76.825 Y9.509 E33.04385
G0 F4320 X76.33 Y9.509
G1 F1800 X74.075 Y7.253 E33.16593
G0 F4320 X73.58 Y7.253
G1 F1800 X75.835 Y9.509 E33.288
G0 F4320 X75.34 Y9.509
G1 F1800 X73.085 Y7.253 E33.41007
G0 F4320 X72.59 Y7.253
G1 F1800 X74.845 Y9.509 E33.53214
G0 F4320 X74.35 Y9.509
G1 F1800 X72.095 Y7.253 E33.65421
G0 F4320 X71.6 Y7.253
G1 F1800 X73.855 Y9.509 E33.77629
G0 F4320 X73.36 Y9.509
G1 F1800 X71.105 Y7.253 E33.89836
G0 F4320 X70.61 Y7.253
G1 F1800 X72.865 Y9.509 E34.02043
G0 F4320 X72.37 Y9.509
G1 F1800 X70.115 Y7.253 E34.1425
G0 F4320 X69.62 Y7.253
G1 F1800 X71.875 Y9.509 E34.26457
G0 F4320 X71.381 Y9.509
G1 F1800 X69.125 Y7.253 E34.38667
G0 F4320 X68.63 Y7.253
G1 F1800 X70.886 Y9.509 E34.50877
G0 F4320 X70.391 Y9.509
G1 F1800 X68.135 Y7.253 E34.63087
G0 F4320 X67.64 Y7.253
G1 F1800 X69.896 Y9.509 E34.75297
G0 F4320 X69.401 Y9.509
G1 F1800 X67.145 Y7.253 E34.87507
G0 F4320 X66.65 Y7.253
G1 F1800 X68.906 Y9.509 E34.99717
G0 F4320 X68.411 Y9.509
G1 F1800 X66.155 Y7.253 E35.11927
G0 F4320 X65.66 Y7.253
G1 F1800 X67.916 Y9.509 E35.24136
G0 F4320 X67.421 Y9.509
G1 F1800 X65.165 Y7.253 E35.36346
G0 F4320 X64.67 Y7.253
G1 F1800 X66.926 Y9.509 E35.48556
G0 F4320 X66.431 Y9.509
G1 F1800 X64.175 Y7.253 E35.60766
G0 F4320 X63.68 Y7.253
G1 F1800 X65.936 Y9.509 E35.72976
G0 F4320 X65.441 Y9.509
G1 F1800 X63.185 Y7.253 E35.85186
G0 F4320 X62.69 Y7.253
G1 F1800 X64.946 Y9.509 E35.97396
G0 F4320 X64.451 Y9.509
G1 F1800 X62.195 Y7.253 E36.09606
G0 F4320 X61.7 Y7.253
G1 F1800 X63.956 Y9.509 E36.21816
G0 F4320 X63.461 Y9.509
G1 F1800 X61.205 Y7.253 E36.34026
G0 F4320 X60.71 Y7.253
G1 F1800 X62.966 Y9.509 E36.46235
G0 F4320 X62.471 Y9.509
G1 F1800 X60.215 Y7.253 E36.58445
G0 F4320 X59.72 Y7.253
G1 F1800 X61.976 Y9.509 E36.70655
G0 F4320 X61.481 Y9.509
G1 F1800 X59.225 Y7.253 E36.82865
G0 F4320 X58.73 Y7.253
G1 F1800 X60.986 Y9.509 E36.95075
G0 F4320 X60.491 Y9.509
G1 F1800 X58.235 Y7.253 E37.07285
G0 F4320 X57.74 Y7.253
G1 F1800 X59.996 Y9.509 E37.19495
G0 F4320 X59.501 Y9.509
G1 F1800 X57.245 Y7.253 E37.31705
G0 F4320 X56.75 Y7.253
G1 F1800 X59.006 Y9.509 E37.43915
G0 F4320 X58.511 Y9.509
G1 F1800 X56.256 Y7.253 E37.56122
G0 F4320 X55.761 Y7.253
G1 F1800 X58.016 Y9.509 E37.68329
G0 F4320 X57.521 Y9.509
G1 F1800 X55.266 Y7.253 E37.80536
G0 F4320 X54.771 Y7.253
G1 F1800 X57.026 Y9.509 E37.92743
G0 F4320 X56.531 Y9.509
G1 F1800 X54.276 Y7.253 E38.04951
G0 F4320 X53.781 Y7.253
G1 F1800 X56.036 Y9.509 E38.17158
G0 F4320 X55.541 Y9.509
G1 F1800 X53.286 Y7.253 E38.29365
G0 F4320 X52.791 Y7.253
G1 F1800 X55.046 Y9.509 E38.41572
G0 F4320 X54.551 Y9.509
G1 F1800 X52.296 Y7.253 E38.53779
G0 F4320 X51.801 Y7.253
G1 F1800 X54.056 Y9.509 E38.65986
G0 F4320 X53.561 Y9.509
G1 F1800 X51.306 Y7.253 E38.78194
G0 F4320 X50.811 Y7.253
G1 F1800 X53.066 Y9.509 E38.90401
G0 F4320 X52.571 Y9.509
G1 F1800 X50.316 Y7.253 E39.02608
G0 F4320 X49.821 Y7.253
G1 F1800 X52.077 Y9.509 E39.14818
G0 F4320 X51.582 Y9.509
G1 F1800 X49.326 Y7.253 E39.27028
G0 F4320 X48.831 Y7.253
G1 F1800 X51.087 Y9.509 E39.39238
G0 F4320 X50.592 Y9.509
G1 F1800 X48.336 Y7.253 E39.51448
G0 F4320 X47.841 Y7.253
G1 F1800 X50.097 Y9.509 E39.63657
G0 F4320 X49.602 Y9.509
G1 F1800 X47.346 Y7.253 E39.75867
G0 F4320 X46.851 Y7.253
G1 F1800 X49.107 Y9.509 E39.88077
G0 F4320 X48.612 Y9.509
G1 F1800 X46.356 Y7.253 E40.00287
G0 F4320 X45.861 Y7.253
G1 F1800 X48.117 Y9.509 E40.12497
G0 F4320 X47.622 Y9.509
G1 F1800 X45.366 Y7.253 E40.24707
G0 F4320 X44.871 Y7.253
G1 F1800 X47.127 Y9.509 E40.36917
G0 F4320 X46.632 Y9.509
G1 F1800 X44.376 Y7.253 E40.49127
G0 F4320 X43.881 Y7.253
G1 F1800 X46.137 Y9.509 E40.61337
G0 F4320 X45.642 Y9.509
G1 F1800 X43.386 Y7.253 E40.73547
G0 F4320 X42.891 Y7.253
G1 F1800 X45.147 Y9.509 E40.85756
G0 F4320 X44.652 Y9.509
G1 F1800 X42.396 Y7.253 E40.97966
G0 F4320 X41.901 Y7.253
G1 F1800 X44.157 Y9.509 E41.10176
G0 F4320 X43.662 Y9.509
G1 F1800 X41.406 Y7.253 E41.22386
G0 F4320 X40.911 Y7.253
G1 F1800 X43.167 Y9.509 E41.34596
G0 F4320 X42.672 Y9.509
G1 F1800 X40.416 Y7.253 E41.46806
G0 F4320 X39.921 Y7.253
G1 F1800 X42.177 Y9.509 E41.59016
G0 F4320 X41.682 Y9.509
G1 F1800 X39.426 Y7.253 E41.71226
G0 F4320 X38.931 Y7.253
G1 F1800 X41.187 Y9.509 E41.83436
G0 F4320 X40.692 Y9.509
G1 F1800 X38.436 Y7.253 E41.95645
G0 F4320 X37.941 Y7.253
G1 F1800 X40.197 Y9.509 E42.07855
G0 F4320 X39.702 Y9.509
G1 F1800 X37.446 Y7.253 E42.20065
G0 F4320 X36.951 Y7.253
G1 F1800 X39.207 Y9.509 E42.32275
G0 F4320 X38.712 Y9.509
G1 F1800 X36.457 Y7.253 E42.44482
G0 F4320 X35.962 Y7.253
G1 F1800 X38.217 Y9.509 E42.5669
G0 F4320 X37.722 Y9.509
G1 F1800 X35.467 Y7.253 E42.68897
G0 F4320 X34.972 Y7.253
G1 F1800 X37.227 Y9.509 E42.81104
G0 F4320 X36.732 Y9.509
G1 F1800 X34.477 Y7.253 E42.93311
G0 F4320 X33.982 Y7.253
G1 F1800 X36.237 Y9.509 E43.05518
G0 F4320 X35.742 Y9.509
G1 F1800 X33.487 Y7.253 E43.17725
G0 F4320 X32.992 Y7.253
G1 F1800 X35.247 Y9.509 E43.29933
G0 F4320 X34.752 Y9.509
G1 F1800 X32.497 Y7.253 E43.4214
G0 F4320 X32.002 Y7.253
G1 F1800 X34.257 Y9.509 E43.54347
G0 F4320 X33.762 Y9.509
G1 F1800 X31.507 Y7.253 E43.66554
G0 F4320 X31.012 Y7.253
G1 F1800 X33.267 Y9.509 E43.78761
G0 F4320 X32.772 Y9.509
G1 F1800 X30.517 Y7.253 E43.90969
G0 F4320 X30.022 Y7.253
G1 F1800 X32.278 Y9.509 E44.03179
G0 F4320 X31.783 Y9.509
G1 F1800 X29.527 Y7.253 E44.15388
G0 F4320 X29.032 Y7.253
G1 F1800 X31.288 Y9.509 E44.27598
G0 F4320 X30.793 Y9.509
G1 F1800 X28.537 Y7.253 E44.39808
G0 F4320 X28.042 Y7.253
G1 F1800 X30.298 Y9.509 E44.52018
G0 F4320 X29.803 Y9.509
G1 F1800 X27.547 Y7.253 E44.64228
G0 F4320 X27.052 Y7.253
G1 F1800 X29.308 Y9.509 E44.76438
G0 F4320 X28.813 Y9.509
G1 F1800 X26.557 Y7.253 E44.88648
G0 F4320 X26.062 Y7.253
G1 F1800 X28.318 Y9.509 E45.00858
G0 F4320 X27.823 Y9.509
G1 F1800 X25.567 Y7.253 E45.13068
G0 F4320 X25.072 Y7.253
G1 F1800 X27.328 Y9.509 E45.25277
G0 F4320 X26.833 Y9.509
G1 F1800 X24.577 Y7.253 E45.37487
G0 F4320 X24.082 Y7.253
G1 F1800 X26.338 Y9.509 E45.49697
G0 F4320 X25.843 Y9.509
G1 F1800 X23.587 Y7.253 E45.61907
G0 F4320 X23.092 Y7.253
G1 F1800 X25.348 Y9.509 E45.74117
G0 F4320 X24.853 Y9.509
G1 F1800 X22.597 Y7.253 E45.86327
G0 F4320 X22.102 Y7.253
G1 F1800 X24.358 Y9.509 E45.98537
G0 F4320 X23.863 Y9.509
G1 F1800 X21.607 Y7.253 E46.10747
G0 F4320 X21.112 Y7.253
G1 F1800 X23.368 Y9.509 E46.22957
G0 F4320 X22.873 Y9.509
G1 F1800 X20.617 Y7.253 E46.35167
G0 F4320 X20.122 Y7.253
G1 F1800 X22.378 Y9.509 E46.47376
G0 F4320 X21.883 Y9.509
M104 S200
G1 F1800 X19.627 Y7.253 E46.59586
G0 F4320 X19.132 Y7.253
