;FLAVOR:Marlin
;TIME:10874
;Filament used: 14.517m
;Layer height: 0.30625
;MINX:5.877
;MINY:7.794
;MINZ:0.306
;MAXX:107.201
;MAXY:114.157
;MAXZ:57.834
;Generated with Cura_SteamEngine 4.2.1
M140 S65
M105
M190 S65
M104 S205
M105
M109 S205
M82 ;absolute extrusion mode
G21;(metric values)
G90;(absolute positioning)
M82;(set extruder to absolute mode)
M107;(start with the fan off)
G28;(Home the printer)
G92 E0;(Reset the extruder to 0)
G0 Z5 E5 F500;(Move up and prime the nozzle)
G0 X-1 Z0;(Move outside the printable area)
G1 Y60 E8 F500;(Draw a priming/wiping line to the rear)
G1 X-1;(Move a little closer to the print area)
G1 Y10 E16 F500;(draw more priming/wiping)
G1 E15 F250;(Small retract)
G92 E0;(Zero the extruder)
M141 S28
G92 E0
G92 E0
G1 F2400 E-2.5
;LAYER_COUNT:189
;LAYER:0
M107
;MESH:Holder-v-0-1.stl
G0 F4320 X7.405 Y57.083 Z0.306
;TYPE:WALL-INNER
G1 F2400 E0
G1 F1980 X7.405 Y10.133 E2.09054
G1 X60.055 Y10.133 E4.43489
G1 X60.055 Y57.083 E6.52543
G1 X8.002 Y57.083 E8.8432
G0 F1782 X7.405 Y57.083
G0 F4320 X7.055 Y57.433
G1 F2400 E8.86978
G1 F1980 X7.055 Y9.783 E10.99149
G1 X60.405 Y9.783 E13.36701
G1 X60.405 Y57.433 E15.48872
G1 X7.652 Y57.433 E17.83765
G0 F1782 X7.055 Y57.433
G0 F4320 X6.73 Y57.758
;TYPE:WALL-OUTER
G1 F2400 E17.86423
G1 F1980 X6.73 Y9.458 E20.01489
G1 X60.73 Y9.458 E22.41935
G1 X60.73 Y57.758 E24.57
G1 X7.327 Y57.758 E26.94788
G0 F1782 X6.73 Y57.758
G0 F4320 X6.73 Y57.558
G0 X7.005 Y57.558
G0 X7.49 Y56.743
G0 X7.745 Y56.743
;TYPE:SKIN
G1 F2400 E26.97446
G1 F1980 X7.745 Y10.473 E29.03472
G1 X59.715 Y10.473 E31.34879
G1 X59.715 Y56.743 E33.40906
G1 X8.342 Y56.743 E35.69654
G0 F1782 X7.745 Y56.743
G0 F4320 X8.077 Y56.584
G1 F2400 E35.72313
G1 F1980 X7.901 Y56.409 E35.73418
G0 F4320 X7.901 Y55.914
G1 F1980 X8.572 Y56.584 E35.7764
G0 F4320 X9.067 Y56.584
G1 F1980 X7.901 Y55.419 E35.84979
G0 F4320 X7.901 Y54.924
G1 F1980 X9.562 Y56.584 E35.95435
G0 F4320 X10.057 Y56.584
G1 F1980 X7.901 Y54.429 E36.09009
G0 F4320 X7.901 Y53.934
G1 F1980 X10.552 Y56.584 E36.25699
G0 F4320 X11.047 Y56.584
G1 F1980 X7.901 Y53.439 E36.45507
G0 F4320 X7.901 Y52.944
G1 F1980 X11.542 Y56.584 E36.68431
G0 F4320 X12.037 Y56.584
G1 F1980 X7.901 Y52.449 E36.94473
G0 F4320 X7.901 Y51.954
G1 F1980 X12.532 Y56.584 E37.23631
G0 F4320 X13.027 Y56.584
G1 F1980 X7.901 Y51.459 E37.55907
G0 F4320 X7.901 Y50.964
G1 F1980 X13.522 Y56.584 E37.913
G0 F4320 X14.016 Y56.584
G1 F1980 X7.901 Y50.469 E38.29806
G0 F4320 X7.901 Y49.974
G1 F1980 X14.511 Y56.584 E38.7143
G0 F4320 X15.006 Y56.584
G1 F1980 X7.901 Y49.479 E39.1617
G0 F4320 X7.901 Y48.984
G1 F1980 X15.501 Y56.584 E39.64028
G0 F4320 X15.996 Y56.584
G1 F1980 X7.901 Y48.489 E40.15003
G0 F4320 X7.901 Y47.994
G1 F1980 X16.491 Y56.584 E40.69095
G0 F4320 X16.986 Y56.584
G1 F1980 X7.901 Y47.499 E41.26304
G0 F4320 X7.901 Y47.004
G1 F1980 X17.481 Y56.584 E41.8663
G0 F4320 X17.976 Y56.584
G1 F1980 X7.901 Y46.509 E42.50073
G0 F4320 X7.901 Y46.014
G1 F1980 X18.471 Y56.584 E43.16633
G0 F4320 X18.966 Y56.584
G1 F1980 X7.901 Y45.519 E43.8631
G0 F4320 X7.901 Y45.025
G1 F1980 X19.461 Y56.584 E44.59101
G0 F4320 X19.956 Y56.584
G1 F1980 X7.901 Y44.53 E45.35009
G0 F4320 X7.901 Y44.035
G1 F1980 X20.451 Y56.584 E46.14034
G0 F4320 X20.946 Y56.584
G1 F1980 X7.901 Y43.54 E46.96176
G0 F4320 X7.901 Y43.045
G1 F1980 X21.441 Y56.584 E47.81435
G0 F4320 X21.936 Y56.584
G1 F1980 X7.901 Y42.55 E48.69811
G0 F4320 X7.901 Y42.055
G1 F1980 X22.431 Y56.584 E49.61304
G0 F4320 X22.926 Y56.584
G1 F1980 X7.901 Y41.56 E50.55915
G0 F4320 X7.901 Y41.065
G1 F1980 X23.421 Y56.584 E51.53642
G0 F4320 X23.916 Y56.584
G1 F1980 X7.901 Y40.57 E52.54487
G0 F4320 X7.901 Y40.075
G1 F1980 X24.411 Y56.584 E53.58448
G0 F4320 X24.906 Y56.584
G1 F1980 X7.901 Y39.58 E54.65527
G0 F4320 X7.901 Y39.085
G1 F1980 X25.401 Y56.584 E55.75722
G0 F4320 X25.896 Y56.584
G1 F1980 X7.901 Y38.59 E56.89035
G0 F4320 X7.901 Y38.095
G1 F1980 X26.391 Y56.584 E58.05464
G0 F4320 X26.886 Y56.584
G1 F1980 X7.901 Y37.6 E59.25011
G0 F4320 X7.901 Y37.105
G1 F1980 X27.381 Y56.584 E60.47675
G0 F4320 X27.876 Y56.584
G1 F1980 X7.901 Y36.61 E61.73456
G0 F4320 X7.901 Y36.115
G1 F1980 X28.371 Y56.584 E63.02354
G0 F4320 X28.866 Y56.584
G1 F1980 X7.901 Y35.62 E64.34369
G0 F4320 X7.901 Y35.125
G1 F1980 X29.361 Y56.584 E65.695
G0 F4320 X29.856 Y56.584
G1 F1980 X7.901 Y34.63 E67.07749
G0 F4320 X7.901 Y34.135
G1 F1980 X30.351 Y56.584 E68.49116
G0 F4320 X30.846 Y56.584
G1 F1980 X7.901 Y33.64 E69.93599
G0 F4320 X7.901 Y33.145
G1 F1980 X31.341 Y56.584 E71.41199
G0 F4320 X31.836 Y56.584
G1 F1980 X7.901 Y32.65 E72.91916
G0 F4320 X7.901 Y32.155
G1 F1980 X32.331 Y56.584 E74.4575
G0 F4320 X32.826 Y56.584
G1 F1980 X7.901 Y31.66 E76.02702
G0 F4320 X7.901 Y31.165
G1 F1980 X33.32 Y56.584 E77.62767
G0 F4320 X33.816 Y56.585
G1 F1980 X7.901 Y30.67 E79.25955
G0 F4320 X7.901 Y30.175
G1 F1980 X34.311 Y56.585 E80.92261
G0 F4320 X34.806 Y56.585
G1 F1980 X7.901 Y29.68 E82.61684
G0 F4320 X7.901 Y29.185
G1 F1980 X35.301 Y56.585 E84.34223
G0 F4320 X35.796 Y56.585
G1 F1980 X7.901 Y28.69 E86.0988
G0 F4320 X7.901 Y28.195
G1 F1980 X36.291 Y56.585 E87.88654
G0 F4320 X36.786 Y56.585
G1 F1980 X7.901 Y27.7 E89.70545
G0 F4320 X7.901 Y27.205
G1 F1980 X37.281 Y56.585 E91.55553
G0 F4320 X37.776 Y56.585
G1 F1980 X7.901 Y26.71 E93.43678
G0 F4320 X7.901 Y26.215
G1 F1980 X38.271 Y56.585 E95.3492
G0 F4320 X38.766 Y56.585
G1 F1980 X7.901 Y25.721 E97.29276
G0 F4320 X7.901 Y25.226
G1 F1980 X39.261 Y56.585 E99.26748
G0 F4320 X39.756 Y56.585
G1 F1980 X7.901 Y24.731 E101.27338
G0 F4320 X7.901 Y24.236
G1 F1980 X40.251 Y56.585 E103.31046
G0 F4320 X40.746 Y56.585
G1 F1980 X7.901 Y23.741 E105.3787
G0 F4320 X7.901 Y23.246
G1 F1980 X41.241 Y56.585 E107.47811
G0 F4320 X41.736 Y56.585
G1 F1980 X7.901 Y22.751 E109.60869
G0 F4320 X7.901 Y22.256
G1 F1980 X42.231 Y56.585 E111.77044
G0 F4320 X42.726 Y56.585
G1 F1980 X7.901 Y21.761 E113.96337
G0 F4320 X7.901 Y21.266
G1 F1980 X43.221 Y56.585 E116.18746
G0 F4320 X43.716 Y56.585
G1 F1980 X7.901 Y20.771 E118.44272
G0 F4320 X7.901 Y20.276
G1 F1980 X44.211 Y56.585 E120.72916
G0 F4320 X44.706 Y56.585
G1 F1980 X7.901 Y19.781 E123.04676
G0 F4320 X7.901 Y19.286
G1 F1980 X45.201 Y56.585 E125.39554
G0 F4320 X45.696 Y56.585
G1 F1980 X7.901 Y18.791 E127.77548
G0 F4320 X7.901 Y18.296
G1 F1980 X46.191 Y56.585 E130.1866
G0 F4320 X46.686 Y56.585
G1 F1980 X7.901 Y17.801 E132.62889
G0 F4320 X7.901 Y17.306
G1 F1980 X47.18 Y56.585 E135.10231
G0 F4320 X47.675 Y56.585
G1 F1980 X7.901 Y16.811 E137.60691
G0 F4320 X7.901 Y16.316
G1 F1980 X48.17 Y56.585 E140.14268
G0 F4320 X48.665 Y56.585
G1 F1980 X7.901 Y15.821 E142.70961
G0 F4320 X7.901 Y15.326
G1 F1980 X49.16 Y56.585 E145.30772
G0 F4320 X49.655 Y56.585
G1 F1980 X7.901 Y14.831 E147.937
G0 F4320 X7.901 Y14.336
G1 F1980 X50.15 Y56.585 E150.59745
G0 F4320 X50.645 Y56.585
G1 F1980 X7.901 Y13.841 E153.28907
G0 F4320 X7.901 Y13.346
G1 F1980 X51.14 Y56.585 E156.01186
G0 F4320 X51.635 Y56.585
G1 F1980 X7.901 Y12.851 E158.76582
G0 F4320 X7.901 Y12.356
G1 F1980 X52.13 Y56.585 E161.55095
G0 F4320 X52.625 Y56.585
G1 F1980 X7.901 Y11.861 E164.36725
G0 F4320 X7.901 Y11.366
G1 F1980 X53.12 Y56.585 E167.21472
G0 F4320 X53.615 Y56.585
G1 F1980 X7.901 Y10.871 E170.09337
G0 F4320 X8.155 Y10.629
G1 F1980 X54.11 Y56.585 E172.98722
G0 F4320 X54.605 Y56.585
G1 F1980 X8.65 Y10.629 E175.88106
G0 F4320 X9.145 Y10.629
G1 F1980 X55.1 Y56.585 E178.77491
G0 F4320 X55.595 Y56.585
G1 F1980 X9.639 Y10.629 E181.6688
G0 F4320 X10.134 Y10.629
G1 F1980 X56.09 Y56.585 E184.56268
G0 F4320 X56.585 Y56.585
G1 F1980 X10.629 Y10.629 E187.45656
G0 F4320 X11.124 Y10.629
G1 F1980 X57.08 Y56.585 E190.35044
G0 F4320 X57.575 Y56.585
G1 F1980 X11.619 Y10.629 E193.24432
G0 F4320 X12.114 Y10.629
G1 F1980 X58.07 Y56.585 E196.1382
G0 F4320 X58.565 Y56.585
G1 F1980 X12.609 Y10.629 E199.03208
G0 F4320 X13.104 Y10.629
G1 F1980 X59.06 Y56.585 E201.92596
G0 F4320 X59.555 Y56.585
G1 F1980 X13.599 Y10.629 E204.81985
G0 F4320 X14.094 Y10.629
G1 F1980 X59.557 Y56.092 E207.68268
G0 F4320 X59.557 Y55.597
G1 F1980 X14.589 Y10.629 E210.51435
G0 F4320 X15.084 Y10.629
G1 F1980 X59.557 Y55.102 E213.31484
G0 F4320 X59.557 Y54.607
G1 F1980 X15.579 Y10.629 E216.08417
G0 F4320 X16.074 Y10.629
G1 F1980 X59.557 Y54.112 E218.82232
G0 F4320 X59.557 Y53.617
G1 F1980 X16.569 Y10.629 E221.52931
G0 F4320 X17.064 Y10.629
G1 F1980 X59.557 Y53.122 E224.20512
G0 F4320 X59.557 Y52.627
G1 F1980 X17.559 Y10.629 E226.84977
G0 F4320 X18.054 Y10.629
G1 F1980 X59.557 Y52.132 E229.46324
G0 F4320 X59.557 Y51.637
G1 F1980 X18.549 Y10.629 E232.04554
G0 F4320 X19.044 Y10.629
G1 F1980 X59.557 Y51.142 E234.59667
G0 F4320 X59.557 Y50.647
G1 F1980 X19.539 Y10.629 E237.11663
G0 F4320 X20.034 Y10.629
G1 F1980 X59.557 Y50.152 E239.60543
G0 F4320 X59.557 Y49.657
G1 F1980 X20.529 Y10.629 E242.06305
G0 F4320 X21.024 Y10.629
G1 F1980 X59.557 Y49.163 E244.48953
G0 F4320 X59.557 Y48.668
G1 F1980 X21.519 Y10.629 E246.88484
G0 F4320 X22.014 Y10.629
G1 F1980 X59.557 Y48.173 E249.24898
G0 F4320 X59.557 Y47.678
G1 F1980 X22.509 Y10.629 E251.58195
G0 F4320 X23.004 Y10.629
G1 F1980 X59.557 Y47.183 E253.88375
G0 F4320 X59.557 Y46.688
G1 F1980 X23.499 Y10.629 E256.15438
G0 F4320 X23.994 Y10.629
G1 F1980 X59.557 Y46.193 E258.39383
G0 F4320 X59.557 Y45.698
G1 F1980 X24.489 Y10.629 E260.60212
G0 F4320 X24.984 Y10.629
G1 F1980 X59.557 Y45.203 E262.77924
G0 F4320 X59.557 Y44.708
G1 F1980 X25.479 Y10.629 E264.92519
G0 F4320 X25.974 Y10.629
G1 F1980 X59.557 Y44.213 E267.03996
G0 F4320 X59.557 Y43.718
G1 F1980 X26.469 Y10.629 E269.12357
G0 F4320 X26.964 Y10.629
G1 F1980 X59.557 Y43.223 E271.176
G0 F4320 X59.557 Y42.728
G1 F1980 X27.459 Y10.629 E273.19727
G0 F4320 X27.954 Y10.629
G1 F1980 X59.557 Y42.233 E275.18736
G0 F4320 X59.557 Y41.738
G1 F1980 X28.449 Y10.629 E277.14629
G0 F4320 X28.944 Y10.629
G1 F1980 X59.557 Y41.243 E279.07404
G0 F4320 X59.557 Y40.748
G1 F1980 X29.438 Y10.629 E280.97065
G0 F4320 X29.933 Y10.629
G1 F1980 X59.557 Y40.253 E282.8361
G0 F4320 X59.557 Y39.758
G1 F1980 X30.428 Y10.629 E284.67037
G0 F4320 X30.923 Y10.629
G1 F1980 X59.557 Y39.263 E286.47347
G0 F4320 X59.557 Y38.768
G1 F1980 X31.418 Y10.629 E288.24541
G0 F4320 X31.913 Y10.629
G1 F1980 X59.557 Y38.273 E289.98617
G0 F4320 X59.557 Y37.778
G1 F1980 X32.408 Y10.629 E291.69576
G0 F4320 X32.903 Y10.629
G1 F1980 X59.557 Y37.283 E293.37418
G0 F4320 X59.557 Y36.788
G1 F1980 X33.398 Y10.629 E295.02143
G0 F4320 X33.893 Y10.629
G1 F1980 X59.557 Y36.293 E296.63751
G0 F4320 X59.557 Y35.798
G1 F1980 X34.388 Y10.629 E298.22242
G0 F4320 X34.883 Y10.629
G1 F1980 X59.557 Y35.303 E299.77616
G0 F4320 X59.557 Y34.808
G1 F1980 X35.378 Y10.629 E301.29873
G0 F4320 X35.873 Y10.629
G1 F1980 X59.557 Y34.313 E302.79013
G0 F4320 X59.557 Y33.818
G1 F1980 X36.368 Y10.629 E304.25035
G0 F4320 X36.863 Y10.629
G1 F1980 X59.557 Y33.323 E305.67941
G0 F4320 X59.557 Y32.828
G1 F1980 X37.358 Y10.629 E307.0773
G0 F4320 X37.853 Y10.629
G1 F1980 X59.557 Y32.333 E308.44401
G0 F4320 X59.557 Y31.838
G1 F1980 X38.348 Y10.629 E309.77956
G0 F4320 X38.843 Y10.629
G1 F1980 X59.557 Y31.343 E311.08393
G0 F4320 X59.557 Y30.848
G1 F1980 X39.338 Y10.629 E312.35714
G0 F4320 X39.833 Y10.629
G1 F1980 X59.557 Y30.353 E313.59917
G0 F4320 X59.557 Y29.858
G1 F1980 X40.328 Y10.629 E314.81004
G0 F4320 X40.823 Y10.629
G1 F1980 X59.557 Y29.364 E315.98976
G0 F4320 X59.557 Y28.869
G1 F1980 X41.318 Y10.629 E317.13831
G0 F4320 X41.813 Y10.629
G1 F1980 X59.557 Y28.374 E318.2557
G0 F4320 X59.557 Y27.879
G1 F1980 X42.308 Y10.629 E319.34191
G0 F4320 X42.803 Y10.629
G1 F1980 X59.557 Y27.384 E320.39695
G0 F4320 X59.557 Y26.889
G1 F1980 X43.298 Y10.629 E321.42083
G0 F4320 X43.793 Y10.629
G1 F1980 X59.557 Y26.394 E322.41353
G0 F4320 X59.557 Y25.899
G1 F1980 X44.288 Y10.629 E323.37506
G0 F4320 X44.783 Y10.629
G1 F1980 X59.557 Y25.404 E324.30542
G0 F4320 X59.557 Y24.909
G1 F1980 X45.278 Y10.629 E325.20461
G0 F4320 X45.773 Y10.629
G1 F1980 X59.557 Y24.414 E326.07263
G0 F4320 X59.557 Y23.919
G1 F1980 X46.268 Y10.629 E326.90948
G0 F4320 X46.763 Y10.629
G1 F1980 X59.557 Y23.424 E327.71516
G0 F4320 X59.557 Y22.929
G1 F1980 X47.258 Y10.629 E328.48966
G0 F4320 X47.753 Y10.629
G1 F1980 X59.557 Y22.434 E329.233
G0 F4320 X59.557 Y21.939
G1 F1980 X48.248 Y10.629 E329.94517
G0 F4320 X48.742 Y10.629
G1 F1980 X59.557 Y21.444 E330.6262
G0 F4320 X59.557 Y20.949
G1 F1980 X49.237 Y10.629 E331.27605
G0 F4320 X49.732 Y10.629
G1 F1980 X59.557 Y20.454 E331.89474
G0 F4320 X59.557 Y19.959
G1 F1980 X50.227 Y10.629 E332.48226
G0 F4320 X50.722 Y10.629
G1 F1980 X59.557 Y19.464 E333.0386
G0 F4320 X59.557 Y18.969
G1 F1980 X51.217 Y10.629 E333.56378
G0 F4320 X51.712 Y10.629
G1 F1980 X59.557 Y18.474 E334.05778
G0 F4320 X59.557 Y17.979
G1 F1980 X52.207 Y10.629 E334.52062
G0 F4320 X52.702 Y10.629
G1 F1980 X59.557 Y17.484 E334.95228
G0 F4320 X59.557 Y16.989
G1 F1980 X53.197 Y10.629 E335.35278
G0 F4320 X53.692 Y10.629
G1 F1980 X59.557 Y16.494 E335.7221
G0 F4320 X59.557 Y15.999
G1 F1980 X54.187 Y10.629 E336.06025
G0 F4320 X54.682 Y10.629
G1 F1980 X59.557 Y15.504 E336.36723
G0 F4320 X59.557 Y15.009
G1 F1980 X55.177 Y10.629 E336.64305
G0 F4320 X55.672 Y10.629
G1 F1980 X59.557 Y14.514 E336.88769
G0 F4320 X59.557 Y14.019
G1 F1980 X56.167 Y10.629 E337.10116
G0 F4320 X56.662 Y10.629
G1 F1980 X59.557 Y13.524 E337.28346
G0 F4320 X59.557 Y13.029
G1 F1980 X57.157 Y10.629 E337.43459
G0 F4320 X57.652 Y10.629
G1 F1980 X59.557 Y12.534 E337.55455
G0 F4320 X59.557 Y12.039
G1 F1980 X58.147 Y10.629 E337.64334
G0 F4320 X58.642 Y10.629
G1 F1980 X59.557 Y11.544 E337.70095
G0 F4320 X59.557 Y11.049
G1 F1980 X59.137 Y10.629 E337.7274
G0 F4320 X59.137 Y9.983
G1 F2400 E335.2274
;MESH:SlideMotorArmExtension.stl
G0 F4320 X59.898 Y10.29
G0 X60.535 Y30.469
G0 X61.595 Y30.469
G0 X64.705 Y30.469
G0 X65.765 Y30.469
G0 X71.245 Y30.469
;TYPE:WALL-INNER
G1 F2400 E337.7274
G1 F1980 X71.245 Y8.469 E338.707
G1 X72.358 Y8.469 E338.75655
G1 X72.366 Y8.469 E338.75691
G1 X72.761 Y8.469 E338.7745
G1 X72.366 Y8.81 E338.7879
G1 X72.362 Y8.816 E338.78822
G1 X71.996 Y9.347 E338.81693
G1 X71.766 Y9.953 E338.84579
G1 X71.69 Y10.594 E338.87454
G1 X71.766 Y11.234 E338.90323
G1 X71.996 Y11.84 E338.93209
G1 X72.363 Y12.372 E338.96087
G1 X72.847 Y12.801 E338.98967
G1 X73.42 Y13.101 E339.01847
G1 X74.048 Y13.255 E339.04726
G1 X74.692 Y13.255 E339.07594
G1 X75.319 Y13.101 E339.10469
G1 X75.894 Y12.801 E339.13356
G1 X76.377 Y12.371 E339.16236
G1 X76.744 Y11.84 E339.1911
G1 X76.974 Y11.234 E339.21996
G1 X77.05 Y10.594 E339.24866
G1 X76.974 Y9.953 E339.2774
G1 X76.744 Y9.347 E339.30626
G1 X76.378 Y8.817 E339.33494
G1 X76.377 Y8.815 E339.33504
G1 X75.988 Y8.469 E339.35822
G1 X76.377 Y8.469 E339.36596
G1 X76.38 Y8.469 E339.3661
G1 X77.495 Y8.469 E339.41574
G1 X77.495 Y30.469 E340.39534
G1 X82.495 Y30.469 E340.61797
G1 X82.495 Y36.619 E340.89181
G1 X82.495 Y37.007 E340.90909
G1 X82.204 Y36.75 E340.9185
G1 X82.072 Y36.633 E340.92636
G1 X81.564 Y36.367 E340.95189
G1 X81.006 Y36.23 E340.97747
G1 X80.434 Y36.23 E341.00294
G1 X79.876 Y36.366 E341.02852
G1 X79.39 Y36.622 E341.05297
G1 X78.94 Y37.01 E341.07943
G1 X78.612 Y37.486 E341.10517
G1 X78.408 Y38.025 E341.13083
G1 X78.34 Y38.594 E341.15635
G1 X78.408 Y39.163 E341.18186
G1 X78.612 Y39.701 E341.20748
G1 X78.937 Y40.173 E341.233
G1 X79.368 Y40.554 E341.25862
G1 X79.875 Y40.82 E341.28411
G1 X80.432 Y40.958 E341.30966
G1 X81.008 Y40.958 E341.33531
G1 X81.565 Y40.82 E341.36086
G1 X82.072 Y40.554 E341.38635
G1 X82.204 Y40.437 E341.39421
G1 X82.495 Y40.18 E341.41149
G1 X82.495 Y40.568 E341.4209
G1 X82.495 Y46.719 E341.69479
G1 X76.299 Y46.719 E341.97068
G1 X76.153 Y46.719 E341.97718
G1 X75.931 Y46.719 E341.98706
G1 X76.153 Y46.523 E341.99247
G1 X76.235 Y46.403 E341.99768
G1 X76.478 Y46.051 E342.01673
G1 X76.682 Y45.513 E342.04235
G1 X76.75 Y44.944 E342.06786
G1 X76.682 Y44.375 E342.09338
G1 X76.478 Y43.836 E342.11904
G1 X76.153 Y43.364 E342.14456
G1 X75.722 Y42.983 E342.17017
G1 X75.214 Y42.717 E342.1957
G1 X74.656 Y42.58 E342.22129
G1 X74.084 Y42.58 E342.24676
G1 X73.526 Y42.716 E342.27233
G1 X73.04 Y42.972 E342.29679
G1 X72.59 Y43.36 E342.32325
G1 X72.262 Y43.836 E342.34899
G1 X72.058 Y44.375 E342.37465
