;FLAVOR:Marlin
;TIME:4228
;Filament used: 5.89581m
;Layer height: 0.30625
;MINX:7.779
;MINY:7.507
;MINZ:0.306
;MAXX:55.679
;MAXY:55.407
;MAXZ:29.988
;Generated with Cura_SteamEngine 4.2.1
M140 S65
M105
M190 S65
M104 S205
M105
M109 S205
M82 ;absolute extrusion mode
G21;(metric values)
G90;(absolute positioning)
M82;(set extruder to absolute mode)
M107;(start with the fan off)
G28;(Home the printer)
G92 E0;(Reset the extruder to 0)
G0 Z5 E5 F500;(Move up and prime the nozzle)
G0 X-1 Z0;(Move outside the printable area)
G1 Y60 E8 F500;(Draw a priming/wiping line to the rear)
G1 X-1;(Move a little closer to the print area)
G1 Y10 E16 F500;(draw more priming/wiping)
G1 E15 F250;(Small retract)
G92 E0;(Zero the extruder)
M141 S28
G92 E0
G92 E0
G1 F2400 E-2.5
;LAYER_COUNT:98
;LAYER:0
M107
;MESH:LinearTray.stl
G0 F4320 X8.454 Y54.732 Z0.306
;TYPE:WALL-INNER
G1 F2400 E0
G1 F1980 X8.454 Y8.182 E2.07273
G1 X55.004 Y8.182 E4.14546
G1 X55.004 Y54.732 E6.2182
G1 X9.051 Y54.732 E8.26435
G0 F1782 X8.454 Y54.732
G0 F4320 X8.104 Y55.082
G1 F2400 E8.29093
G1 F1980 X8.104 Y7.832 E10.39483
G1 X55.354 Y7.832 E12.49873
G1 X55.354 Y55.082 E14.60263
G1 X8.701 Y55.082 E16.67995
G0 F1782 X8.104 Y55.082
G0 F4320 X7.779 Y55.407
;TYPE:WALL-OUTER
G1 F2400 E16.70653
G1 F1980 X7.779 Y7.507 E18.83938
G1 X55.679 Y7.507 E20.97222
G1 X55.679 Y55.407 E23.10506
G1 X8.376 Y55.407 E25.21132
G0 F1782 X7.779 Y55.407
G0 F4320 X7.779 Y55.207
G0 X8.054 Y55.207
G0 X8.539 Y54.392
G0 X8.794 Y54.392
;TYPE:SKIN
G1 F2400 E25.23791
G1 F1980 X8.794 Y8.522 E27.28036
G1 X54.664 Y8.522 E29.32281
G1 X54.664 Y54.392 E31.36527
G1 X9.391 Y54.392 E33.38114
G0 F1782 X8.794 Y54.392
G0 F4320 X9.191 Y54.234
G1 F2400 E33.40772
G1 F1980 X8.95 Y53.993 E33.4229
G0 F4320 X8.95 Y53.498
G1 F1980 X9.686 Y54.234 E33.46924
G0 F4320 X10.181 Y54.234
G1 F1980 X8.95 Y53.003 E33.54676
G0 F4320 X8.95 Y52.508
G1 F1980 X10.676 Y54.234 E33.65545
G0 F4320 X11.171 Y54.234
G1 F1980 X8.95 Y52.013 E33.79531
G0 F4320 X8.95 Y51.518
G1 F1980 X11.666 Y54.234 E33.96633
G0 F4320 X12.161 Y54.234
G1 F1980 X8.95 Y51.023 E34.16853
G0 F4320 X8.95 Y50.528
G1 F1980 X12.656 Y54.234 E34.4019
G0 F4320 X13.151 Y54.234
G1 F1980 X8.95 Y50.033 E34.66644
G0 F4320 X8.95 Y49.538
G1 F1980 X13.646 Y54.234 E34.96215
G0 F4320 X14.141 Y54.234
G1 F1980 X8.95 Y49.043 E35.28903
G0 F4320 X8.95 Y48.548
G1 F1980 X14.636 Y54.234 E35.64709
G0 F4320 X15.131 Y54.234
G1 F1980 X8.95 Y48.053 E36.03631
G0 F4320 X8.95 Y47.558
G1 F1980 X15.626 Y54.234 E36.4567
G0 F4320 X16.121 Y54.234
G1 F1980 X8.95 Y47.063 E36.90826
G0 F4320 X8.95 Y46.568
G1 F1980 X16.616 Y54.234 E37.391
G0 F4320 X17.111 Y54.234
G1 F1980 X8.95 Y46.073 E37.9049
G0 F4320 X8.95 Y45.578
G1 F1980 X17.606 Y54.234 E38.44997
G0 F4320 X18.101 Y54.234
G1 F1980 X8.95 Y45.083 E39.02622
G0 F4320 X8.95 Y44.588
G1 F1980 X18.596 Y54.234 E39.63363
G0 F4320 X19.091 Y54.234
G1 F1980 X8.95 Y44.093 E40.27222
G0 F4320 X8.95 Y43.598
G1 F1980 X19.586 Y54.234 E40.94198
G0 F4320 X20.081 Y54.234
G1 F1980 X8.95 Y43.103 E41.6429
G0 F4320 X8.95 Y42.608
G1 F1980 X20.576 Y54.234 E42.375
G0 F4320 X21.071 Y54.234
G1 F1980 X8.95 Y42.113 E43.13827
G0 F4320 X8.95 Y41.618
G1 F1980 X21.566 Y54.234 E43.93271
G0 F4320 X22.061 Y54.234
G1 F1980 X8.95 Y41.123 E44.75832
G0 F4320 X8.95 Y40.628
G1 F1980 X22.555 Y54.234 E45.61506
G0 F4320 X23.05 Y54.234
G1 F1980 X8.95 Y40.133 E46.50298
G0 F4320 X8.95 Y39.638
G1 F1980 X23.545 Y54.234 E47.42207
G0 F4320 X24.04 Y54.234
G1 F1980 X8.95 Y39.144 E48.3723
G0 F4320 X8.95 Y38.649
G1 F1980 X24.535 Y54.234 E49.3537
G0 F4320 X25.03 Y54.234
G1 F1980 X8.95 Y38.154 E50.36627
G0 F4320 X8.95 Y37.659
G1 F1980 X25.525 Y54.234 E51.41
G0 F4320 X26.02 Y54.234
G1 F1980 X8.95 Y37.164 E52.48491
G0 F4320 X8.95 Y36.669
G1 F1980 X26.515 Y54.234 E53.59099
G0 F4320 X27.01 Y54.234
G1 F1980 X8.95 Y36.174 E54.72825
G0 F4320 X8.95 Y35.679
G1 F1980 X27.505 Y54.234 E55.89667
G0 F4320 X28 Y54.234
G1 F1980 X8.95 Y35.184 E57.09626
G0 F4320 X8.95 Y34.689
G1 F1980 X28.495 Y54.234 E58.32702
G0 F4320 X28.99 Y54.234
G1 F1980 X8.95 Y34.194 E59.58895
G0 F4320 X8.95 Y33.699
G1 F1980 X29.485 Y54.234 E60.88206
G0 F4320 X29.98 Y54.234
G1 F1980 X8.95 Y33.204 E62.20633
G0 F4320 X8.95 Y32.709
G1 F1980 X30.475 Y54.234 E63.56177
G0 F4320 X30.97 Y54.234
G1 F1980 X8.95 Y32.214 E64.94839
G0 F4320 X8.95 Y31.719
G1 F1980 X31.465 Y54.234 E66.36617
G0 F4320 X31.96 Y54.234
G1 F1980 X8.95 Y31.224 E67.81513
G0 F4320 X8.95 Y30.729
G1 F1980 X32.455 Y54.234 E69.29526
G0 F4320 X32.95 Y54.234
G1 F1980 X8.95 Y30.234 E70.80655
G0 F4320 X8.95 Y29.739
G1 F1980 X33.445 Y54.234 E72.34902
G0 F4320 X33.94 Y54.234
G1 F1980 X8.95 Y29.244 E73.92266
G0 F4320 X8.95 Y28.749
G1 F1980 X34.435 Y54.234 E75.52747
G0 F4320 X34.93 Y54.234
G1 F1980 X8.95 Y28.254 E77.16344
G0 F4320 X8.95 Y27.759
G1 F1980 X35.425 Y54.234 E78.83059
G0 F4320 X35.92 Y54.234
G1 F1980 X8.95 Y27.264 E80.52891
G0 F4320 X8.95 Y26.769
G1 F1980 X36.415 Y54.234 E82.2584
G0 F4320 X36.91 Y54.234
G1 F1980 X8.95 Y26.274 E84.01906
G0 F4320 X8.95 Y25.779
G1 F1980 X37.405 Y54.234 E85.8109
G0 F4320 X37.9 Y54.234
G1 F1980 X8.95 Y25.284 E87.6339
G0 F4320 X8.95 Y24.789
G1 F1980 X38.395 Y54.234 E89.48807
G0 F4320 X38.89 Y54.234
G1 F1980 X8.95 Y24.294 E91.37341
G0 F4320 X8.95 Y23.799
G1 F1980 X39.385 Y54.234 E93.28993
G0 F4320 X39.88 Y54.234
G1 F1980 X8.95 Y23.304 E95.23761
G0 F4320 X8.95 Y22.809
G1 F1980 X40.375 Y54.234 E97.21646
G0 F4320 X40.87 Y54.234
G1 F1980 X8.95 Y22.314 E99.22649
G0 F4320 X8.95 Y21.819
G1 F1980 X41.365 Y54.234 E101.26768
G0 F4320 X41.86 Y54.234
G1 F1980 X8.95 Y21.324 E103.34005
G0 F4320 X8.95 Y20.829
G1 F1980 X42.354 Y54.234 E105.44355
G0 F4320 X42.849 Y54.234
G1 F1980 X8.95 Y20.334 E107.57823
G0 F4320 X8.95 Y19.84
G1 F1980 X43.344 Y54.234 E109.74404
G0 F4320 X43.839 Y54.234
G1 F1980 X8.95 Y19.345 E111.94103
G0 F4320 X8.95 Y18.85
G1 F1980 X44.334 Y54.234 E114.16918
G0 F4320 X44.829 Y54.234
G1 F1980 X8.95 Y18.355 E116.42851
G0 F4320 X8.95 Y17.86
G1 F1980 X45.324 Y54.234 E118.719
G0 F4320 X45.819 Y54.234
G1 F1980 X8.95 Y17.365 E121.04067
G0 F4320 X8.95 Y16.87
G1 F1980 X46.314 Y54.234 E123.39351
G0 F4320 X46.809 Y54.234
G1 F1980 X8.95 Y16.375 E125.77751
G0 F4320 X8.95 Y15.88
G1 F1980 X47.304 Y54.234 E128.19269
G0 F4320 X47.799 Y54.234
G1 F1980 X8.95 Y15.385 E130.63904
G0 F4320 X8.95 Y14.89
G1 F1980 X48.294 Y54.234 E133.11656
G0 F4320 X48.789 Y54.234
G1 F1980 X8.95 Y14.395 E135.62525
G0 F4320 X8.95 Y13.9
G1 F1980 X49.284 Y54.234 E138.16511
G0 F4320 X49.779 Y54.234
G1 F1980 X8.95 Y13.405 E140.73614
G0 F4320 X8.95 Y12.91
G1 F1980 X50.274 Y54.234 E143.33834
G0 F4320 X50.769 Y54.234
G1 F1980 X8.95 Y12.415 E145.97171
G0 F4320 X8.95 Y11.92
G1 F1980 X51.264 Y54.234 E148.63625
G0 F4320 X51.759 Y54.234
G1 F1980 X8.95 Y11.425 E151.33197
G0 F4320 X8.95 Y10.93
G1 F1980 X52.254 Y54.234 E154.05885
G0 F4320 X52.749 Y54.234
G1 F1980 X8.95 Y10.435 E156.8169
G0 F4320 X8.95 Y9.94
G1 F1980 X53.244 Y54.234 E159.60613
G0 F4320 X53.739 Y54.234
G1 F1980 X8.95 Y9.445 E162.42652
G0 F4320 X8.95 Y8.95
G1 F1980 X54.234 Y54.234 E165.27809
G0 F4320 X54.506 Y54.011
G1 F1980 X9.174 Y8.679 E168.13267
G0 F4320 X9.668 Y8.679
G1 F1980 X54.506 Y53.516 E170.95612
G0 F4320 X54.506 Y53.021
G1 F1980 X10.163 Y8.679 E173.7484
G0 F4320 X10.658 Y8.679
G1 F1980 X54.506 Y52.526 E176.50951
G0 F4320 X54.506 Y52.031
G1 F1980 X11.153 Y8.679 E179.23945
G0 F4320 X11.648 Y8.679
G1 F1980 X54.506 Y51.536 E181.93821
G0 F4320 X54.506 Y51.041
G1 F1980 X12.143 Y8.679 E184.60581
G0 F4320 X12.638 Y8.679
G1 F1980 X54.506 Y50.546 E187.24223
G0 F4320 X54.506 Y50.051
G1 F1980 X13.133 Y8.679 E189.84749
G0 F4320 X13.628 Y8.679
G1 F1980 X54.506 Y49.556 E192.42157
G0 F4320 X54.506 Y49.061
G1 F1980 X14.123 Y8.679 E194.96449
G0 F4320 X14.618 Y8.679
G1 F1980 X54.506 Y48.566 E197.47623
G0 F4320 X54.506 Y48.071
G1 F1980 X15.113 Y8.679 E199.9568
G0 F4320 X15.608 Y8.679
G1 F1980 X54.506 Y47.576 E202.40621
G0 F4320 X54.506 Y47.081
G1 F1980 X16.103 Y8.679 E204.82444
G0 F4320 X16.598 Y8.679
G1 F1980 X54.506 Y46.587 E207.21153
G0 F4320 X54.506 Y46.092
G1 F1980 X17.093 Y8.679 E209.56746
G0 F4320 X17.588 Y8.679
G1 F1980 X54.506 Y45.597 E211.89221
G0 F4320 X54.506 Y45.102
G1 F1980 X18.083 Y8.679 E214.18579
G0 F4320 X18.578 Y8.679
G1 F1980 X54.506 Y44.607 E216.4482
G0 F4320 X54.506 Y44.112
G1 F1980 X19.073 Y8.679 E218.67944
G0 F4320 X19.568 Y8.679
G1 F1980 X54.506 Y43.617 E220.87951
G0 F4320 X54.506 Y43.122
G1 F1980 X20.063 Y8.679 E223.04841
G0 F4320 X20.558 Y8.679
G1 F1980 X54.506 Y42.627 E225.18614
G0 F4320 X54.506 Y42.132
G1 F1980 X21.053 Y8.679 E227.2927
G0 F4320 X21.548 Y8.679
G1 F1980 X54.506 Y41.637 E229.36809
G0 F4320 X54.506 Y41.142
G1 F1980 X22.043 Y8.679 E231.4123
G0 F4320 X22.538 Y8.679
G1 F1980 X54.506 Y40.647 E233.42535
G0 F4320 X54.506 Y40.152
G1 F1980 X23.033 Y8.679 E235.40723
G0 F4320 X23.528 Y8.679
G1 F1980 X54.506 Y39.657 E237.35793
G0 F4320 X54.506 Y39.162
G1 F1980 X24.023 Y8.679 E239.27747
G0 F4320 X24.518 Y8.679
G1 F1980 X54.506 Y38.667 E241.16584
G0 F4320 X54.506 Y38.172
G1 F1980 X25.013 Y8.679 E243.02303
G0 F4320 X25.508 Y8.679
G1 F1980 X54.506 Y37.677 E244.84905
G0 F4320 X54.506 Y37.182
G1 F1980 X26.003 Y8.679 E246.64391
G0 F4320 X26.498 Y8.679
G1 F1980 X54.506 Y36.687 E248.40759
G0 F4320 X54.506 Y36.192
G1 F1980 X26.993 Y8.679 E250.1401
G0 F4320 X27.488 Y8.679
G1 F1980 X54.506 Y35.697 E251.84145
G0 F4320 X54.506 Y35.202
G1 F1980 X27.983 Y8.679 E253.51162
G0 F4320 X28.478 Y8.679
G1 F1980 X54.506 Y34.707 E255.15062
G0 F4320 X54.506 Y34.212
G1 F1980 X28.972 Y8.679 E256.75848
G0 F4320 X29.467 Y8.679
G1 F1980 X54.506 Y33.717 E258.33517
G0 F4320 X54.506 Y33.222
G1 F1980 X29.962 Y8.679 E259.88069
G0 F4320 X30.457 Y8.679
G1 F1980 X54.506 Y32.727 E261.39505
G0 F4320 X54.506 Y32.232
G1 F1980 X30.952 Y8.679 E262.87823
G0 F4320 X31.447 Y8.679
G1 F1980 X54.506 Y31.737 E264.33024
G0 F4320 X54.506 Y31.242
G1 F1980 X31.942 Y8.679 E265.75107
G0 F4320 X32.437 Y8.679
G1 F1980 X54.506 Y30.747 E267.14074
G0 F4320 X54.506 Y30.252
G1 F1980 X32.932 Y8.679 E268.49924
G0 F4320 X33.427 Y8.679
G1 F1980 X54.506 Y29.757 E269.82657
G0 F4320 X54.506 Y29.262
G1 F1980 X33.922 Y8.679 E271.12273
G0 F4320 X34.417 Y8.679
G1 F1980 X54.506 Y28.767 E272.38771
G0 F4320 X54.506 Y28.272
G1 F1980 X34.912 Y8.679 E273.62153
G0 F4320 X35.407 Y8.679
G1 F1980 X54.506 Y27.777 E274.82418
G0 F4320 X54.506 Y27.283
G1 F1980 X35.902 Y8.679 E275.99568
G0 F4320 X36.397 Y8.679
G1 F1980 X54.506 Y26.788 E277.13602
G0 F4320 X54.506 Y26.293
G1 F1980 X36.892 Y8.679 E278.24519
G0 F4320 X37.387 Y8.679
G1 F1980 X54.506 Y25.798 E279.32318
G0 F4320 X54.506 Y25.303
G1 F1980 X37.882 Y8.679 E280.37001
G0 F4320 X38.377 Y8.679
G1 F1980 X54.506 Y24.808 E281.38566
G0 F4320 X54.506 Y24.313
G1 F1980 X38.872 Y8.679 E282.37014
G0 F4320 X39.367 Y8.679
G1 F1980 X54.506 Y23.818 E283.32346
G0 F4320 X54.506 Y23.323
G1 F1980 X39.862 Y8.679 E284.2456
G0 F4320 X40.357 Y8.679
G1 F1980 X54.506 Y22.828 E285.13657
G0 F4320 X54.506 Y22.333
G1 F1980 X40.852 Y8.679 E285.99637
G0 F4320 X41.347 Y8.679
G1 F1980 X54.506 Y21.838 E286.82501
G0 F4320 X54.506 Y21.343
G1 F1980 X41.842 Y8.679 E287.62247
G0 F4320 X42.337 Y8.679
G1 F1980 X54.506 Y20.848 E288.38876
G0 F4320 X54.506 Y20.353
G1 F1980 X42.832 Y8.679 E289.12388
G0 F4320 X43.327 Y8.679
G1 F1980 X54.506 Y19.858 E289.82783
G0 F4320 X54.506 Y19.363
G1 F1980 X43.822 Y8.679 E290.5006
G0 F4320 X44.317 Y8.679
G1 F1980 X54.506 Y18.868 E291.14221
G0 F4320 X54.506 Y18.373
G1 F1980 X44.812 Y8.679 E291.75265
G0 F4320 X45.307 Y8.679
G1 F1980 X54.506 Y17.878 E292.33192
G0 F4320 X54.506 Y17.383
G1 F1980 X45.802 Y8.679 E292.88002
G0 F4320 X46.297 Y8.679
G1 F1980 X54.506 Y16.888 E293.39694
G0 F4320 X54.506 Y16.393
G1 F1980 X46.792 Y8.679 E293.8827
G0 F4320 X47.287 Y8.679
G1 F1980 X54.506 Y15.898 E294.33728
G0 F4320 X54.506 Y15.403
G1 F1980 X47.782 Y8.679 E294.7607
G0 F4320 X48.277 Y8.679
G1 F1980 X54.506 Y14.908 E295.15294
G0 F4320 X54.506 Y14.413
G1 F1980 X48.771 Y8.679 E295.51405
G0 F4320 X49.266 Y8.679
G1 F1980 X54.506 Y13.918 E295.84398
G0 F4320 X54.506 Y13.423
G1 F1980 X49.761 Y8.679 E296.14275
G0 F4320 X50.256 Y8.679
M104 S200
G1 F1980 X54.506 Y12.928 E296.41034
G0 F4320 X54.506 Y12.433
G1 F1980 X50.751 Y8.679 E296.64677
G0 F4320 X51.246 Y8.679
G1 F1980 X54.506 Y11.938 E296.85202
G0 F4320 X54.506 Y11.443
G1 F1980 X51.741 Y8.679 E297.0261
G0 F4320 X52.236 Y8.679
G1 F1980 X54.506 Y10.948 E297.16901
G0 F4320 X54.506 Y10.453
G1 F1980 X52.731 Y8.679 E297.28075
G0 F4320 X53.226 Y8.679
G1 F1980 X54.506 Y9.958 E297.36133
G0 F4320 X54.506 Y9.463
G1 F1980 X53.721 Y8.679 E297.41073
G0 F4320 X54.216 Y8.679
G1 F1980 X54.506 Y8.968 E297.42896
G0 F4320 X55.154 Y8.968
;MESH:NONMESH
G0 F600 X55.154 Y8.968 Z0.612
G0 F4320 X54.847 Y54.575
G0 X8.454 Y54.732
;TIME_ELAPSED:238.761010
;LAYER:1
M140 S60
M106 S255
;TYPE:WALL-INNER
;MESH:LinearTray.stl
G1 F2640 X8.454 Y8.182 E299.50169
G1 X55.004 Y8.182 E301.57442
G1 X55.004 Y54.732 E303.64715
G1 X9.051 Y54.732 E305.6933
G0 F2376 X8.454 Y54.732
G0 F5760 X8.104 Y55.082
G1 F2400 E305.71988
G1 F2640 X8.104 Y7.832 E307.82379
G1 X55.354 Y7.832 E309.92769
G1 X55.354 Y55.082 E312.03159
G1 X8.701 Y55.082 E314.10891
G0 F2376 X8.104 Y55.082
G0 F5760 X7.779 Y55.407
;TYPE:WALL-OUTER
G1 F2400 E314.13549
G1 F2227.5 X7.779 Y7.507 E316.26833
G1 X55.679 Y7.507 E318.40118
G1 X55.679 Y55.407 E320.53402
G1 X8.376 Y55.407 E322.64028
G0 F2004.8 X7.779 Y55.407
G0 F5760 X7.779 Y55.207
G0 X8.054 Y55.207
G0 X8.539 Y54.392
G0 X8.794 Y54.392
;TYPE:SKIN
G1 F2400 E322.66686
G1 F1650 X8.794 Y8.522 E324.70932
G1 X54.664 Y8.522 E326.75177
G1 X54.664 Y54.392 E328.79422
G1 X9.391 Y54.392 E330.81009
G0 F1485 X8.794 Y54.392
G0 F5760 X8.539 Y54.392
G0 X8.539 Y8.867
G0 X8.951 Y8.867
G1 F2400 E330.83668
G1 F1650 X9.14 Y8.679 E330.84855
G0 F5760 X9.635 Y8.679
G1 F1650 X8.951 Y9.362 E330.89159
G0 F5760 X8.951 Y9.857
G1 F1650 X10.13 Y8.679 E330.9658
G0 F5760 X10.624 Y8.679
G1 F1650 X8.951 Y10.352 E331.07115
G0 F5760 X8.951 Y10.847
G1 F1650 X11.119 Y8.679 E331.20767
G0 F5760 X11.614 Y8.679
G1 F1650 X8.951 Y11.342 E331.37536
G0 F5760 X8.951 Y11.837
G1 F1650 X12.109 Y8.679 E331.57422
G0 F5760 X12.604 Y8.679
G1 F1650 X8.951 Y12.332 E331.80425
G0 F5760 X8.951 Y12.827
G1 F1650 X13.099 Y8.679 E332.06546
G0 F5760 X13.594 Y8.679
G1 F1650 X8.951 Y13.322 E332.35783
G0 F5760 X8.951 Y13.817
G1 F1650 X14.089 Y8.679 E332.68137
G0 F5760 X14.584 Y8.679
G1 F1650 X8.951 Y14.312 E333.03609
G0 F5760 X8.951 Y14.807
G1 F1650 X15.079 Y8.679 E333.42197
G0 F5760 X15.574 Y8.679
G1 F1650 X8.951 Y15.302 E333.83903
G0 F5760 X8.951 Y15.797
G1 F1650 X16.069 Y8.679 E334.28725
G0 F5760 X16.564 Y8.679
G1 F1650 X8.951 Y16.292 E334.76665
G0 F5760 X8.951 Y16.787
G1 F1650 X17.059 Y8.679 E335.27721
G0 F5760 X17.554 Y8.679
G1 F1650 X8.951 Y17.282 E335.81895
G0 F5760 X8.951 Y17.777
G1 F1650 X18.049 Y8.679 E336.39186
G0 F5760 X18.544 Y8.679
G1 F1650 X8.951 Y18.272 E336.99594
G0 F5760 X8.951 Y18.767
G1 F1650 X19.039 Y8.679 E337.63118
G0 F5760 X19.534 Y8.679
G1 F1650 X8.951 Y19.262 E338.2976
G0 F5760 X8.951 Y19.757
G1 F1650 X20.029 Y8.679 E338.99519
G0 F5760 X20.524 Y8.679
G1 F1650 X8.951 Y20.252 E339.72395
G0 F5760 X8.951 Y20.747
G1 F1650 X21.019 Y8.679 E340.48388
G0 F5760 X21.514 Y8.679
G1 F1650 X8.951 Y21.242 E341.27498
G0 F5760 X8.951 Y21.737
G1 F1650 X22.009 Y8.679 E342.09725
G0 F5760 X22.504 Y8.679
G1 F1650 X8.951 Y22.232 E342.9507
G0 F5760 X8.951 Y22.727
G1 F1650 X22.999 Y8.679 E343.83531
G0 F5760 X23.494 Y8.679
G1 F1650 X8.951 Y23.222 E344.75109
G0 F5760 X8.951 Y23.717
G1 F1650 X23.989 Y8.679 E345.69805
G0 F5760 X24.484 Y8.679
G1 F1650 X8.951 Y24.212 E346.67617
G0 F5760 X8.951 Y24.707
G1 F1650 X24.979 Y8.679 E347.68546
G0 F5760 X25.474 Y8.679
G1 F1650 X8.951 Y25.201 E348.7259
G0 F5760 X8.951 Y25.696
G1 F1650 X25.969 Y8.679 E349.7975
G0 F5760 X26.464 Y8.679
G1 F1650 X8.951 Y26.191 E350.90027
G0 F5760 X8.951 Y26.686
G1 F1650 X26.959 Y8.679 E352.03422
G0 F5760 X27.454 Y8.679
G1 F1650 X8.951 Y27.181 E353.19933
G0 F5760 X8.951 Y27.676
G1 F1650 X27.949 Y8.679 E354.39562
G0 F5760 X28.444 Y8.679
G1 F1650 X8.951 Y28.171 E355.62308
G0 F5760 X8.951 Y28.666
G1 F1650 X28.939 Y8.679 E356.8817
G0 F5760 X29.434 Y8.679
