;FLAVOR:Marlin
;TIME:20635
;Filament used: 15.3661m
;Layer height: 0.175
;MINX:4.306
;MINY:5.555
;MINZ:0.263
;MAXX:115.075
;MAXY:115.91
;MAXZ:52.938
;Generated with Cura_SteamEngine 4.2.1
M140 S65
M105
M190 S65
M104 S205
M105
M109 S205
M82 ;absolute extrusion mode
G21;(metric values)
G90;(absolute positioning)
M82;(set extruder to absolute mode)
M107;(start with the fan off)
G28;(Home the printer)
G92 E0;(Reset the extruder to 0)
G0 Z5 E5 F500;(Move up and prime the nozzle)
G0 X-1 Z0;(Move outside the printable area)
G1 Y60 E8 F500;(Draw a priming/wiping line to the rear)
G1 X-1;(Move a little closer to the print area)
G1 Y10 E16 F500;(draw more priming/wiping)
G1 E15 F250;(Small retract)
G92 E0;(Zero the extruder)
M141 S28
G92 E0
G92 E0
G1 F2400 E-2.5
;LAYER_COUNT:302
;LAYER:0
M107
G0 F4320 X6.144 Y6.722 Z0.263
;TYPE:SKIRT
G1 F2400 E0
G1 F1800 X6.659 Y6.347 E0.02438
G1 X7.216 Y6.04 E0.04872
G1 X7.808 Y5.805 E0.0731
G1 X8.425 Y5.646 E0.09748
G1 X9.057 Y5.565 E0.12186
G1 X9.381 Y5.555 E0.13427
G1 X63.781 Y5.555 E2.21615
G1 X64.417 Y5.595 E2.24054
G1 X65.042 Y5.714 E2.26489
G1 X65.648 Y5.911 E2.28928
G1 X66.224 Y6.182 E2.31364
G1 X66.762 Y6.523 E2.33801
G1 X67.253 Y6.929 E2.3624
G1 X67.689 Y7.393 E2.38676
G1 X68.064 Y7.908 E2.41114
G1 X68.371 Y8.465 E2.43548
G1 X68.606 Y9.057 E2.45986
G1 X68.765 Y9.674 E2.48424
G1 X68.846 Y10.306 E2.50863
G1 X68.856 Y10.63 E2.52103
G1 X68.856 Y59.33 E4.38478
G1 X68.816 Y59.966 E4.40917
G1 X68.697 Y60.591 E4.43352
G1 X68.5 Y61.197 E4.4579
G1 X68.229 Y61.773 E4.48226
G1 X67.888 Y62.311 E4.50664
G1 X67.482 Y62.802 E4.53102
G1 X67.018 Y63.238 E4.55539
G1 X66.503 Y63.613 E4.57977
G1 X65.946 Y63.92 E4.60411
G1 X65.354 Y64.155 E4.62848
G1 X64.737 Y64.314 E4.65287
G1 X64.105 Y64.395 E4.67725
G1 X63.781 Y64.405 E4.68966
G1 X9.381 Y64.405 E6.77154
G1 X8.745 Y64.365 E6.79593
G1 X8.12 Y64.246 E6.82028
G1 X7.514 Y64.049 E6.84467
G1 X6.938 Y63.778 E6.86903
G1 X6.4 Y63.437 E6.8934
G1 X5.909 Y63.031 E6.91779
G1 X5.473 Y62.567 E6.94215
G1 X5.098 Y62.052 E6.96653
G1 X4.791 Y61.495 E6.99087
G1 X4.556 Y60.903 E7.01525
G1 X4.397 Y60.286 E7.03963
G1 X4.316 Y59.654 E7.06402
G1 X4.306 Y59.33 E7.07642
G1 X4.306 Y10.63 E8.94017
G1 X4.346 Y9.994 E8.96456
G1 X4.465 Y9.369 E8.9889
G1 X4.662 Y8.763 E9.01329
G1 X4.933 Y8.187 E9.03765
G1 X5.274 Y7.649 E9.06203
G1 X5.644 Y7.202 E9.08424
G0 F1620 X5.68 Y7.158
G0 X6.144 Y6.722
G0 F4320 X6.485 Y6.897
G1 F2400 E9.1108
G1 F1800 X6.994 Y6.552 E9.13433
G1 X7.543 Y6.277 E9.15783
G1 X8.124 Y6.075 E9.18137
G1 X8.725 Y5.951 E9.20485
G1 X9.381 Y5.905 E9.23002
G1 X63.781 Y5.905 E11.3119
G1 X64.394 Y5.945 E11.33541
G1 X64.997 Y6.064 E11.35893
G1 X65.579 Y6.261 E11.38245
G1 X66.131 Y6.531 E11.40597
G1 X66.643 Y6.871 E11.42949
G1 X67.107 Y7.274 E11.45301
G1 X67.514 Y7.734 E11.47651
G1 X67.859 Y8.243 E11.50004
G1 X68.134 Y8.792 E11.52354
G1 X68.336 Y9.373 E11.54708
G1 X68.46 Y9.974 E11.57057
G1 X68.506 Y10.63 E11.59573
G1 X68.506 Y59.33 E13.45948
G1 X68.466 Y59.943 E13.48299
G1 X68.347 Y60.546 E13.50651
G1 X68.15 Y61.128 E13.53003
G1 X67.88 Y61.68 E13.55354
G1 X67.54 Y62.192 E13.57706
G1 X67.137 Y62.656 E13.60058
G1 X66.677 Y63.063 E13.62409
G1 X66.168 Y63.408 E13.64762
G1 X65.619 Y63.683 E13.67112
G1 X65.038 Y63.885 E13.69466
G1 X64.437 Y64.009 E13.71815
G1 X63.781 Y64.055 E13.74331
G1 X9.381 Y64.055 E15.8252
G1 X8.768 Y64.015 E15.84871
G1 X8.165 Y63.896 E15.87223
G1 X7.583 Y63.699 E15.89574
G1 X7.031 Y63.429 E15.91926
G1 X6.519 Y63.089 E15.94278
G1 X6.055 Y62.686 E15.9663
G1 X5.648 Y62.226 E15.98981
G1 X5.303 Y61.717 E16.01334
G1 X5.028 Y61.168 E16.03684
G1 X4.826 Y60.587 E16.06038
G1 X4.702 Y59.986 E16.08386
G1 X4.656 Y59.33 E16.10903
G1 X4.656 Y10.63 E17.97277
G1 X4.696 Y10.017 E17.99628
G1 X4.815 Y9.414 E18.01981
G1 X5.012 Y8.832 E18.04332
G1 X5.282 Y8.28 E18.06684
G1 X5.622 Y7.768 E18.09036
G1 X5.973 Y7.364 E18.11084
G0 F1620 X6.025 Y7.304
G0 X6.485 Y6.897
G0 F4320 X6.369 Y7.457
G1 F2400 E18.1374
G1 F1800 X6.825 Y7.08 E18.16004
G1 X7.327 Y6.767 E18.18268
G1 X7.866 Y6.526 E18.20528
G1 X8.434 Y6.359 E18.22793
G1 X9.018 Y6.27 E18.25054
G1 X9.381 Y6.255 E18.26445
G1 X63.781 Y6.255 E20.34633
G1 X64.371 Y6.295 E20.36896
G1 X64.95 Y6.414 E20.39158
G1 X65.508 Y6.61 E20.41422
G1 X66.034 Y6.88 E20.43684
G1 X66.519 Y7.218 E20.45947
G1 X66.954 Y7.618 E20.48208
G1 X67.331 Y8.074 E20.50473
G1 X67.644 Y8.576 E20.52737
G1 X67.885 Y9.115 E20.54996
G1 X68.052 Y9.683 E20.57262
G1 X68.141 Y10.267 E20.59523
G1 X68.156 Y10.63 E20.60913
G1 X68.156 Y59.33 E22.47288
G1 X68.116 Y59.92 E22.49551
G1 X67.997 Y60.499 E22.51813
G1 X67.801 Y61.057 E22.54076
G1 X67.531 Y61.583 E22.56339
G1 X67.193 Y62.068 E22.58601
G1 X66.793 Y62.503 E22.60863
G1 X66.337 Y62.88 E22.63127
G1 X65.835 Y63.193 E22.65391
G1 X65.296 Y63.434 E22.67651
G1 X64.728 Y63.601 E22.69917
G1 X64.144 Y63.69 E22.72177
G1 X63.781 Y63.705 E22.73568
G1 X9.381 Y63.705 E24.81756
G1 X8.791 Y63.665 E24.84019
G1 X8.212 Y63.546 E24.86281
G1 X7.654 Y63.35 E24.88545
G1 X7.128 Y63.08 E24.90808
G1 X6.643 Y62.742 E24.9307
G1 X6.208 Y62.342 E24.95331
G1 X5.831 Y61.886 E24.97596
G1 X5.518 Y61.384 E24.9986
G1 X5.277 Y60.845 E25.02119
G1 X5.11 Y60.277 E25.04385
G1 X5.021 Y59.693 E25.06646
G1 X5.006 Y59.33 E25.08036
G1 X5.006 Y10.63 E26.94411
G1 X5.046 Y10.04 E26.96674
G1 X5.165 Y9.461 E26.98936
G1 X5.361 Y8.903 E27.01199
G1 X5.631 Y8.377 E27.03462
G1 X5.91 Y7.977 E27.05329
G0 F1620 X5.969 Y7.892
G0 X6.369 Y7.457
G0 F4320 X6.713 Y7.617
G1 F2400 E27.07984
G1 F1800 X7.163 Y7.271 E27.10157
G1 X7.657 Y6.993 E27.12326
G1 X8.185 Y6.787 E27.14495
G1 X8.737 Y6.657 E27.16665
G1 X9.381 Y6.605 E27.19138
G1 X63.781 Y6.605 E29.27327
G1 X64.347 Y6.645 E29.29498
G1 X64.901 Y6.764 E29.31667
G1 X65.433 Y6.96 E29.33836
G1 X65.933 Y7.228 E29.36007
G1 X66.389 Y7.565 E29.38177
G1 X66.794 Y7.962 E29.40348
G1 X67.14 Y8.412 E29.4252
G1 X67.418 Y8.906 E29.44689
G1 X67.624 Y9.434 E29.46858
G1 X67.754 Y9.986 E29.49029
G1 X67.806 Y10.63 E29.51501
G1 X67.806 Y59.33 E31.37876
G1 X67.766 Y59.896 E31.40047
G1 X67.647 Y60.45 E31.42216
G1 X67.451 Y60.982 E31.44386
G1 X67.183 Y61.482 E31.46557
G1 X66.846 Y61.938 E31.48727
G1 X66.449 Y62.343 E31.50897
G1 X65.999 Y62.689 E31.53069
G1 X65.505 Y62.967 E31.55239
G1 X64.977 Y63.173 E31.57408
G1 X64.425 Y63.303 E31.59578
G1 X63.781 Y63.355 E31.62051
G1 X9.381 Y63.355 E33.70239
G1 X8.815 Y63.315 E33.72411
G1 X8.261 Y63.196 E33.74579
G1 X7.729 Y63 E33.76749
G1 X7.229 Y62.732 E33.7892
G1 X6.773 Y62.395 E33.8109
G1 X6.368 Y61.998 E33.8326
G1 X6.022 Y61.548 E33.85433
G1 X5.744 Y61.054 E33.87602
G1 X5.538 Y60.526 E33.89771
G1 X5.408 Y59.974 E33.91941
G1 X5.356 Y59.33 E33.94414
G1 X5.356 Y10.63 E35.80788
G1 X5.396 Y10.064 E35.8296
G1 X5.515 Y9.51 E35.85128
G1 X5.711 Y8.978 E35.87298
G1 X5.979 Y8.478 E35.89469
G1 X6.241 Y8.124 E35.91155
G0 F1620 X6.316 Y8.022
G0 X6.713 Y7.617
G0 F4320 X7.055 Y7.785
G1 F2400 E35.93811
G1 F1800 X7.499 Y7.474 E35.95885
G1 X7.983 Y7.231 E35.97958
G1 X8.498 Y7.063 E36.00031
G1 X9.032 Y6.972 E36.02104
G1 X9.381 Y6.955 E36.03441
G1 X63.781 Y6.955 E38.1163
G1 X64.321 Y6.995 E38.13702
G1 X64.85 Y7.114 E38.15777
G1 X65.355 Y7.309 E38.17849
G1 X65.827 Y7.577 E38.19926
G1 X66.253 Y7.911 E38.21998
G1 X66.626 Y8.304 E38.24071
G1 X66.937 Y8.748 E38.26146
G1 X67.18 Y9.232 E38.28218
G1 X67.348 Y9.747 E38.30291
G1 X67.439 Y10.281 E38.32364
G1 X67.456 Y10.63 E38.33702
G1 X67.456 Y59.33 E40.20076
G1 X67.416 Y59.87 E40.22149
G1 X67.297 Y60.399 E40.24224
G1 X67.102 Y60.904 E40.26295
G1 X66.834 Y61.376 E40.28373
G1 X66.5 Y61.802 E40.30444
G1 X66.107 Y62.175 E40.32518
G1 X65.663 Y62.486 E40.34592
G1 X65.179 Y62.729 E40.36665
G1 X64.664 Y62.897 E40.38738
G1 X64.13 Y62.988 E40.40811
G1 X63.781 Y63.005 E40.42148
G1 X9.381 Y63.005 E42.50337
G1 X8.841 Y62.965 E42.52409
G1 X8.312 Y62.846 E42.54484
G1 X7.807 Y62.651 E42.56556
G1 X7.335 Y62.383 E42.58633
G1 X6.909 Y62.049 E42.60705
G1 X6.536 Y61.656 E42.62778
G1 X6.225 Y61.212 E42.64853
G1 X5.982 Y60.728 E42.66925
G1 X5.814 Y60.213 E42.68999
G1 X5.723 Y59.679 E42.71072
G1 X5.706 Y59.33 E42.72409
G1 X5.706 Y10.63 E44.58783
G1 X5.746 Y10.09 E44.60856
G1 X5.865 Y9.561 E44.62931
G1 X6.06 Y9.056 E44.65002
G1 X6.328 Y8.584 E44.6708
G1 X6.568 Y8.278 E44.68568
G0 F1620 X6.662 Y8.158
G0 X7.055 Y7.785
G0 F4320 X7.396 Y7.963
G1 F2400 E44.71224
G1 F1800 X7.832 Y7.688 E44.73197
G1 X8.305 Y7.484 E44.75168
G1 X8.804 Y7.355 E44.7714
G1 X9.381 Y7.305 E44.79357
G1 X63.781 Y7.305 E46.87545
G1 X64.295 Y7.345 E46.89518
G1 X64.796 Y7.464 E46.91489
G1 X65.273 Y7.659 E46.93461
G1 X65.715 Y7.925 E46.95435
G1 X66.109 Y8.256 E46.97405
G1 X66.448 Y8.645 E46.99379
G1 X66.723 Y9.081 E47.01352
G1 X66.927 Y9.554 E47.03323
G1 X67.056 Y10.053 E47.05296
G1 X67.106 Y10.63 E47.07512
G1 X67.106 Y59.33 E48.93887
G1 X67.066 Y59.844 E48.9586
G1 X66.947 Y60.345 E48.97831
G1 X66.752 Y60.822 E48.99803
G1 X66.486 Y61.264 E49.01777
G1 X66.155 Y61.658 E49.03746
G1 X65.766 Y61.997 E49.05721
G1 X65.33 Y62.272 E49.07694
G1 X64.857 Y62.476 E49.09665
G1 X64.358 Y62.605 E49.11638
G1 X63.781 Y62.655 E49.13854
G1 X9.381 Y62.655 E51.22043
G1 X8.867 Y62.615 E51.24016
G1 X8.366 Y62.496 E51.25986
G1 X7.889 Y62.301 E51.27958
G1 X7.447 Y62.035 E51.29933
G1 X7.053 Y61.704 E51.31902
G1 X6.714 Y61.315 E51.33877
G1 X6.439 Y60.879 E51.35849
G1 X6.235 Y60.406 E51.37821
G1 X6.106 Y59.907 E51.39793
G1 X6.056 Y59.33 E51.4201
G1 X6.056 Y10.63 E53.28384
G1 X6.096 Y10.116 E53.30357
G1 X6.215 Y9.615 E53.32328
G1 X6.41 Y9.138 E53.343
G1 X6.676 Y8.696 E53.36274
G1 X6.892 Y8.439 E53.37559
G0 F1620 X7.007 Y8.302
G0 X7.396 Y7.963
G0 F4320 X7.352 Y8.455
G1 F2400 E53.40215
G1 F1800 X7.734 Y8.152 E53.42081
G1 X8.161 Y7.917 E53.43946
G1 X8.62 Y7.754 E53.4581
G1 X9.1 Y7.668 E53.47676
G1 X9.381 Y7.655 E53.48753
G1 X63.781 Y7.655 E55.56941
G1 X64.267 Y7.695 E55.58808
G1 X64.74 Y7.814 E55.60674
G1 X65.187 Y8.008 E55.62539
G1 X65.596 Y8.273 E55.64404
G1 X65.956 Y8.601 E55.66268
G1 X66.259 Y8.983 E55.68134
G1 X66.494 Y9.41 E55.69999
G1 X66.657 Y9.869 E55.71863
G1 X66.743 Y10.349 E55.73729
G1 X66.756 Y10.63 E55.74806
G1 X66.756 Y59.33 E57.61181
G1 X66.716 Y59.816 E57.63047
G1 X66.597 Y60.289 E57.64913
G1 X66.403 Y60.736 E57.66778
G1 X66.138 Y61.145 E57.68643
G1 X65.81 Y61.505 E57.70507
G1 X65.428 Y61.808 E57.72373
G1 X65.001 Y62.043 E57.74238
G1 X64.542 Y62.206 E57.76102
G1 X64.062 Y62.292 E57.77969
G1 X63.781 Y62.305 E57.79045
G1 X9.381 Y62.305 E59.87234
G1 X8.895 Y62.265 E59.891
G1 X8.422 Y62.146 E59.90966
G1 X7.975 Y61.952 E59.92831
G1 X7.566 Y61.687 E59.94696
G1 X7.206 Y61.359 E59.9656
G1 X6.903 Y60.977 E59.98426
G1 X6.668 Y60.55 E60.00291
G1 X6.505 Y60.091 E60.02155
G1 X6.419 Y59.611 E60.04022
G1 X6.406 Y59.33 E60.05098
G1 X6.406 Y10.63 E61.91473
G1 X6.446 Y10.144 E61.93339
G1 X6.565 Y9.671 E61.95206
G1 X6.759 Y9.224 E61.9707
G1 X6.912 Y8.988 E61.98147
G0 F1620 X7.024 Y8.815
G0 X7.352 Y8.455
G0 F4320 X7.695 Y8.618
G1 F2400 E62.00803
G1 F1800 X8.07 Y8.356 E62.02553
G1 X8.485 Y8.163 E62.04305
G1 X8.927 Y8.045 E62.06056
G1 X9.381 Y8.005 E62.078
G1 X63.781 Y8.005 E64.15988
G1 X64.237 Y8.045 E64.1774
G1 X64.679 Y8.163 E64.19491
G1 X65.094 Y8.357 E64.21244
G1 X65.469 Y8.62 E64.22997
G1 X65.793 Y8.944 E64.24751
G1 X66.055 Y9.319 E64.26501
G1 X66.248 Y9.734 E64.28253
G1 X66.366 Y10.176 E64.30004
G1 X66.406 Y10.63 E64.31748
G1 X66.406 Y59.33 E66.18122
G1 X66.366 Y59.786 E66.19874
G1 X66.248 Y60.228 E66.21625
G1 X66.054 Y60.643 E66.23378
G1 X65.791 Y61.018 E66.25131
G1 X65.467 Y61.342 E66.26885
G1 X65.092 Y61.604 E66.28635
G1 X64.677 Y61.797 E66.30387
G1 X64.235 Y61.915 E66.32138
G1 X63.781 Y61.955 E66.33882
G1 X9.381 Y61.955 E68.4207
G1 X8.925 Y61.915 E68.43822
G1 X8.483 Y61.797 E68.45573
G1 X8.068 Y61.603 E68.47326
G1 X7.693 Y61.34 E68.49079
G1 X7.369 Y61.016 E68.50832
G1 X7.107 Y60.641 E68.52583
G1 X6.914 Y60.226 E68.54335
G1 X6.796 Y59.784 E68.56085
G1 X6.756 Y59.33 E68.5783
G1 X6.756 Y10.63 E70.44204
G1 X6.796 Y10.174 E70.45956
G1 X6.914 Y9.732 E70.47707
G1 X7.108 Y9.317 E70.4946
G1 X7.236 Y9.135 E70.50312
G0 F1620 X7.371 Y8.942
G0 X7.695 Y8.618
G0 F4320 X8.035 Y8.796
G1 F2400 E70.52967
G1 F1800 X8.401 Y8.577 E70.546
G1 X8.801 Y8.43 E70.56231
G1 X9.381 Y8.355 E70.58469
G1 X63.781 Y8.355 E72.66657
G1 X64.205 Y8.395 E72.68287
G1 X64.615 Y8.513 E72.6992
G1 X64.995 Y8.706 E72.71551
G1 X65.332 Y8.966 E72.7318
G1 X65.615 Y9.284 E72.74809
G1 X65.834 Y9.65 E72.76441
G1 X65.981 Y10.05 E72.78072
G1 X66.056 Y10.63 E72.8031
G1 X66.056 Y59.33 E74.66685
G1 X66.016 Y59.754 E74.68315
G1 X65.898 Y60.164 E74.69948
G1 X65.705 Y60.544 E74.71579
G1 X65.445 Y60.881 E74.73208
G1 X65.127 Y61.164 E74.74837
G1 X64.761 Y61.383 E74.76469
G1 X64.361 Y61.53 E74.781
G1 X63.781 Y61.605 E74.80338
G1 X9.381 Y61.605 E76.88526
G1 X8.957 Y61.565 E76.90156
G1 X8.547 Y61.447 E76.91789
G1 X8.167 Y61.254 E76.9342
G1 X7.83 Y60.994 E76.95049
G1 X7.547 Y60.676 E76.96678
G1 X7.328 Y60.31 E76.9831
G1 X7.181 Y59.91 E76.99941
G1 X7.106 Y59.33 E77.02179
G1 X7.106 Y10.63 E78.88554
G1 X7.146 Y10.206 E78.90184
G1 X7.264 Y9.796 E78.91817
G1 X7.457 Y9.416 E78.93448
G1 X7.553 Y9.292 E78.94048
G0 F1620 X7.717 Y9.079
G0 X8.035 Y8.796
G0 F4320 X8.062 Y9.228
G1 F2400 E78.96704
G1 F1800 X8.373 Y8.99 E78.98203
G1 X8.726 Y8.82 E78.99702
G1 X9.106 Y8.725 E79.01201
G1 X9.381 Y8.705 E79.02256
G1 X63.781 Y8.705 E81.10445
G1 X64.171 Y8.745 E81.11945
G1 X64.545 Y8.863 E81.13446
G1 X64.887 Y9.054 E81.14945
G1 X65.183 Y9.311 E81.16445
G1 X65.421 Y9.622 E81.17944
G1 X65.591 Y9.975 E81.19443
G1 X65.686 Y10.355 E81.20942
G1 X65.706 Y10.63 E81.21998
G1 X65.706 Y59.33 E83.08372
G1 X65.666 Y59.72 E83.09873
G1 X65.548 Y60.094 E83.11373
G1 X65.357 Y60.436 E83.12873
G1 X65.1 Y60.732 E83.14373
G1 X64.789 Y60.97 E83.15871
G1 X64.436 Y61.14 E83.17371
G1 X64.056 Y61.235 E83.1887
G1 X63.781 Y61.255 E83.19925
G1 X9.381 Y61.255 E85.28114
G1 X8.991 Y61.215 E85.29614
G1 X8.617 Y61.097 E85.31115
G1 X8.275 Y60.906 E85.32614
G1 X7.979 Y60.649 E85.34114
G1 X7.741 Y60.338 E85.35613
G1 X7.571 Y59.985 E85.37112
G1 X7.476 Y59.605 E85.38611
G1 X7.456 Y59.33 E85.39666
G1 X7.456 Y10.63 E87.26041
G1 X7.496 Y10.24 E87.27541
G1 X7.614 Y9.866 E87.29042
G1 X7.658 Y9.788 E87.29385
G0 F1620 X7.805 Y9.524
G0 X8.062 Y9.228
G0 F4320 X8.404 Y9.394
G1 F2400 E87.32041
G1 F1800 X8.705 Y9.207 E87.33397
G1 X9.041 Y9.092 E87.34756
G1 X9.381 Y9.055 E87.36065
G1 X63.781 Y9.055 E89.44253
G1 X64.133 Y9.095 E89.45609
G1 X64.467 Y9.212 E89.46964
G1 X64.767 Y9.402 E89.48323
G1 X65.017 Y9.653 E89.49678
G1 X65.204 Y9.954 E89.51035
G1 X65.319 Y10.29 E89.52394
G1 X65.356 Y10.63 E89.53702
G1 X65.356 Y59.33 E91.40077
G1 X65.316 Y59.682 E91.41433
G1 X65.199 Y60.016 E91.42787
G1 X65.009 Y60.316 E91.44146
G1 X64.758 Y60.566 E91.45502
G1 X64.457 Y60.753 E91.46858
G1 X64.121 Y60.868 E91.48217
G1 X63.781 Y60.905 E91.49526
G1 X9.381 Y60.905 E93.57715
G1 X9.029 Y60.865 E93.5907
G1 X8.695 Y60.748 E93.60425
G1 X8.395 Y60.558 E93.61784
G1 X8.145 Y60.307 E93.63139
G1 X7.958 Y60.006 E93.64496
G1 X7.843 Y59.67 E93.65855
G1 X7.806 Y59.33 E93.67164
G1 X7.806 Y10.63 E95.53538
G1 X7.846 Y10.278 E95.54894
G1 X7.963 Y9.944 E95.56248
G1 X7.972 Y9.931 E95.56309
G0 F1620 X8.153 Y9.644
G0 X8.404 Y9.394
G0 F4320 X8.499 Y9.78
G1 F2400 E95.58965
G1 F1800 X8.743 Y9.584 E95.60162
G1 X9.028 Y9.457 E95.61357
G1 X9.381 Y9.405 E95.62722
G1 X63.781 Y9.405 E97.70911
G1 X64.091 Y9.445 E97.72107
G1 X64.381 Y9.562 E97.73304
G1 X64.631 Y9.748 E97.74496
G1 X64.827 Y9.992 E97.75694
G1 X64.954 Y10.277 E97.76888
G1 X65.006 Y10.63 E97.78253
G1 X65.006 Y59.33 E99.64628
G1 X64.966 Y59.64 E99.65824
G1 X64.849 Y59.93 E99.67021
G1 X64.663 Y60.18 E99.68213
G1 X64.419 Y60.376 E99.69411
G1 X64.134 Y60.503 E99.70605
G1 X63.781 Y60.555 E99.71971
G1 X9.381 Y60.555 E101.80159
G1 X9.071 Y60.515 E101.81355
G1 X8.781 Y60.398 E101.82552
G1 X8.531 Y60.212 E101.83745
G1 X8.335 Y59.968 E101.84942
G1 X8.208 Y59.683 E101.86137
G1 X8.156 Y59.33 E101.87502
G1 X8.156 Y10.63 E103.73877
G1 X8.187 Y10.39 E103.74803
G0 F1620 X8.196 Y10.32
G0 X8.313 Y10.03
G0 X8.499 Y9.78
G0 F4320 X8.843 Y9.94
G1 F2400 E103.77459
G1 F1800 X9.073 Y9.811 E103.78468
G1 X9.381 Y9.755 E103.79666
G1 X63.781 Y9.755 E105.87854
G1 X64.042 Y9.795 E105.88865
G1 X64.279 Y9.91 E105.89873
