;FLAVOR:Marlin
;TIME:3088
;Filament used: 2.13648m
;Layer height: 0.175
;MINX:24.583
;MINY:25.04
;MINZ:0.263
;MAXX:35.913
;MAXY:95.825
;MAXZ:29.838
;Generated with Cura_SteamEngine 4.2.1
M140 S65
M105
M190 S65
M104 S205
M105
M109 S205
M82 ;absolute extrusion mode
G21;(metric values)
G90;(absolute positioning)
M82;(set extruder to absolute mode)
M107;(start with the fan off)
G28;(Home the printer)
G92 E0;(Reset the extruder to 0)
G0 Z5 E5 F500;(Move up and prime the nozzle)
G0 X-1 Z0;(Move outside the printable area)
G1 Y60 E8 F500;(Draw a priming/wiping line to the rear)
G1 X-1;(Move a little closer to the print area)
G1 Y10 E16 F500;(draw more priming/wiping)
G1 E15 F250;(Small retract)
G92 E0;(Zero the extruder)
M141 S28
G92 E0
G92 E0
G1 F2400 E-2.5
;LAYER_COUNT:170
;LAYER:0
M107
;MESH:Gripper-V-7.stl
G0 F4320 X27.934 Y53.081 Z0.263
;TYPE:WALL-INNER
G1 F2400 E0
G1 F1800 X27.868 Y53.65 E0.02192
G1 X27.934 Y54.219 E0.04384
G1 X28.14 Y54.757 E0.06589
G1 X28.465 Y55.23 E0.08785
G1 X28.896 Y55.609 E0.10982
G1 X29.403 Y55.877 E0.13176
G1 X29.962 Y56.014 E0.15379
G1 X30.534 Y56.014 E0.17568
G1 X31.093 Y55.877 E0.19771
G1 X31.6 Y55.609 E0.21965
G1 X32.031 Y55.23 E0.24162
G1 X32.356 Y54.756 E0.26361
G1 X32.56 Y54.219 E0.2856
G1 X32.628 Y53.65 E0.30753
G1 X32.56 Y53.081 E0.32946
G1 X32.356 Y52.544 E0.35144
G1 X32.031 Y52.07 E0.37344
G1 X31.6 Y51.691 E0.3954
G1 X31.093 Y51.423 E0.41735
G1 X30.534 Y51.286 E0.43937
G1 X29.962 Y51.286 E0.46126
G1 X29.403 Y51.423 E0.48329
G1 X28.907 Y51.684 E0.50474
G1 X28.468 Y52.068 E0.52706
G1 X28.207 Y52.446 E0.54464
G0 F1620 X28.14 Y52.543
G0 X27.934 Y53.081
G1 F2400 E-1.95536
G0 F4320 X28.34 Y55.341
G0 X29.625 Y54.201
G0 X29.779 Y65.579
G0 X28.813 Y64.246
G0 X27.934 Y65.781
G1 F2400 E0.5712
G1 F1800 X27.868 Y66.35 E0.59312
G1 X27.934 Y66.919 E0.61504
G1 X28.14 Y67.457 E0.63709
G1 X28.465 Y67.93 E0.65905
G1 X28.896 Y68.309 E0.68102
G1 X29.403 Y68.577 E0.70296
G1 X29.962 Y68.714 E0.72499
G1 X30.534 Y68.714 E0.74688
G1 X31.093 Y68.577 E0.76891
G1 X31.6 Y68.309 E0.79085
G1 X32.031 Y67.93 E0.81282
G1 X32.356 Y67.456 E0.83481
G1 X32.56 Y66.919 E0.8568
G1 X32.628 Y66.35 E0.87873
G1 X32.56 Y65.781 E0.90066
G1 X32.356 Y65.244 E0.92264
G1 X32.031 Y64.77 E0.94463
G1 X31.6 Y64.391 E0.9666
G1 X31.093 Y64.123 E0.98855
G1 X30.534 Y63.986 E1.01057
G1 X29.962 Y63.986 E1.03246
G1 X29.403 Y64.123 E1.05449
G1 X28.907 Y64.384 E1.07594
G1 X28.468 Y64.768 E1.09826
G1 X28.207 Y65.146 E1.11584
G0 F1620 X28.14 Y65.243
G0 X27.934 Y65.781
G1 F2400 E-1.38416
G0 F4320 X28.34 Y68.041
G0 X26.308 Y68.041
G0 X26.123 Y94.285
G1 F2400 E1.1424
G1 F1800 X26.123 Y25.715 E3.76657
G1 X34.373 Y25.715 E4.08229
G1 X34.373 Y94.285 E6.70646
G1 X26.817 Y94.285 E6.99563
G0 F1620 X26.123 Y94.285
G0 F4320 X25.773 Y94.635
G1 F2400 E7.02219
G1 F1800 X25.773 Y25.365 E9.67315
G1 X34.723 Y25.365 E10.01567
G1 X34.723 Y94.635 E12.66663
G1 X26.467 Y94.635 E12.98258
G0 F1620 X25.773 Y94.635
G1 F2400 E10.48258
G0 F4320 X26.308 Y67.696
G0 X27.814 Y67.121
G0 X28.813 Y67.622
G0 X29.567 Y68.143
G0 X30.478 Y68.253
G0 X31.767 Y67.696
G1 F2400 E13.00914
G1 F1800 X32.044 Y67.292 E13.02789
G1 X32.218 Y66.835 E13.0466
G1 X32.276 Y66.35 E13.06529
G1 X32.218 Y65.865 E13.08399
G1 X32.044 Y65.408 E13.1027
G1 X31.767 Y65.004 E13.12145
G1 X31.4 Y64.681 E13.14016
G1 X30.968 Y64.453 E13.15885
G1 X30.492 Y64.336 E13.17761
G1 X30.004 Y64.336 E13.19629
G1 X29.528 Y64.453 E13.21505
G1 X29.106 Y64.675 E13.23329
G1 X28.731 Y65.003 E13.25236
G1 X28.452 Y65.407 E13.27115
G1 X28.277 Y65.865 E13.28991
G1 X28.22 Y66.35 E13.3086
G1 X28.277 Y66.835 E13.32729
G1 X28.452 Y67.293 E13.34605
G1 X28.729 Y67.696 E13.36477
G1 X29.096 Y68.019 E13.38348
G1 X29.528 Y68.247 E13.40217
G1 X30.004 Y68.364 E13.42093
G1 X30.492 Y68.364 E13.43961
G1 X30.968 Y68.247 E13.45837
G1 X31.218 Y68.115 E13.46918
G0 F1620 X31.4 Y68.019
G0 X31.767 Y67.696
G1 F2400 E10.96918
G0 F4320 X32.109 Y66.808
G0 X32.109 Y65.892
G0 X31.152 Y63.967
G0 X30.541 Y65.572
G0 X30.541 Y54.509
G0 X31.152 Y56.033
G0 X31.767 Y54.996
G1 F2400 E13.49574
G1 F1800 X32.044 Y54.592 E13.51449
G1 X32.218 Y54.135 E13.5332
G1 X32.276 Y53.65 E13.5519
G1 X32.218 Y53.165 E13.57059
G1 X32.044 Y52.708 E13.58931
G1 X31.767 Y52.304 E13.60805
G1 X31.4 Y51.981 E13.62676
G1 X30.968 Y51.753 E13.64546
G1 X30.492 Y51.636 E13.66421
G1 X30.004 Y51.636 E13.68289
G1 X29.528 Y51.753 E13.70165
G1 X29.106 Y51.975 E13.7199
G1 X28.731 Y52.303 E13.73896
G1 X28.452 Y52.707 E13.75775
G1 X28.277 Y53.165 E13.77652
G1 X28.22 Y53.65 E13.7952
G1 X28.277 Y54.135 E13.81389
G1 X28.452 Y54.593 E13.83266
G1 X28.729 Y54.996 E13.85137
G1 X29.096 Y55.319 E13.87008
G1 X29.528 Y55.547 E13.88878
G1 X30.004 Y55.664 E13.90753
G1 X30.492 Y55.664 E13.92621
G1 X30.968 Y55.547 E13.94497
G1 X31.218 Y55.415 E13.95579
G0 F1620 X31.4 Y55.319
G0 X31.767 Y54.996
G0 F4320 X30.929 Y55.443
G0 X30.018 Y55.553
G0 X29.16 Y55.227
G0 X28.551 Y54.541
G0 X28.331 Y53.65
G0 X28.75 Y52.365
G0 X28.975 Y52.521
;TYPE:WALL-OUTER
G1 F2400 E13.98235
G1 F1800 X28.742 Y52.859 E13.99806
G1 X28.595 Y53.243 E14.01379
G1 X28.547 Y53.65 E14.02948
G1 X28.595 Y54.057 E14.04516
G1 X28.742 Y54.441 E14.0609
G1 X28.974 Y54.779 E14.07659
G1 X29.282 Y55.05 E14.09229
G1 X29.644 Y55.241 E14.10795
G1 X30.043 Y55.339 E14.12367
G1 X30.453 Y55.339 E14.13936
G1 X30.852 Y55.241 E14.15509
G1 X31.214 Y55.05 E14.17075
G1 X31.522 Y54.779 E14.18645
G1 X31.754 Y54.44 E14.20217
G1 X31.9 Y54.057 E14.21786
G1 X31.949 Y53.65 E14.23355
G1 X31.9 Y53.243 E14.24924
G1 X31.754 Y52.86 E14.26492
G1 X31.522 Y52.521 E14.28064
G1 X31.214 Y52.25 E14.29634
G1 X30.852 Y52.059 E14.31201
G1 X30.453 Y51.961 E14.32773
G1 X30.043 Y51.961 E14.34342
G1 X29.644 Y52.059 E14.35914
G1 X29.534 Y52.117 E14.3639
G0 F1620 X29.291 Y52.245
G0 X28.975 Y52.521
G0 F4320 X28.862 Y52.685
G1 F2400 E11.8639
G0 F4320 X28.636 Y52.53
G0 X28.386 Y53.192
G0 X28.801 Y55.746
G0 X29.774 Y54.333
G0 X30.149 Y65.483
G0 X29.942 Y63.82
G0 X28.75 Y65.064
G0 X28.975 Y65.221
G1 F2400 E14.39046
G1 F1800 X28.742 Y65.559 E14.40617
G1 X28.595 Y65.943 E14.42191
G1 X28.547 Y66.35 E14.43759
G1 X28.595 Y66.757 E14.45328
G1 X28.742 Y67.141 E14.46901
G1 X28.974 Y67.479 E14.4847
G1 X29.282 Y67.75 E14.5004
G1 X29.644 Y67.941 E14.51607
G1 X30.043 Y68.039 E14.53179
G1 X30.453 Y68.039 E14.54748
G1 X30.852 Y67.941 E14.5632
G1 X31.214 Y67.75 E14.57887
G1 X31.522 Y67.479 E14.59457
G1 X31.754 Y67.14 E14.61029
G1 X31.9 Y66.757 E14.62598
G1 X31.949 Y66.35 E14.64166
G1 X31.9 Y65.943 E14.65735
G1 X31.754 Y65.56 E14.67304
G1 X31.522 Y65.221 E14.68876
G1 X31.214 Y64.95 E14.70446
G1 X30.852 Y64.759 E14.72012
G1 X30.453 Y64.661 E14.73585
G1 X30.043 Y64.661 E14.75154
G1 X29.644 Y64.759 E14.76726
G1 X29.534 Y64.817 E14.77202
G0 F1620 X29.291 Y64.945
G0 X28.975 Y65.221
G0 F4320 X28.862 Y65.385
G1 F2400 E12.27202
G0 F4320 X28.636 Y65.23
G0 X28.386 Y65.892
G0 X28.801 Y68.446
G0 X26.308 Y68.446
G0 X25.723 Y94.715
G0 X25.448 Y94.96
G1 F2400 E14.79858
G1 F1800 X25.448 Y25.04 E17.47441
G1 X35.048 Y25.04 E17.8418
G1 X35.048 Y94.96 E20.51764
G1 X26.142 Y94.96 E20.85847
G0 F1620 X25.448 Y94.96
G0 F4320 X25.448 Y94.76
G0 X25.723 Y94.76
G0 X26.208 Y93.945
G0 X26.463 Y93.945
;TYPE:SKIN
G1 F2400 E20.88503
G1 F1800 X26.463 Y26.055 E23.48318
G1 X34.033 Y26.055 E23.77288
G1 X34.033 Y93.945 E26.37103
G1 X27.157 Y93.945 E26.63417
G0 F1620 X26.463 Y93.945
G1 F2400 E24.13417
G0 F4320 X26.208 Y93.945
G0 X26.308 Y68.799
G0 X28.801 Y68.446
G0 X29.952 Y68.799
G0 X29.921 Y69.054
G1 F2400 E26.66073
G1 F1800 X30.575 Y69.054 E26.68576
G1 X31.215 Y68.897 E26.71098
G1 X31.794 Y68.591 E26.73604
G1 X32.287 Y68.157 E26.76118
G1 X32.659 Y67.615 E26.78633
G1 X32.892 Y67.001 E26.81147
G1 X32.97 Y66.35 E26.83656
G1 X32.892 Y65.699 E26.86165
G1 X32.659 Y65.085 E26.88678
G1 X32.287 Y64.543 E26.91194
G1 X31.794 Y64.109 E26.93708
G1 X31.215 Y63.803 E26.96214
G1 X30.575 Y63.646 E26.98736
G1 X29.921 Y63.646 E27.01239
G1 X29.281 Y63.803 E27.03761
G1 X28.713 Y64.102 E27.06217
G1 X28.212 Y64.54 E27.08764
G1 X27.837 Y65.084 E27.11293
G1 X27.601 Y65.699 E27.13813
G1 X27.526 Y66.35 E27.16321
G1 X27.601 Y67.001 E27.18829
G1 X27.837 Y67.616 E27.2135
G1 X28.209 Y68.157 E27.23863
G1 X28.702 Y68.591 E27.26376
G1 X29.25 Y68.881 E27.28749
G0 F1620 X29.281 Y68.897
G0 X29.921 Y69.054
G1 F2400 E24.78749
G0 F4320 X29.952 Y68.799
G0 X28.813 Y67.622
G0 X28.386 Y66.808
G0 X28.386 Y65.892
G0 X29.952 Y63.821
G0 X30.163 Y65.562
G0 X30.146 Y54.553
G0 X29.952 Y56.179
G0 X29.921 Y56.354
G1 F2400 E27.31405
G1 F1800 X30.575 Y56.354 E27.33908
G1 X31.215 Y56.197 E27.3643
G1 X31.794 Y55.891 E27.38936
G1 X32.287 Y55.457 E27.4145
G1 X32.659 Y54.915 E27.43965
G1 X32.892 Y54.301 E27.46479
G1 X32.97 Y53.65 E27.48988
G1 X32.892 Y52.999 E27.51497
G1 X32.659 Y52.385 E27.5401
G1 X32.287 Y51.843 E27.56526
G1 X31.794 Y51.409 E27.5904
G1 X31.215 Y51.103 E27.61546
G1 X30.575 Y50.946 E27.64068
G1 X29.921 Y50.946 E27.66571
G1 X29.281 Y51.103 E27.69093
G1 X28.713 Y51.402 E27.71549
G1 X28.212 Y51.84 E27.74096
G1 X27.837 Y52.384 E27.76625
G1 X27.601 Y52.999 E27.79146
G1 X27.526 Y53.65 E27.81653
G1 X27.601 Y54.301 E27.84161
G1 X27.837 Y54.916 E27.86682
G1 X28.209 Y55.457 E27.89195
G1 X28.702 Y55.891 E27.91708
G1 X29.25 Y56.181 E27.94081
G0 F1620 X29.281 Y56.197
G0 X29.921 Y56.354
G1 F2400 E25.44081
G0 F4320 X29.952 Y56.099
G0 X28.813 Y54.922
G0 X28.386 Y54.108
G0 X28.386 Y53.192
G0 X28.814 Y52.378
G0 X30.554 Y51.12
G0 X30.39 Y52.834
G0 X35.833 Y51.144
G0 X34.188 Y51.12
G0 X34.288 Y26.451
G0 X33.876 Y26.451
G1 F2400 E27.96737
G1 F1800 X33.636 Y26.211 E27.98036
G0 F4320 X33.141 Y26.211
G1 F1800 X33.876 Y26.946 E28.02014
G0 F4320 X33.876 Y27.441
G1 F1800 X32.646 Y26.211 E28.08671
G0 F4320 X32.151 Y26.211
G1 F1800 X33.876 Y27.936 E28.18007
G0 F4320 X33.876 Y28.431
G1 F1800 X31.656 Y26.211 E28.30022
G0 F4320 X31.161 Y26.211
G1 F1800 X33.876 Y28.926 E28.44716
G0 F4320 X33.876 Y29.421
G1 F1800 X30.666 Y26.211 E28.62089
G0 F4320 X30.171 Y26.211
G1 F1800 X33.876 Y29.916 E28.82141
G0 F4320 X33.876 Y30.411
G1 F1800 X29.676 Y26.211 E29.04873
G0 F4320 X29.181 Y26.211
G1 F1800 X33.876 Y30.906 E29.30283
G0 F4320 X33.876 Y31.401
G1 F1800 X28.686 Y26.211 E29.58372
G0 F4320 X28.191 Y26.211
G1 F1800 X33.876 Y31.896 E29.8914
G0 F4320 X33.876 Y32.391
G1 F1800 X27.696 Y26.211 E30.22588
G0 F4320 X27.201 Y26.211
G1 F1800 X33.876 Y32.886 E30.58714
G0 F4320 X33.876 Y33.381
G1 F1800 X26.706 Y26.211 E30.97519
G0 F4320 X26.619 Y26.619
G1 F1800 X33.876 Y33.876 E31.36796
G0 F4320 X33.876 Y34.371
G1 F1800 X26.619 Y27.114 E31.76072
G0 F4320 X26.619 Y27.608
G1 F1800 X33.876 Y34.866 E32.15351
G0 F4320 X33.876 Y35.36
G1 F1800 X26.619 Y28.103 E32.54627
G0 F4320 X26.619 Y28.598
G1 F1800 X33.876 Y35.855 E32.93903
G0 F4320 X33.876 Y36.35
G1 F1800 X26.619 Y29.093 E33.3318
G0 F4320 X26.619 Y29.588
G1 F1800 X33.876 Y36.845 E33.72456
G0 F4320 X33.876 Y37.34
G1 F1800 X26.619 Y30.083 E34.11732
G0 F4320 X26.619 Y30.578
G1 F1800 X33.876 Y37.835 E34.51008
G0 F4320 X33.876 Y38.33
G1 F1800 X26.619 Y31.073 E34.90285
G0 F4320 X26.619 Y31.568
G1 F1800 X33.876 Y38.825 E35.29561
G0 F4320 X33.876 Y39.32
G1 F1800 X26.619 Y32.063 E35.68837
G0 F4320 X26.619 Y32.558
G1 F1800 X33.876 Y39.815 E36.08113
G0 F4320 X33.876 Y40.31
G1 F1800 X26.619 Y33.053 E36.4739
G0 F4320 X26.619 Y33.548
G1 F1800 X33.876 Y40.805 E36.86666
G0 F4320 X33.876 Y41.3
G1 F1800 X26.619 Y34.043 E37.25942
G0 F4320 X26.619 Y34.538
G1 F1800 X33.876 Y41.795 E37.65218
G0 F4320 X33.876 Y42.29
G1 F1800 X26.619 Y35.033 E38.04494
G0 F4320 X26.619 Y35.528
G1 F1800 X33.876 Y42.785 E38.43771
G0 F4320 X33.876 Y43.28
G1 F1800 X26.619 Y36.023 E38.83047
G0 F4320 X26.619 Y36.518
G1 F1800 X33.876 Y43.775 E39.22323
G0 F4320 X33.876 Y44.27
G1 F1800 X26.619 Y37.013 E39.61599
G0 F4320 X26.619 Y37.508
G1 F1800 X33.876 Y44.765 E40.00876
G0 F4320 X33.876 Y45.26
G1 F1800 X26.619 Y38.003 E40.40152
G0 F4320 X26.619 Y38.498
G1 F1800 X33.876 Y45.755 E40.79428
G0 F4320 X33.876 Y46.25
G1 F1800 X26.619 Y38.993 E41.18704
G0 F4320 X26.619 Y39.488
G1 F1800 X33.876 Y46.745 E41.57981
G0 F4320 X33.876 Y47.24
G1 F1800 X26.619 Y39.983 E41.97257
G0 F4320 X26.619 Y40.478
G1 F1800 X33.876 Y47.735 E42.36533
G0 F4320 X33.876 Y48.23
G1 F1800 X26.619 Y40.973 E42.75809
G0 F4320 X26.619 Y41.468
G1 F1800 X33.876 Y48.725 E43.15086
G0 F4320 X33.876 Y49.22
G1 F1800 X26.619 Y41.963 E43.54362
G0 F4320 X26.619 Y42.458
G1 F1800 X33.876 Y49.715 E43.93638
G0 F4320 X33.876 Y50.21
G1 F1800 X26.619 Y42.953 E44.32914
G0 F4320 X26.619 Y43.448
G1 F1800 X33.876 Y50.705 E44.72191
G0 F4320 X33.876 Y51.2
G1 F1800 X26.619 Y43.943 E45.11467
G0 F4320 X26.619 Y44.438
G1 F1800 X33.876 Y51.695 E45.50743
G0 F4320 X33.876 Y52.19
G1 F1800 X26.619 Y44.933 E45.90019
G0 F4320 X26.619 Y45.428
G1 F1800 X33.876 Y52.685 E46.29296
G0 F4320 X33.876 Y53.18
G1 F1800 X26.619 Y45.923 E46.68572
G0 F4320 X26.619 Y46.418
G1 F1800 X31.116 Y50.915 E46.9291
G0 F4320 X30.493 Y50.787
G1 F1800 X26.619 Y46.912 E47.1388
G0 F4320 X26.619 Y47.407
G1 F1800 X29.999 Y50.787 E47.32173
G0 F4320 X29.581 Y50.865
G1 F1800 X26.619 Y47.902 E47.48207
G0 F4320 X26.619 Y48.397
G1 F1800 X29.191 Y50.97 E47.6213
G0 F4320 X28.868 Y51.142
G1 F1800 X26.619 Y48.892 E47.74304
G0 F4320 X26.619 Y49.387
G1 F1800 X28.559 Y51.328 E47.84807
G0 F4320 X28.294 Y51.558
G1 F1800 X26.619 Y49.882 E47.93875
G0 F4320 X26.619 Y50.377
G1 F1800 X28.045 Y51.804 E48.01595
G0 F4320 X27.843 Y52.097
G1 F1800 X26.619 Y50.872 E48.08223
G0 F4320 X26.619 Y51.367
G1 F1800 X27.659 Y52.407 E48.13851
G0 F4320 X27.522 Y52.766
G1 F1800 X26.619 Y51.862 E48.18741
G0 F4320 X26.619 Y52.357
G1 F1800 X27.424 Y53.163 E48.23101
G0 F4320 X27.373 Y53.607
G1 F1800 X26.619 Y52.852 E48.27184
G0 F4320 X26.619 Y53.347
G1 F1800 X27.427 Y54.155 E48.31557
G1 X27.489 Y54.217
G0 F4320 X27.654 Y54.877
G1 F1800 X26.619 Y53.842 E48.37159
G0 F4320 X26.619 Y54.337
G1 F1800 X33.876 Y61.594 E48.76435
G0 F4320 X33.876 Y61.099
G1 F1800 X29.004 Y56.227 E49.02803
G1 X28.942 Y56.165
G0 F4320 X29.743 Y56.471
G1 F1800 X33.876 Y60.604 E49.25172
G0 F4320 X33.876 Y60.109
G1 F1800 X30.276 Y56.509 E49.44656
G0 F4320 X30.737 Y56.475
G1 F1800 X33.876 Y59.614 E49.61644
G0 F4320 X33.876 Y59.119
G1 F1800 X31.134 Y56.378 E49.76482
G0 F4320 X31.483 Y56.232
G1 F1800 X33.876 Y58.624 E49.89431
G0 F4320 X33.876 Y58.129
G1 F1800 X31.807 Y56.061 E50.00626
G0 F4320 X32.084 Y55.843
G1 F1800 X33.876 Y57.634 E50.10322
G0 F4320 X33.876 Y57.139
G1 F1800 X32.348 Y55.611 E50.18592
G0 F4320 X32.562 Y55.331
G1 F1800 X33.876 Y56.644 E50.257
G0 F4320 X33.876 Y56.149
G1 F1800 X32.763 Y55.037 E50.31721
G0 F4320 X32.91 Y54.689
G1 F1800 X33.876 Y55.654 E50.36947
G0 F4320 X33.876 Y55.159
G1 F1800 X33.045 Y54.329 E50.41442
G0 F4320 X33.098 Y53.887
G1 F1800 X33.876 Y54.665 E50.45652
G0 F4320 X33.876 Y54.17
G1 F1800 X33.096 Y53.39 E50.49874
G0 F4320 X32.974 Y52.773
G1 F1800 X33.876 Y53.675 E50.54756
G1 X33.938 Y53.737
G0 F4320 X34.288 Y53.737
G0 X34.216 Y25.872
G0 X26.28 Y25.872
G0 X26.208 Y54.832
G0 X26.619 Y54.832
G1 F1800 X33.876 Y62.089 E50.94032
G0 F4320 X33.876 Y62.584
G1 F1800 X26.619 Y55.327 E51.33308
G0 F4320 X26.619 Y55.822
G1 F1800 X33.876 Y63.079 E51.72584
G0 F4320 X33.876 Y63.574
G1 F1800 X26.619 Y56.317 E52.11861
G0 F4320 X26.619 Y56.812
G1 F1800 X33.876 Y64.069 E52.51137
G0 F4320 X33.876 Y64.564
G1 F1800 X26.619 Y57.307 E52.90413
G0 F4320 X26.619 Y57.802
G1 F1800 X33.876 Y65.059 E53.29689
G0 F4320 X33.876 Y65.554
G1 F1800 X26.619 Y58.297 E53.68966
G0 F4320 X26.619 Y58.792
G1 F1800 X31.715 Y63.889 E53.96549
G1 X31.777 Y63.951
G0 F4320 X30.892 Y63.56
G1 F1800 X26.619 Y59.287 E54.19675
G0 F4320 X26.619 Y59.782
G1 F1800 X30.324 Y63.488 E54.3973
G0 F4320 X29.843 Y63.501
G1 F1800 X26.619 Y60.278 E54.57176
G0 F4320 X26.619 Y60.772
G1 F1800 X29.446 Y63.599 E54.72476
G0 F4320 X29.081 Y63.729
G1 F1800 X26.619 Y61.267 E54.85801
G0 F4320 X26.619 Y61.762
G1 F1800 X28.757 Y63.9 E54.97373
G0 F4320 X28.468 Y64.106
G1 F1800 X26.619 Y62.257 E55.0738
G0 F4320 X26.619 Y62.752
G1 F1800 X28.204 Y64.337 E55.15958
G0 F4320 X27.976 Y64.604
G1 F1800 X26.619 Y63.247 E55.23302
G0 F4320 X26.619 Y63.742
G1 F1800 X27.774 Y64.897 E55.29553
G0 F4320 X27.612 Y65.23
G1 F1800 X26.619 Y64.237 E55.34928
G0 F4320 X26.619 Y64.732
