;FLAVOR:Marlin
;TIME:6083
;Filament used: 7.41475m
;Layer height: 0.30625
;MINX:3.152
;MINY:3.831
;MINZ:0.306
;MAXX:74.963
;MAXY:62.61
;MAXZ:29.988
;Generated with Cura_SteamEngine 4.2.1
M140 S65
M105
M190 S65
M104 S205
M105
M109 S205
M82 ;absolute extrusion mode
G21;(metric values)
G90;(absolute positioning)
M82;(set extruder to absolute mode)
M107;(start with the fan off)
G28;(Home the printer)
G92 E0;(Reset the extruder to 0)
G0 Z5 E5 F500;(Move up and prime the nozzle)
G0 X-1 Z0;(Move outside the printable area)
G1 Y60 E8 F500;(Draw a priming/wiping line to the rear)
G1 X-1;(Move a little closer to the print area)
G1 Y10 E16 F500;(draw more priming/wiping)
G1 E15 F250;(Small retract)
G92 E0;(Zero the extruder)
M141 S28
G92 E0
G92 E0
G1 F2400 E-2.5
;LAYER_COUNT:98
;LAYER:0
M107
;MESH:Gripper-V-7.stl
G0 F4320 X5.718 Y13.621 Z0.306
;TYPE:WALL-INNER
G1 F2400 E0
G1 F1980 X5.718 Y5.371 E0.36735
G1 X74.288 Y5.371 E3.42056
G1 X74.288 Y13.621 E3.78791
G1 X6.315 Y13.621 E6.81455
G0 F1782 X5.718 Y13.621
G1 F2400 E4.31455
G0 F4320 X35.181 Y13.435
G0 X34.838 Y11.752
G0 X35.446 Y10.175
G0 X35.556 Y9.466
G0 X35.235 Y7.714
G1 F2400 E6.84113
G1 F1980 X34.759 Y7.388 E6.86682
G1 X34.222 Y7.184 E6.8924
G1 X33.653 Y7.116 E6.91791
G1 X33.084 Y7.184 E6.94343
G1 X32.546 Y7.388 E6.96905
G1 X32.074 Y7.713 E6.99457
G1 X31.693 Y8.144 E7.02018
G1 X31.427 Y8.651 E7.04567
G1 X31.289 Y9.208 E7.07123
G1 X31.289 Y9.784 E7.09687
G1 X31.427 Y10.341 E7.12242
G1 X31.693 Y10.848 E7.14792
G1 X32.074 Y11.279 E7.17353
G1 X32.546 Y11.604 E7.19905
G1 X33.084 Y11.81 E7.2247
G1 X33.653 Y11.876 E7.25021
G1 X34.222 Y11.81 E7.27571
G1 X34.76 Y11.604 E7.30136
G1 X35.233 Y11.279 E7.32692
G1 X35.614 Y10.848 E7.35253
G1 X35.88 Y10.34 E7.37807
G1 X36.017 Y9.782 E7.40365
G1 X36.017 Y9.21 E7.42912
G1 X35.88 Y8.652 E7.4547
G1 X35.625 Y8.165 E7.47918
G0 F1782 X35.621 Y8.157
G0 X35.235 Y7.714
G1 F2400 E4.97918
G0 F4320 X36.036 Y8.593
G0 X34.43 Y9.202
G0 X45.496 Y9.199
G0 X43.971 Y8.592
G0 X45.462 Y7.799
G0 X46.154 Y7.604
G0 X47.935 Y7.714
G1 F2400 E7.50576
G1 F1980 X47.459 Y7.388 E7.53145
G1 X46.922 Y7.184 E7.55703
G1 X46.353 Y7.116 E7.58255
G1 X45.784 Y7.184 E7.60806
G1 X45.246 Y7.388 E7.63368
G1 X44.774 Y7.713 E7.6592
G1 X44.393 Y8.144 E7.68481
G1 X44.127 Y8.651 E7.71031
G1 X43.989 Y9.208 E7.73586
G1 X43.989 Y9.784 E7.76151
G1 X44.127 Y10.341 E7.78706
G1 X44.393 Y10.848 E7.81255
G1 X44.774 Y11.279 E7.83817
G1 X45.246 Y11.604 E7.86368
G1 X45.784 Y11.81 E7.88933
G1 X46.353 Y11.876 E7.91484
G1 X46.922 Y11.81 E7.94035
G1 X47.46 Y11.604 E7.966
G1 X47.933 Y11.279 E7.99155
G1 X48.314 Y10.848 E8.01717
G1 X48.58 Y10.34 E8.0427
G1 X48.717 Y9.782 E8.06828
G1 X48.717 Y9.21 E8.09375
G1 X48.58 Y8.652 E8.11934
G1 X48.325 Y8.165 E8.14381
G0 F1782 X48.321 Y8.157
G0 X47.935 Y7.714
G0 F4320 X47.7 Y7.978
G1 F2400 E8.1704
G1 F1980 X47.295 Y7.7 E8.19227
G1 X46.838 Y7.526 E8.21404
G1 X46.353 Y7.468 E8.23579
G1 X45.868 Y7.526 E8.25754
G1 X45.41 Y7.7 E8.27936
G1 X45.008 Y7.977 E8.3011
G1 X44.683 Y8.344 E8.32292
G1 X44.457 Y8.776 E8.34463
G1 X44.339 Y9.251 E8.36643
G1 X44.339 Y9.741 E8.38824
G1 X44.457 Y10.216 E8.41004
G1 X44.683 Y10.648 E8.43175
G1 X45.008 Y11.015 E8.45357
G1 X45.41 Y11.292 E8.47531
G1 X45.868 Y11.467 E8.49714
G1 X46.353 Y11.524 E8.51889
G1 X46.838 Y11.467 E8.54063
G1 X47.296 Y11.292 E8.56246
G1 X47.699 Y11.015 E8.58424
G1 X48.024 Y10.648 E8.60607
G1 X48.25 Y10.215 E8.62781
G1 X48.367 Y9.74 E8.6496
G1 X48.367 Y9.252 E8.67133
G1 X48.25 Y8.777 E8.69311
G1 X48.074 Y8.441 E8.71
G0 F1782 X48.03 Y8.356
G0 X47.7 Y7.978
G1 F2400 E6.21
G0 F4320 X46.811 Y7.635
G0 X45.895 Y7.635
G0 X43.971 Y8.592
G0 X45.577 Y9.2
G0 X34.51 Y9.201
G0 X36.036 Y8.593
G0 X35 Y7.978
G1 F2400 E8.73658
G1 F1980 X34.595 Y7.7 E8.75845
G1 X34.138 Y7.526 E8.78023
G1 X33.653 Y7.468 E8.80198
G1 X33.168 Y7.526 E8.82373
G1 X32.71 Y7.7 E8.84554
G1 X32.308 Y7.977 E8.86728
G1 X31.983 Y8.344 E8.88911
G1 X31.757 Y8.776 E8.91082
G1 X31.639 Y9.251 E8.93261
G1 X31.639 Y9.741 E8.95443
G1 X31.757 Y10.216 E8.97622
G1 X31.983 Y10.648 E8.99793
G1 X32.308 Y11.015 E9.01976
G1 X32.71 Y11.292 E9.0415
G1 X33.168 Y11.467 E9.06333
G1 X33.653 Y11.524 E9.08507
G1 X34.138 Y11.467 E9.10682
G1 X34.596 Y11.292 E9.12865
G1 X34.999 Y11.015 E9.15042
G1 X35.324 Y10.648 E9.17225
G1 X35.55 Y10.215 E9.194
G1 X35.667 Y9.74 E9.21578
G1 X35.667 Y9.252 E9.23751
G1 X35.55 Y8.777 E9.25929
G1 X35.374 Y8.441 E9.27618
G0 F1782 X35.33 Y8.356
G0 X35 Y7.978
G1 F2400 E6.77618
G0 F4320 X34.111 Y7.635
G0 X33.195 Y7.635
G0 X31.123 Y9.187
G0 X32.828 Y9.396
G0 X31.145 Y15.082
G0 X31.123 Y13.436
G0 X5.368 Y13.971
G1 F2400 E9.30276
G1 F1980 X5.368 Y5.021 E9.70128
G1 X74.638 Y5.021 E12.78567
G1 X74.638 Y13.971 E13.18418
G1 X5.965 Y13.971 E16.24199
G0 F1782 X5.368 Y13.971
G0 F4320 X5.043 Y14.296
;TYPE:WALL-OUTER
G1 F2400 E16.26857
G1 F1980 X5.043 Y4.696 E16.69603
G1 X74.963 Y4.696 E19.80936
G1 X74.963 Y14.296 E20.23682
G1 X5.64 Y14.296 E23.32356
G0 F1782 X5.043 Y14.296
G0 F4320 X5.043 Y14.096
G1 F2400 E20.82356
G0 F4320 X5.318 Y14.021
G0 X34.939 Y13.436
G0 X34.371 Y11.95
G0 X34.49 Y11.209
G0 X35.231 Y10.584
G0 X35.556 Y9.726
G0 X35.446 Y8.817
G0 X34.939 Y7.998
G0 X34.782 Y8.223
G1 F2400 E23.35014
G1 F1980 X34.443 Y7.99 E23.36846
G1 X34.06 Y7.844 E23.38671
G1 X33.653 Y7.795 E23.40496
G1 X33.246 Y7.844 E23.42322
G1 X32.862 Y7.99 E23.44151
G1 X32.525 Y8.222 E23.45973
G1 X32.253 Y8.53 E23.47802
G1 X32.063 Y8.892 E23.49623
G1 X31.964 Y9.291 E23.51453
G1 X31.964 Y9.701 E23.53279
G1 X32.063 Y10.1 E23.55109
G1 X32.253 Y10.462 E23.5693
G1 X32.525 Y10.77 E23.58759
G1 X32.862 Y11.002 E23.60581
G1 X33.246 Y11.149 E23.62412
G1 X33.653 Y11.197 E23.64237
G1 X34.06 Y11.149 E23.66062
G1 X34.444 Y11.002 E23.67893
G1 X34.782 Y10.77 E23.69718
G1 X35.054 Y10.462 E23.71548
G1 X35.244 Y10.099 E23.73372
G1 X35.342 Y9.701 E23.75197
G1 X35.342 Y9.291 E23.77023
G1 X35.244 Y8.893 E23.78848
G1 X35.141 Y8.696 E23.79838
G0 F1782 X35.06 Y8.541
G0 X34.782 Y8.223
G0 F4320 X34.618 Y8.11
G1 F2400 E21.29838
G0 F4320 X34.773 Y7.884
G0 X36.036 Y8.593
G0 X34.43 Y9.202
G0 X45.496 Y9.199
G0 X43.971 Y8.592
G0 X45.462 Y7.799
G0 X46.353 Y7.579
G0 X47.639 Y7.998
G0 X47.482 Y8.223
G1 F2400 E23.82496
G1 F1980 X47.143 Y7.99 E23.84328
G1 X46.76 Y7.844 E23.86153
G1 X46.353 Y7.795 E23.87978
G1 X45.946 Y7.844 E23.89803
G1 X45.562 Y7.99 E23.91633
G1 X45.225 Y8.222 E23.93454
G1 X44.953 Y8.53 E23.95284
G1 X44.763 Y8.892 E23.97104
G1 X44.664 Y9.291 E23.98935
G1 X44.664 Y9.701 E24.00761
G1 X44.763 Y10.1 E24.02591
G1 X44.953 Y10.462 E24.04411
G1 X45.225 Y10.77 E24.06241
G1 X45.562 Y11.002 E24.08063
G1 X45.946 Y11.149 E24.09894
G1 X46.353 Y11.197 E24.11718
G1 X46.76 Y11.149 E24.13543
G1 X47.144 Y11.002 E24.15374
G1 X47.482 Y10.77 E24.172
G1 X47.754 Y10.462 E24.19029
G1 X47.944 Y10.099 E24.20854
G1 X48.042 Y9.701 E24.22679
G1 X48.042 Y9.291 E24.24504
G1 X47.944 Y8.893 E24.26329
G1 X47.841 Y8.696 E24.27319
G0 F1782 X47.76 Y8.541
G0 X47.482 Y8.223
G0 F4320 X47.318 Y8.11
G0 X47.473 Y7.884
G0 X48.163 Y7.458
;TYPE:SKIN
G1 F2400 E24.29978
G1 F1980 X47.618 Y7.085 E24.32918
G1 X47.004 Y6.852 E24.35842
G1 X46.353 Y6.774 E24.38762
G1 X45.702 Y6.852 E24.41681
G1 X45.087 Y7.085 E24.4461
G1 X44.547 Y7.457 E24.47529
G1 X44.111 Y7.95 E24.5046
G1 X43.807 Y8.529 E24.53372
G1 X43.649 Y9.167 E24.56298
G1 X43.649 Y9.825 E24.59228
G1 X43.807 Y10.463 E24.62155
G1 X44.111 Y11.042 E24.65067
G1 X44.547 Y11.535 E24.67997
G1 X45.087 Y11.907 E24.70917
G1 X45.702 Y12.143 E24.7385
G1 X46.353 Y12.218 E24.76768
G1 X47.004 Y12.143 E24.79686
G1 X47.619 Y11.907 E24.82619
G1 X48.16 Y11.535 E24.85542
G1 X48.596 Y11.042 E24.88473
G1 X48.9 Y10.461 E24.91393
G1 X49.057 Y9.823 E24.94318
G1 X49.057 Y9.169 E24.9723
G1 X48.9 Y8.531 E25.00156
G1 X48.603 Y7.964 E25.03006
G1 X48.555 Y7.908 E25.03334
G0 F1782 X48.163 Y7.458
G1 F2400 E22.53334
G0 F4320 X47.991 Y7.649
G0 X46.353 Y7.579
G0 X43.971 Y8.592
G0 X45.577 Y9.2
G0 X34.555 Y9.393
G0 X36.183 Y9.19
G0 X36.357 Y9.169
G1 F2400 E25.05993
G1 F1980 X36.2 Y8.531 E25.08918
G1 X35.903 Y7.964 E25.11768
G1 X35.463 Y7.458 E25.14754
G1 X34.918 Y7.085 E25.17695
G1 X34.304 Y6.852 E25.20619
G1 X33.653 Y6.774 E25.23538
G1 X33.002 Y6.852 E25.26458
G1 X32.387 Y7.085 E25.29386
G1 X31.847 Y7.457 E25.32306
G1 X31.411 Y7.95 E25.35236
G1 X31.107 Y8.529 E25.38148
G1 X30.949 Y9.167 E25.41075
G1 X30.949 Y9.825 E25.44005
G1 X31.107 Y10.463 E25.46931
G1 X31.411 Y11.042 E25.49843
G1 X31.847 Y11.535 E25.52774
G1 X32.387 Y11.907 E25.55694
G1 X33.002 Y12.143 E25.58627
G1 X33.653 Y12.218 E25.61545
G1 X34.304 Y12.143 E25.64462
G1 X34.919 Y11.907 E25.67396
G1 X35.46 Y11.535 E25.70319
G1 X35.896 Y11.042 E25.73249
G1 X36.2 Y10.461 E25.76169
G1 X36.357 Y9.823 E25.79095
G1 X36.357 Y9.766 E25.79349
G0 F1782 X36.357 Y9.169
G1 F2400 E23.29349
G0 F4320 X36.102 Y9.2
G0 X34.478 Y9.395
G0 X36.158 Y3.909
G0 X36.183 Y5.556
G0 X73.948 Y5.456
G0 X73.948 Y5.711
G1 F2400 E25.82007
G1 F1980 X73.948 Y13.281 E26.15714
G1 X6.058 Y13.281 E29.18008
G1 X6.058 Y5.711 E29.51715
G1 X73.351 Y5.711 E32.5135
G0 F1782 X73.948 Y5.711
G0 F4320 X73.79 Y5.979
G1 F2400 E32.54008
G1 F1980 X73.679 Y5.868 E32.54707
G0 F4320 X73.184 Y5.868
G1 F1980 X73.79 Y6.474 E32.58523
G0 F4320 X73.79 Y6.969
G1 F1980 X72.689 Y5.868 E32.65457
G0 F4320 X72.194 Y5.868
G1 F1980 X73.79 Y7.464 E32.75507
G0 F4320 X73.79 Y7.959
G1 F1980 X71.699 Y5.868 E32.88674
G0 F4320 X71.204 Y5.868
G1 F1980 X73.79 Y8.454 E33.04958
G0 F4320 X73.79 Y8.949
G1 F1980 X70.709 Y5.868 E33.24359
G0 F4320 X70.214 Y5.868
G1 F1980 X73.79 Y9.444 E33.46878
G0 F4320 X73.79 Y9.939
G1 F1980 X69.72 Y5.868 E33.7251
G0 F4320 X69.225 Y5.868
G1 F1980 X73.79 Y10.434 E34.01259
G0 F4320 X73.79 Y10.929
G1 F1980 X68.73 Y5.868 E34.33125
G0 F4320 X68.235 Y5.868
G1 F1980 X73.79 Y11.424 E34.68109
G0 F4320 X73.79 Y11.918
G1 F1980 X67.74 Y5.868 E35.06206
G0 F4320 X67.245 Y5.868
G1 F1980 X73.79 Y12.413 E35.4742
G0 F4320 X73.79 Y12.908
G1 F1980 X66.75 Y5.868 E35.91752
G0 F4320 X66.255 Y5.868
G1 F1980 X73.51 Y13.123 E36.37437
G0 F4320 X73.015 Y13.123
G1 F1980 X65.76 Y5.868 E36.83122
G0 F4320 X65.265 Y5.868
G1 F1980 X72.52 Y13.123 E37.28807
G0 F4320 X72.025 Y13.123
G1 F1980 X64.77 Y5.868 E37.74493
G0 F4320 X64.275 Y5.868
G1 F1980 X71.53 Y13.123 E38.20178
G0 F4320 X71.035 Y13.123
G1 F1980 X63.78 Y5.868 E38.65863
G0 F4320 X63.285 Y5.868
G1 F1980 X70.54 Y13.123 E39.11548
G0 F4320 X70.045 Y13.123
G1 F1980 X62.79 Y5.868 E39.57234
G0 F4320 X62.295 Y5.868
G1 F1980 X69.55 Y13.123 E40.02919
G0 F4320 X69.055 Y13.123
G1 F1980 X61.8 Y5.868 E40.48604
G0 F4320 X61.305 Y5.868
G1 F1980 X68.56 Y13.123 E40.94289
G0 F4320 X68.065 Y13.123
G1 F1980 X60.81 Y5.868 E41.39975
G0 F4320 X60.315 Y5.868
G1 F1980 X67.57 Y13.123 E41.8566
G0 F4320 X67.075 Y13.123
G1 F1980 X59.82 Y5.868 E42.31345
G0 F4320 X59.325 Y5.868
G1 F1980 X66.58 Y13.123 E42.7703
G0 F4320 X66.085 Y13.123
G1 F1980 X58.83 Y5.868 E43.22716
G0 F4320 X58.335 Y5.868
G1 F1980 X65.59 Y13.123 E43.68401
G0 F4320 X65.095 Y13.123
G1 F1980 X57.84 Y5.868 E44.14086
G0 F4320 X57.345 Y5.868
G1 F1980 X64.6 Y13.123 E44.59771
G0 F4320 X64.105 Y13.123
G1 F1980 X56.85 Y5.868 E45.05457
G0 F4320 X56.355 Y5.868
G1 F1980 X63.61 Y13.123 E45.51142
G0 F4320 X63.115 Y13.123
G1 F1980 X55.86 Y5.868 E45.96827
G0 F4320 X55.365 Y5.868
G1 F1980 X62.62 Y13.123 E46.42512
G0 F4320 X62.125 Y13.123
G1 F1980 X54.87 Y5.868 E46.88198
G0 F4320 X54.375 Y5.868
G1 F1980 X61.63 Y13.123 E47.33883
G0 F4320 X61.135 Y13.123
G1 F1980 X53.88 Y5.868 E47.79568
G0 F4320 X53.385 Y5.868
G1 F1980 X60.64 Y13.123 E48.25253
G0 F4320 X60.145 Y13.123
G1 F1980 X52.89 Y5.868 E48.70938
G0 F4320 X52.395 Y5.868
G1 F1980 X59.65 Y13.123 E49.16624
G0 F4320 X59.155 Y13.123
G1 F1980 X51.9 Y5.868 E49.62309
G0 F4320 X51.405 Y5.868
G1 F1980 X58.66 Y13.123 E50.07994
G0 F4320 X58.165 Y13.123
G1 F1980 X50.91 Y5.868 E50.53679
G0 F4320 X50.416 Y5.868
G1 F1980 X57.67 Y13.123 E50.99362
G0 F4320 X57.175 Y13.123
G1 F1980 X49.921 Y5.868 E51.45044
G0 F4320 X49.426 Y5.868
G1 F1980 X56.68 Y13.123 E51.90726
G0 F4320 X56.185 Y13.123
G1 F1980 X48.931 Y5.868 E52.36408
G0 F4320 X48.436 Y5.868
G1 F1980 X55.691 Y13.123 E52.82093
G0 F4320 X55.196 Y13.123
G1 F1980 X47.941 Y5.868 E53.27778
G0 F4320 X47.446 Y5.868
G1 F1980 X54.701 Y13.123 E53.73464
G0 F4320 X54.206 Y13.123
G1 F1980 X46.951 Y5.868 E54.19149
G0 F4320 X46.456 Y5.868
G1 F1980 X47.436 Y6.848 E54.2532
G1 X47.498 Y6.91
G0 F4320 X46.757 Y6.664
G1 F1980 X45.961 Y5.868 E54.30332
G0 F4320 X45.466 Y5.868
G1 F1980 X46.228 Y6.63 E54.35131
G0 F4320 X45.786 Y6.683
G1 F1980 X44.971 Y5.868 E54.40263
G0 F4320 X44.476 Y5.868
G1 F1980 X45.404 Y6.796 E54.46107
G0 F4320 X45.044 Y6.931
G1 F1980 X43.981 Y5.868 E54.528
G0 F4320 X43.486 Y5.868
G1 F1980 X44.745 Y7.127 E54.60728
G0 F4320 X44.452 Y7.329
G1 F1980 X42.991 Y5.868 E54.69928
G0 F4320 X42.496 Y5.868
G1 F1980 X44.218 Y7.59 E54.80772
G0 F4320 X43.986 Y7.853
G1 F1980 X42.001 Y5.868 E54.93272
G0 F4320 X41.506 Y5.868
G1 F1980 X43.814 Y8.176 E55.07805
G0 F4320 X43.648 Y8.505
G1 F1980 X41.011 Y5.868 E55.24411
G0 F4320 X40.516 Y5.868
G1 F1980 X43.551 Y8.903 E55.43522
G0 F4320 X43.491 Y9.338
G1 F1980 X40.021 Y5.868 E55.65373
G0 F4320 X39.526 Y5.868
G1 F1980 X43.491 Y9.833 E55.90341
G0 F4320 X43.649 Y10.486
G1 F1980 X39.031 Y5.868 E56.19421
G0 F4320 X38.536 Y5.868
G1 F1980 X45.791 Y13.123 E56.65106
G0 F4320 X46.286 Y13.123
G1 F1980 X45.333 Y12.17 E56.71107
G0 F4320 X45.993 Y12.334
G1 F1980 X46.781 Y13.123 E56.76072
G0 F4320 X47.276 Y13.123
G1 F1980 X46.511 Y12.358 E56.8089
G0 F4320 X46.954 Y12.306
G1 F1980 X47.771 Y13.123 E56.86034
G0 F4320 X48.266 Y13.123
G1 F1980 X47.329 Y12.186 E56.91935
G0 F4320 X47.687 Y12.049
G1 F1980 X48.761 Y13.123 E56.98698
G0 F4320 X49.256 Y13.123
G1 F1980 X47.981 Y11.848 E57.06726
G0 F4320 X48.272 Y11.644
G1 F1980 X49.751 Y13.123 E57.1604
G0 F4320 X50.246 Y13.123
G1 F1980 X48.504 Y11.381 E57.27009
G0 F4320 X48.733 Y11.115
G1 F1980 X50.741 Y13.123 E57.39654
G0 F4320 X51.236 Y13.123
G1 F1980 X48.903 Y10.79 E57.54345
G0 F4320 X49.062 Y10.454
G1 F1980 X51.731 Y13.123 E57.71152
G0 F4320 X52.226 Y13.123
G1 F1980 X49.16 Y10.057 E57.90459
G0 F4320 X49.213 Y9.615
G1 F1980 X52.721 Y13.123 E58.12549
G0 F4320 X53.216 Y13.123
G1 F1980 X49.203 Y9.11 E58.37819
G0 F4320 X49.029 Y8.441
G1 F1980 X53.711 Y13.123 E58.67302
G1 X53.773 Y13.185
G0 F4320 X53.773 Y13.536
G0 X45.296 Y13.536
G0 X45.296 Y13.123
G1 F1980 X38.041 Y5.868 E59.12987
G0 F4320 X37.546 Y5.868
G1 F1980 X44.801 Y13.123 E59.58672
G0 F4320 X44.306 Y13.123
G1 F1980 X37.051 Y5.868 E60.04357
G0 F4320 X36.556 Y5.868
G1 F1980 X43.811 Y13.123 E60.50043
G0 F4320 X43.316 Y13.123
G1 F1980 X36.061 Y5.868 E60.95728
G0 F4320 X35.566 Y5.868
G1 F1980 X42.821 Y13.123 E61.41413
G0 F4320 X42.326 Y13.123
G1 F1980 X35.071 Y5.868 E61.87098
G0 F4320 X34.576 Y5.868
G1 F1980 X41.831 Y13.123 E62.32784
G0 F4320 X41.336 Y13.123
G1 F1980 X35.658 Y7.445 E62.68538
G0 F4320 X35.52 Y7.306
G1 F1980 X34.081 Y5.868 E62.77597
G0 F4320 X33.586 Y5.868
G1 F1980 X34.463 Y6.745 E62.83119
G0 F4320 X33.864 Y6.641
G1 F1980 X33.091 Y5.868 E62.87987
G0 F4320 X32.596 Y5.868
G1 F1980 X33.376 Y6.648 E62.92899
G0 F4320 X32.94 Y6.706
G1 F1980 X32.101 Y5.868 E62.98179
G0 F4320 X31.606 Y5.868
G1 F1980 X32.581 Y6.842 E63.04315
G0 F4320 X32.238 Y6.994
G1 F1980 X31.111 Y5.868 E63.11409
G0 F4320 X30.617 Y5.868
G1 F1980 X31.945 Y7.196 E63.19771
G0 F4320 X31.671 Y7.417
G1 F1980 X30.122 Y5.868 E63.29526
G0 F4320 X29.627 Y5.868
G1 F1980 X31.439 Y7.68 E63.40936
G0 F4320 X31.226 Y7.962
G1 F1980 X29.132 Y5.868 E63.54122
G0 F4320 X28.637 Y5.868
G1 F1980 X31.056 Y8.287 E63.69355
G0 F4320 X30.916 Y8.642
G1 F1980 X28.142 Y5.868 E63.86823
G0 F4320 X27.647 Y5.868
G1 F1980 X30.818 Y9.039 E64.06791
G0 F4320 X30.791 Y9.507
G1 F1980 X27.152 Y5.868 E64.29706
G0 F4320 X26.657 Y5.868
G1 F1980 X30.843 Y10.054 E64.56065
G1 X30.905 Y10.116
G0 F4320 X31.118 Y10.824
G1 F1980 X26.162 Y5.868 E64.87273
G0 F4320 X25.667 Y5.868
G1 F1980 X32.922 Y13.123 E65.32959
G0 F4320 X33.417 Y13.123
G1 F1980 X32.358 Y12.064 E65.39627
G1 X32.296 Y12.002
G0 F4320 X33.101 Y12.312
G1 F1980 X33.912 Y13.123 E65.44734
G0 F4320 X34.407 Y13.123
G1 F1980 X33.658 Y12.375 E65.49448
G0 F4320 X34.103 Y12.324
G1 F1980 X34.902 Y13.123 E65.54479
