;FLAVOR:Marlin
;TIME:4334
;Filament used: 5.88363m
;Layer height: 0.30625
;MINX:8.145
;MINY:6.85
;MINZ:0.306
;MAXX:57.775
;MAXY:56.48
;MAXZ:29.988
;Generated with Cura_SteamEngine 4.2.1
M140 S65
M105
M190 S65
M104 S205
M105
M109 S205
M82 ;absolute extrusion mode
G21;(metric values)
G90;(absolute positioning)
M82;(set extruder to absolute mode)
M107;(start with the fan off)
G28;(Home the printer)
G92 E0;(Reset the extruder to 0)
G0 Z5 E5 F500;(Move up and prime the nozzle)
G0 X-1 Z0;(Move outside the printable area)
G1 Y60 E8 F500;(Draw a priming/wiping line to the rear)
G1 X-1;(Move a little closer to the print area)
G1 Y10 E16 F500;(draw more priming/wiping)
G1 E15 F250;(Small retract)
G92 E0;(Zero the extruder)
M141 S28
G92 E0
G92 E0
G1 F2400 E-2.5
;LAYER_COUNT:98
;LAYER:0
M107
;MESH:LinearTrayV-1.stl
G0 F4320 X15.561 Y14.477 Z0.306
;TYPE:WALL-INNER
G1 F2400 E0
G1 F1980 X15.186 Y15.018 E0.02931
G1 X14.956 Y15.624 E0.05817
G1 X14.88 Y16.265 E0.08691
G1 X14.956 Y16.906 E0.11566
G1 X15.186 Y17.512 E0.14452
G1 X15.553 Y18.044 E0.17329
G1 X16.037 Y18.474 E0.20212
G1 X16.61 Y18.772 E0.23088
G1 X17.236 Y18.927 E0.2596
G1 X17.884 Y18.927 E0.28845
G1 X18.51 Y18.772 E0.31717
G1 X19.083 Y18.474 E0.34592
G1 X19.567 Y18.044 E0.37475
G1 X19.934 Y17.512 E0.40353
G1 X20.164 Y16.906 E0.43239
G1 X20.24 Y16.265 E0.46113
G1 X20.164 Y15.624 E0.48987
G1 X19.934 Y15.019 E0.51869
G1 X19.567 Y14.488 E0.54744
G1 X19.084 Y14.058 E0.57623
G1 X18.51 Y13.758 E0.60507
G1 X17.884 Y13.603 E0.63378
G1 X17.236 Y13.603 E0.66264
G1 X16.61 Y13.758 E0.69135
G1 X16.109 Y14.02 E0.71653
G1 X16.019 Y14.095 E0.72174
G0 F1782 X15.561 Y14.477
G1 F2400 E-1.77826
G0 F4320 X15.343 Y16.265
G0 X15.514 Y17.078
G0 X16.551 Y18.928
G0 X17.157 Y17.322
G0 X17.158 Y45.926
G0 X16.551 Y44.402
G0 X15.561 Y45.277
G1 F2400 E0.74833
G1 F1980 X15.186 Y45.818 E0.77764
G1 X14.956 Y46.424 E0.8065
G1 X14.88 Y47.065 E0.83524
G1 X14.956 Y47.706 E0.86398
G1 X15.186 Y48.312 E0.89284
G1 X15.553 Y48.844 E0.92162
G1 X16.037 Y49.274 E0.95045
G1 X16.61 Y49.572 E0.97921
G1 X17.236 Y49.727 E1.00792
G1 X17.884 Y49.727 E1.03678
G1 X18.51 Y49.572 E1.06549
G1 X19.083 Y49.274 E1.09425
G1 X19.567 Y48.844 E1.12308
G1 X19.934 Y48.312 E1.15186
G1 X20.164 Y47.706 E1.18072
G1 X20.24 Y47.065 E1.20946
G1 X20.164 Y46.424 E1.2382
G1 X19.934 Y45.819 E1.26702
G1 X19.567 Y45.288 E1.29576
G1 X19.084 Y44.858 E1.32456
G1 X18.51 Y44.558 E1.3534
G1 X17.884 Y44.403 E1.38211
G1 X17.236 Y44.403 E1.41097
G1 X16.61 Y44.558 E1.43968
G1 X16.109 Y44.82 E1.46486
G1 X16.019 Y44.895 E1.47007
G0 F1782 X15.561 Y45.277
G1 F2400 E-1.02993
G0 F4320 X14.794 Y47.746
G0 X16.462 Y47.339
G0 X8.224 Y47.742
G0 X9.87 Y47.746
G0 X9.685 Y54.94
G1 F2400 E1.49665
G1 F1980 X9.685 Y8.39 E3.56939
G1 X56.235 Y8.39 E5.64212
G1 X56.235 Y54.94 E7.71485
G1 X10.282 Y54.94 E9.761
G0 F1782 X9.685 Y54.94
G1 F2400 E7.261
G0 F4320 X46.297 Y54.755
G0 X46.361 Y56.48
G0 X47.941 Y48.198
G0 X47.351 Y49.728
G0 X46.397 Y48.096
G0 X46.156 Y47.166
G0 X46.361 Y45.277
G1 F2400 E9.78758
G1 F1980 X45.986 Y45.818 E9.81689
G1 X45.756 Y46.424 E9.84576
G1 X45.68 Y47.065 E9.8745
G1 X45.756 Y47.706 E9.90324
G1 X45.986 Y48.312 E9.9321
G1 X46.353 Y48.844 E9.96088
G1 X46.837 Y49.274 E9.98971
G1 X47.41 Y49.572 E10.01846
G1 X48.036 Y49.727 E10.04718
G1 X48.684 Y49.727 E10.07603
G1 X49.31 Y49.572 E10.10475
G1 X49.882 Y49.274 E10.13347
G1 X50.367 Y48.844 E10.16233
G1 X50.734 Y48.312 E10.19111
G1 X50.964 Y47.706 E10.21997
G1 X51.04 Y47.065 E10.24871
G1 X50.964 Y46.424 E10.27745
G1 X50.734 Y45.819 E10.30627
G1 X50.367 Y45.287 E10.33505
G1 X49.883 Y44.859 E10.36382
G1 X49.311 Y44.558 E10.3926
G1 X48.684 Y44.403 E10.42136
G1 X48.036 Y44.403 E10.45021
G1 X47.41 Y44.558 E10.47893
G1 X46.909 Y44.82 E10.5041
G1 X46.819 Y44.895 E10.50932
G0 F1782 X46.361 Y45.277
G1 F2400 E8.00932
G0 F4320 X47.351 Y44.402
G0 X47.959 Y46.008
G0 X47.956 Y17.401
G0 X47.351 Y18.928
G0 X46.397 Y17.296
G0 X46.156 Y16.366
G0 X46.361 Y14.477
G1 F2400 E10.5359
G1 F1980 X45.986 Y15.018 E10.56521
G1 X45.756 Y15.624 E10.59407
G1 X45.68 Y16.265 E10.62281
G1 X45.756 Y16.906 E10.65156
G1 X45.986 Y17.512 E10.68042
G1 X46.353 Y18.044 E10.7092
G1 X46.837 Y18.474 E10.73802
G1 X47.41 Y18.772 E10.76678
G1 X48.036 Y18.927 E10.7955
G1 X48.684 Y18.927 E10.82435
G1 X49.31 Y18.772 E10.85307
G1 X49.882 Y18.474 E10.88178
G1 X50.367 Y18.044 E10.91065
G1 X50.734 Y17.512 E10.93942
G1 X50.964 Y16.906 E10.96829
G1 X51.04 Y16.265 E10.99703
G1 X50.964 Y15.624 E11.02577
G1 X50.734 Y15.019 E11.05459
G1 X50.367 Y14.487 E11.08337
G1 X49.883 Y14.059 E11.11214
G1 X49.311 Y13.758 E11.14092
G1 X48.684 Y13.603 E11.16967
G1 X48.036 Y13.603 E11.19853
G1 X47.41 Y13.758 E11.22724
G1 X46.909 Y14.02 E11.25242
G1 X46.819 Y14.095 E11.25763
G0 F1782 X46.361 Y14.477
G0 F4320 X46.622 Y14.715
G1 F2400 E11.28422
G1 F1980 X46.298 Y15.182 E11.30953
G1 X46.098 Y15.708 E11.33458
G1 X46.032 Y16.265 E11.35956
G1 X46.098 Y16.822 E11.38453
G1 X46.298 Y17.348 E11.40959
G1 X46.617 Y17.81 E11.43459
G1 X47.037 Y18.183 E11.4596
G1 X47.535 Y18.442 E11.48459
G1 X48.079 Y18.577 E11.50955
G1 X48.641 Y18.577 E11.53458
G1 X49.185 Y18.442 E11.55953
G1 X49.682 Y18.183 E11.58449
G1 X50.103 Y17.81 E11.60953
G1 X50.422 Y17.348 E11.63453
G1 X50.622 Y16.822 E11.65959
G1 X50.688 Y16.265 E11.68456
G1 X50.622 Y15.708 E11.70954
G1 X50.422 Y15.183 E11.73456
G1 X50.103 Y14.721 E11.75955
G1 X49.683 Y14.349 E11.78454
G1 X49.186 Y14.088 E11.80953
G1 X48.641 Y13.953 E11.83453
G1 X48.079 Y13.953 E11.85956
G1 X47.535 Y14.088 E11.88451
G1 X47.104 Y14.313 E11.90616
G1 X47.08 Y14.333 E11.90755
G0 F1782 X46.622 Y14.715
G1 F2400 E9.40755
G0 F4320 X46.207 Y15.735
G0 X46.207 Y16.795
G0 X47.351 Y18.928
G0 X47.957 Y17.322
G0 X47.958 Y45.926
G0 X47.351 Y44.402
G0 X46.622 Y45.515
G1 F2400 E11.93414
G1 F1980 X46.298 Y45.982 E11.95945
G1 X46.098 Y46.508 E11.9845
G1 X46.032 Y47.065 E12.00948
G1 X46.098 Y47.622 E12.03445
G1 X46.298 Y48.148 E12.05951
G1 X46.617 Y48.61 E12.08451
G1 X47.037 Y48.983 E12.10952
G1 X47.535 Y49.242 E12.13451
G1 X48.079 Y49.377 E12.15947
G1 X48.641 Y49.377 E12.1845
G1 X49.185 Y49.242 E12.20945
G1 X49.682 Y48.983 E12.23441
G1 X50.103 Y48.61 E12.25945
G1 X50.422 Y48.148 E12.28445
G1 X50.622 Y47.622 E12.30951
G1 X50.688 Y47.065 E12.33448
G1 X50.622 Y46.508 E12.35946
G1 X50.422 Y45.983 E12.38447
G1 X50.103 Y45.521 E12.40947
G1 X49.683 Y45.149 E12.43446
G1 X49.186 Y44.888 E12.45945
G1 X48.641 Y44.753 E12.48445
G1 X48.079 Y44.753 E12.50948
G1 X47.535 Y44.888 E12.53443
G1 X47.104 Y45.113 E12.55608
G1 X47.08 Y45.133 E12.55747
G0 F1782 X46.622 Y45.515
G1 F2400 E10.05747
G0 F4320 X45.594 Y46.384
G0 X47.262 Y46.791
G0 X18.738 Y46.791
G0 X20.326 Y46.384
G0 X18.82 Y45.241
G0 X17.826 Y44.864
G0 X16.874 Y44.967
G0 X15.822 Y45.515
G1 F2400 E12.58406
G1 F1980 X15.498 Y45.982 E12.60936
G1 X15.298 Y46.508 E12.63442
G1 X15.232 Y47.065 E12.6594
G1 X15.298 Y47.622 E12.68437
G1 X15.498 Y48.148 E12.70943
G1 X15.817 Y48.61 E12.73443
G1 X16.237 Y48.983 E12.75944
G1 X16.735 Y49.242 E12.78443
G1 X17.279 Y49.377 E12.80939
G1 X17.841 Y49.377 E12.83442
G1 X18.385 Y49.242 E12.85937
G1 X18.883 Y48.983 E12.88437
G1 X19.303 Y48.61 E12.90938
G1 X19.622 Y48.148 E12.93438
G1 X19.822 Y47.622 E12.95943
G1 X19.888 Y47.065 E12.98441
G1 X19.822 Y46.508 E13.00938
G1 X19.622 Y45.983 E13.0344
G1 X19.303 Y45.521 E13.0594
G1 X18.884 Y45.148 E13.08438
G1 X18.385 Y44.888 E13.10943
G1 X17.841 Y44.753 E13.13439
G1 X17.279 Y44.753 E13.15941
G1 X16.735 Y44.888 E13.18437
G1 X16.304 Y45.113 E13.20602
G1 X16.28 Y45.133 E13.20741
G0 F1782 X15.822 Y45.515
G1 F2400 E10.70741
G0 F4320 X14.794 Y47.746
G0 X16.462 Y47.339
G0 X8.224 Y47.742
G0 X9.87 Y47.746
G0 X9.335 Y55.29
G1 F2400 E13.23399
G1 F1980 X9.335 Y8.04 E15.33789
G1 X56.585 Y8.04 E17.4418
G1 X56.585 Y55.29 E19.5457
G1 X9.932 Y55.29 E21.62301
G0 F1782 X9.335 Y55.29
G1 F2400 E19.12301
G0 F4320 X9.767 Y22.394
G0 X9.87 Y14.715
G0 X8.145 Y14.715
G0 X16.383 Y15.978
G0 X14.794 Y15.584
G0 X15.822 Y14.715
G1 F2400 E21.6496
G1 F1980 X15.498 Y15.182 E21.67491
G1 X15.298 Y15.708 E21.69996
G1 X15.232 Y16.265 E21.72494
G1 X15.298 Y16.822 E21.74991
G1 X15.498 Y17.348 E21.77497
G1 X15.817 Y17.81 E21.79997
G1 X16.237 Y18.183 E21.82498
G1 X16.735 Y18.442 E21.84997
G1 X17.279 Y18.577 E21.87493
G1 X17.841 Y18.577 E21.89996
G1 X18.385 Y18.442 E21.92491
G1 X18.883 Y18.183 E21.94991
G1 X19.303 Y17.81 E21.97492
G1 X19.622 Y17.348 E21.99992
G1 X19.822 Y16.822 E22.02498
G1 X19.888 Y16.265 E22.04995
G1 X19.822 Y15.708 E22.07493
G1 X19.622 Y15.183 E22.09994
G1 X19.303 Y14.721 E22.12494
G1 X18.884 Y14.348 E22.14992
G1 X18.385 Y14.088 E22.17497
G1 X17.841 Y13.953 E22.19993
G1 X17.279 Y13.953 E22.22495
G1 X16.735 Y14.088 E22.24991
G1 X16.304 Y14.313 E22.27156
G1 X16.28 Y14.333 E22.27295
G0 F1782 X15.822 Y14.715
G0 F4320 X16.064 Y14.936
;TYPE:WALL-OUTER
G1 F2400 E22.29953
G1 F1980 X15.788 Y15.335 E22.32114
G1 X15.616 Y15.786 E22.34263
G1 X15.559 Y16.265 E22.36411
G1 X15.616 Y16.744 E22.38559
G1 X15.788 Y17.196 E22.40712
G1 X16.062 Y17.593 E22.4286
G1 X16.423 Y17.913 E22.45008
G1 X16.851 Y18.136 E22.47157
G1 X17.319 Y18.252 E22.49304
G1 X17.801 Y18.252 E22.5145
G1 X18.269 Y18.136 E22.53597
G1 X18.697 Y17.913 E22.55746
G1 X19.058 Y17.593 E22.57894
G1 X19.332 Y17.196 E22.60042
G1 X19.504 Y16.744 E22.62195
G1 X19.561 Y16.265 E22.64343
G1 X19.504 Y15.786 E22.66491
G1 X19.332 Y15.335 E22.6864
G1 X19.058 Y14.938 E22.70788
G1 X18.698 Y14.618 E22.72933
G1 X18.269 Y14.394 E22.75088
G1 X17.801 Y14.278 E22.77235
G1 X17.319 Y14.278 E22.79381
G1 X16.851 Y14.394 E22.81528
G1 X16.528 Y14.563 E22.83151
G0 F1782 X16.485 Y14.585
G0 X16.064 Y14.936
G0 F4320 X15.951 Y15.1
G1 F2400 E20.33151
G0 F4320 X15.725 Y14.944
G0 X15.407 Y15.735
G0 X15.407 Y16.795
G0 X16.551 Y18.928
G0 X17.157 Y17.322
G0 X17.158 Y45.926
G0 X16.551 Y44.402
G0 X15.839 Y45.579
G0 X16.064 Y45.736
G1 F2400 E22.85809
G1 F1980 X15.788 Y46.135 E22.8797
G1 X15.616 Y46.586 E22.90119
G1 X15.559 Y47.065 E22.92267
G1 X15.616 Y47.544 E22.94415
G1 X15.788 Y47.996 E22.96568
G1 X16.062 Y48.393 E22.98716
G1 X16.423 Y48.713 E23.00864
G1 X16.851 Y48.936 E23.03013
G1 X17.319 Y49.052 E23.0516
G1 X17.801 Y49.052 E23.07306
G1 X18.269 Y48.936 E23.09453
G1 X18.697 Y48.713 E23.11602
G1 X19.058 Y48.393 E23.1375
G1 X19.332 Y47.996 E23.15898
G1 X19.504 Y47.544 E23.18051
G1 X19.561 Y47.065 E23.20199
G1 X19.504 Y46.586 E23.22347
G1 X19.332 Y46.135 E23.24496
G1 X19.058 Y45.738 E23.26644
G1 X18.698 Y45.418 E23.28789
G1 X18.269 Y45.194 E23.30944
G1 X17.801 Y45.078 E23.33091
G1 X17.319 Y45.078 E23.35237
G1 X16.851 Y45.194 E23.37384
G1 X16.528 Y45.363 E23.39007
G0 F1782 X16.485 Y45.385
G0 X16.064 Y45.736
G0 F4320 X15.951 Y45.9
G1 F2400 E20.89007
G0 F4320 X15.725 Y45.744
G0 X14.794 Y47.746
G0 X16.462 Y47.339
G0 X8.224 Y47.742
G0 X9.87 Y47.746
G0 X9.285 Y55.37
G0 X9.01 Y55.615
G1 F2400 E23.41665
G1 F1980 X9.01 Y7.715 E25.54949
G1 X56.91 Y7.715 E27.68234
G1 X56.91 Y55.615 E29.81518
G1 X9.607 Y55.615 E31.92144
G0 F1782 X9.01 Y55.615
G0 F4320 X9.01 Y55.415
G1 F2400 E29.42144
G0 F4320 X9.285 Y55.34
G0 X46.639 Y54.755
G0 X46.639 Y56.48
G0 X47.944 Y48.199
G0 X47.351 Y49.728
G0 X46.397 Y48.096
G0 X46.143 Y47.065
G0 X46.639 Y45.579
G0 X46.864 Y45.736
G1 F2400 E31.94803
G1 F1980 X46.588 Y46.135 E31.96963
G1 X46.416 Y46.586 E31.99112
G1 X46.359 Y47.065 E32.0126
G1 X46.416 Y47.544 E32.03408
G1 X46.588 Y47.996 E32.05561
G1 X46.862 Y48.393 E32.07709
G1 X47.223 Y48.713 E32.09857
G1 X47.651 Y48.936 E32.12006
G1 X48.119 Y49.052 E32.14153
G1 X48.601 Y49.052 E32.16299
G1 X49.069 Y48.936 E32.18446
G1 X49.496 Y48.713 E32.20591
G1 X49.858 Y48.393 E32.22742
G1 X50.132 Y47.996 E32.2489
G1 X50.304 Y47.544 E32.27044
G1 X50.361 Y47.065 E32.29192
G1 X50.304 Y46.586 E32.3134
G1 X50.132 Y46.135 E32.33489
G1 X49.858 Y45.738 E32.35637
G1 X49.497 Y45.418 E32.37785
G1 X49.07 Y45.194 E32.39932
G1 X48.601 Y45.078 E32.42083
G1 X48.119 Y45.078 E32.44229
G1 X47.651 Y45.194 E32.46376
G1 X47.328 Y45.363 E32.47999
G0 F1782 X47.285 Y45.385
G0 X46.864 Y45.736
G0 F4320 X46.751 Y45.9
G1 F2400 E29.97999
G0 F4320 X46.525 Y45.744
G0 X47.351 Y44.402
G0 X47.959 Y46.008
G0 X47.956 Y17.401
G0 X47.351 Y18.928
G0 X46.397 Y17.296
G0 X46.143 Y16.265
G0 X46.639 Y14.779
G0 X46.864 Y14.936
G1 F2400 E32.50658
G1 F1980 X46.588 Y15.335 E32.52818
G1 X46.416 Y15.786 E32.54967
G1 X46.359 Y16.265 E32.57115
G1 X46.416 Y16.744 E32.59263
G1 X46.588 Y17.196 E32.61416
G1 X46.862 Y17.593 E32.63564
G1 X47.223 Y17.913 E32.65712
G1 X47.651 Y18.136 E32.67861
G1 X48.119 Y18.252 E32.70008
G1 X48.601 Y18.252 E32.72154
G1 X49.069 Y18.136 E32.74301
G1 X49.496 Y17.913 E32.76446
G1 X49.858 Y17.593 E32.78597
G1 X50.132 Y17.196 E32.80745
G1 X50.304 Y16.744 E32.82899
G1 X50.361 Y16.265 E32.85047
G1 X50.304 Y15.786 E32.87195
G1 X50.132 Y15.335 E32.89344
G1 X49.858 Y14.938 E32.91492
G1 X49.497 Y14.618 E32.9364
G1 X49.07 Y14.394 E32.95787
G1 X48.601 Y14.278 E32.97938
G1 X48.119 Y14.278 E33.00084
G1 X47.651 Y14.394 E33.02231
G1 X47.328 Y14.563 E33.03854
G0 F1782 X47.285 Y14.585
G0 X46.864 Y14.936
G0 F4320 X46.751 Y15.1
G0 X46.525 Y14.944
G0 X46.108 Y14.246
;TYPE:SKIN
G1 F2400 E33.06513
G1 F1980 X45.683 Y14.859 E33.09834
G1 X45.424 Y15.542 E33.13086
G1 X45.338 Y16.265 E33.16328
G1 X45.424 Y16.988 E33.1957
G1 X45.683 Y17.671 E33.22823
G1 X46.097 Y18.271 E33.26069
G1 X46.643 Y18.756 E33.29321
G1 X47.289 Y19.092 E33.32563
G1 X47.995 Y19.267 E33.35802
G1 X48.725 Y19.267 E33.39052
G1 X49.431 Y19.092 E33.42291
G1 X50.076 Y18.756 E33.45529
G1 X50.623 Y18.271 E33.48784
G1 X51.037 Y17.671 E33.5203
G1 X51.296 Y16.988 E33.55283
G1 X51.382 Y16.265 E33.58525
G1 X51.296 Y15.542 E33.61767
G1 X51.037 Y14.86 E33.65015
G1 X50.623 Y14.26 E33.68261
G1 X50.077 Y13.777 E33.71507
G1 X49.433 Y13.438 E33.74747
G1 X48.725 Y13.263 E33.77995
G1 X47.995 Y13.263 E33.81245
G1 X47.289 Y13.438 E33.84484
G1 X46.719 Y13.736 E33.87348
G1 X46.566 Y13.864 E33.88236
G0 F1782 X46.108 Y14.246
G1 F2400 E31.38236
G0 F4320 X46.297 Y14.419
G0 X48.705 Y13.437
G0 X48.496 Y15.142
G0 X48.702 Y6.93
G0 X48.705 Y8.575
G0 X55.895 Y8.475
G0 X55.895 Y8.73
G1 F2400 E33.90894
G1 F1980 X55.895 Y54.6 E35.9514
G1 X10.025 Y54.6 E37.99385
G1 X10.025 Y8.73 E40.03631
G1 X55.298 Y8.73 E42.05218
G0 F1782 X55.895 Y8.73
G1 F2400 E39.55218
G0 F4320 X55.895 Y8.475
G0 X27.214 Y8.555
G0 X20.325 Y8.575
G0 X20.325 Y6.85
G0 X18.58 Y15.65
G0 X20.082 Y14.941
G0 X20.325 Y16.265
G0 X20.582 Y16.265
G1 F2400 E42.07876
G1 F1980 X20.496 Y15.542 E42.11118
G1 X20.237 Y14.86 E42.14366
G1 X19.823 Y14.261 E42.17608
G1 X19.278 Y13.776 E42.20857
G1 X18.631 Y13.438 E42.24107
G1 X17.925 Y13.263 E42.27346
G1 X17.195 Y13.263 E42.30597
G1 X16.489 Y13.438 E42.33835
G1 X15.919 Y13.736 E42.36699
G1 X15.308 Y14.246 E42.40243
G1 X14.883 Y14.859 E42.43564
G1 X14.624 Y15.542 E42.46817
G1 X14.538 Y16.265 E42.50059
G1 X14.624 Y16.988 E42.53301
G1 X14.883 Y17.671 E42.56553
G1 X15.297 Y18.271 E42.59799
G1 X15.843 Y18.756 E42.63051
G1 X16.489 Y19.092 E42.66293
G1 X17.195 Y19.267 E42.69532
G1 X17.925 Y19.267 E42.72783
G1 X18.631 Y19.092 E42.76021
G1 X19.277 Y18.756 E42.79264
G1 X19.823 Y18.271 E42.82515
G1 X20.237 Y17.671 E42.85761
G1 X20.496 Y16.988 E42.89014
G1 X20.512 Y16.857 E42.89601
G0 F1782 X20.582 Y16.265
G1 F2400 E40.39601
G0 F4320 X20.325 Y16.265
G0 X19.178 Y18.612
G0 X18.204 Y17.197
G0 X18.201 Y46.049
G0 X19.179 Y44.721
G0 X19.823 Y45.061
G1 F2400 E42.9226
G1 F1980 X19.278 Y44.576 E42.95508
G1 X18.631 Y44.238 E42.98759
G1 X17.925 Y44.063 E43.01997
G1 X17.195 Y44.063 E43.05248
G1 X16.489 Y44.238 E43.08486
G1 X15.919 Y44.536 E43.1135
G1 X15.308 Y45.046 E43.14894
G1 X14.883 Y45.659 E43.18216
G1 X14.624 Y46.342 E43.21468
G1 X14.538 Y47.065 E43.2471
G1 X14.624 Y47.788 E43.27952
G1 X14.883 Y48.471 E43.31205
G1 X15.297 Y49.071 E43.34451
G1 X15.843 Y49.556 E43.37702
G1 X16.489 Y49.892 E43.40945
G1 X17.195 Y50.067 E43.44183
G1 X17.925 Y50.067 E43.47434
G1 X18.631 Y49.892 E43.50673
G1 X19.277 Y49.556 E43.53915
G1 X19.823 Y49.071 E43.57167
G1 X20.237 Y48.471 E43.60413
G1 X20.496 Y47.788 E43.63665
G1 X20.582 Y47.065 E43.66907
G1 X20.496 Y46.342 E43.70149
G1 X20.237 Y45.66 E43.73397
G1 X20.162 Y45.552 E43.73983
G0 F1782 X19.823 Y45.061
G1 F2400 E41.23983
G0 F4320 X19.631 Y45.23
