;FLAVOR:Marlin
;TIME:5351
;Filament used: 7.61175m
;Layer height: 0.30625
;MINX:6.329
;MINY:4.379
;MINZ:0.306
;MAXX:55.879
;MAXY:54.009
;MAXZ:38.862
;Generated with Cura_SteamEngine 4.2.1
M140 S65
M105
M190 S65
M104 S205
M105
M109 S205
M82 ;absolute extrusion mode
G21;(metric values)
G90;(absolute positioning)
M82;(set extruder to absolute mode)
M107;(start with the fan off)
G28;(Home the printer)
G92 E0;(Reset the extruder to 0)
G0 Z5 E5 F500;(Move up and prime the nozzle)
G0 X-1 Z0;(Move outside the printable area)
G1 Y60 E8 F500;(Draw a priming/wiping line to the rear)
G1 X-1;(Move a little closer to the print area)
G1 Y10 E16 F500;(draw more priming/wiping)
G1 E15 F250;(Small retract)
G92 E0;(Zero the extruder)
M141 S28
G92 E0
G92 E0
G1 F2400 E-2.5
;LAYER_COUNT:127
;LAYER:0
M107
;MESH:LinearTrayV-1-1.stl
G0 F4320 X18.349 Y13.153 Z0.306
;TYPE:WALL-INNER
G1 F2400 E0
G1 F1980 X18.118 Y12.546 E0.02892
G1 X17.747 Y12.011 E0.05791
G1 X17.267 Y11.585 E0.08648
G1 X16.687 Y11.284 E0.11558
G1 X16.065 Y11.132 E0.14409
G1 X15.413 Y11.134 E0.17312
G1 X14.794 Y11.287 E0.20152
G1 X14.231 Y11.581 E0.2298
G1 X13.738 Y12.013 E0.25898
G1 X13.368 Y12.549 E0.28798
G1 X13.14 Y13.16 E0.31702
G1 X13.062 Y13.794 E0.34547
G1 X13.141 Y14.437 E0.37431
G1 X13.37 Y15.04 E0.40303
G1 X13.737 Y15.572 E0.43181
G1 X14.221 Y16 E0.46058
G1 X14.793 Y16.301 E0.48936
G1 X15.42 Y16.456 E0.51812
G1 X16.068 Y16.456 E0.54697
G1 X16.696 Y16.301 E0.57577
G1 X17.268 Y16 E0.60455
G1 X17.752 Y15.572 E0.63332
G1 X18.118 Y15.04 E0.66208
G1 X18.348 Y14.435 E0.6909
G1 X18.424 Y13.794 E0.71964
G1 X18.418 Y13.746 E0.72179
G0 F1782 X18.349 Y13.153
G1 F2400 E-1.77821
G0 F4320 X17.878 Y15.683
G0 X16.591 Y14.543
G0 X16.383 Y43.577
G0 X17.353 Y42.244
G0 X17.752 Y42.814
G1 F2400 E0.74837
G1 F1980 X17.259 Y42.382 E0.77756
G1 X16.695 Y42.087 E0.8059
G1 X16.068 Y41.932 E0.83466
G1 X15.42 Y41.932 E0.86352
G1 X14.794 Y42.087 E0.89223
G1 X14.231 Y42.381 E0.92051
G1 X13.738 Y42.814 E0.94973
G1 X13.37 Y43.347 E0.97857
G1 X13.141 Y43.953 E1.00741
G1 X13.062 Y44.594 E1.03617
G1 X13.141 Y45.237 E1.06502
G1 X13.37 Y45.84 E1.09374
G1 X13.737 Y46.372 E1.12252
G1 X14.221 Y46.8 E1.15129
G1 X14.793 Y47.101 E1.18007
G1 X15.42 Y47.256 E1.20882
G1 X16.068 Y47.256 E1.23768
G1 X16.696 Y47.101 E1.26648
G1 X17.269 Y46.8 E1.2953
G1 X17.754 Y46.369 E1.32419
G1 X18.122 Y45.831 E1.35321
G1 X18.35 Y45.228 E1.38192
G1 X18.424 Y44.594 E1.41034
G1 X18.348 Y43.953 E1.43908
G1 X18.118 Y43.347 E1.46794
G1 X18.09 Y43.306 E1.47016
G0 F1782 X17.752 Y42.814
G1 F2400 E-1.02984
G0 F4320 X16.01 Y42.393
G0 X14.959 Y42.521
G0 X14.085 Y43.123
G0 X13.592 Y44.064
G0 X13.612 Y46.483
G0 X14.897 Y45.342
G0 X6.408 Y46.471
G0 X8.054 Y46.483
G0 X7.869 Y52.469
G1 F2400 E1.49674
G1 F1980 X7.869 Y5.919 E3.56947
G1 X54.419 Y5.919 E5.6422
G1 X54.419 Y52.469 E7.71493
G1 X8.466 Y52.469 E9.76108
G0 F1782 X7.869 Y52.469
G1 F2400 E7.26108
G0 F4320 X48.475 Y52.284
G0 X48.552 Y54.009
G0 X47.197 Y45.606
G0 X48.164 Y46.937
G0 X48.698 Y45.117
G0 X48.552 Y42.814
G1 F2400 E9.78767
G1 F1980 X48.059 Y42.382 E9.81685
G1 X47.495 Y42.087 E9.84519
G1 X46.868 Y41.932 E9.87395
G1 X46.22 Y41.932 E9.90281
G1 X45.594 Y42.087 E9.93152
G1 X45.031 Y42.381 E9.9598
G1 X44.538 Y42.814 E9.98902
G1 X44.17 Y43.347 E10.01786
G1 X43.941 Y43.953 E10.04671
G1 X43.862 Y44.594 E10.07546
G1 X43.941 Y45.237 E10.10431
G1 X44.17 Y45.84 E10.13303
G1 X44.537 Y46.372 E10.16181
G1 X45.021 Y46.8 E10.19058
G1 X45.593 Y47.101 E10.21936
G1 X46.22 Y47.256 E10.24812
G1 X46.868 Y47.256 E10.27697
G1 X47.496 Y47.101 E10.30577
G1 X48.069 Y46.8 E10.33459
G1 X48.554 Y46.369 E10.36348
G1 X48.922 Y45.831 E10.39251
G1 X49.15 Y45.228 E10.42121
G1 X49.224 Y44.594 E10.44963
G1 X49.148 Y43.953 E10.47838
G1 X48.918 Y43.347 E10.50724
G1 X48.89 Y43.306 E10.50945
G0 F1782 X48.552 Y42.814
G1 F2400 E8.00945
G0 F4320 X47.184 Y43.661
G0 X47.39 Y14.635
G0 X48.678 Y15.683
G0 X49.149 Y13.153
G1 F2400 E10.53603
G1 F1980 X48.918 Y12.546 E10.56495
G1 X48.547 Y12.011 E10.59394
G1 X48.067 Y11.585 E10.62251
G1 X47.487 Y11.284 E10.65161
G1 X46.865 Y11.132 E10.68012
G1 X46.213 Y11.134 E10.70915
G1 X45.594 Y11.287 E10.73755
G1 X45.031 Y11.581 E10.76583
G1 X44.538 Y12.013 E10.79501
G1 X44.168 Y12.549 E10.82401
G1 X43.94 Y13.16 E10.85305
G1 X43.862 Y13.794 E10.8815
G1 X43.941 Y14.437 E10.91034
G1 X44.17 Y15.04 E10.93906
G1 X44.537 Y15.572 E10.96784
G1 X45.021 Y16 E10.99661
G1 X45.593 Y16.301 E11.02539
G1 X46.22 Y16.456 E11.05415
G1 X46.868 Y16.456 E11.083
G1 X47.496 Y16.301 E11.1118
G1 X48.068 Y16 E11.14058
G1 X48.552 Y15.572 E11.16935
G1 X48.918 Y15.04 E11.19811
G1 X49.148 Y14.435 E11.22693
G1 X49.224 Y13.794 E11.25567
G1 X49.218 Y13.746 E11.25782
G0 F1782 X49.149 Y13.153
G0 F4320 X47.803 Y11.969
G0 X46.81 Y11.593
G0 X45.857 Y11.696
G0 X44.801 Y12.248
G1 F2400 E11.2844
G1 F1980 X44.481 Y12.712 E11.3095
G1 X44.282 Y13.244 E11.33479
G1 X44.215 Y13.794 E11.35946
G1 X44.283 Y14.352 E11.38449
G1 X44.482 Y14.876 E11.40945
G1 X44.801 Y15.338 E11.43445
G1 X45.221 Y15.71 E11.45943
G1 X45.718 Y15.971 E11.48443
G1 X46.263 Y16.106 E11.50943
G1 X46.825 Y16.106 E11.53445
G1 X47.371 Y15.971 E11.5595
G1 X47.868 Y15.71 E11.58449
G1 X48.288 Y15.338 E11.60948
G1 X48.606 Y14.876 E11.63445
G1 X48.806 Y14.351 E11.65946
G1 X48.872 Y13.794 E11.68444
G1 X48.806 Y13.237 E11.70941
G1 X48.606 Y12.71 E11.73451
G1 X48.283 Y12.245 E11.75972
G1 X47.867 Y11.876 E11.78448
G1 X47.363 Y11.614 E11.80978
G1 X46.823 Y11.482 E11.83453
G1 X46.256 Y11.484 E11.85978
G1 X45.719 Y11.617 E11.88441
G1 X45.253 Y11.86 E11.90781
G0 F1782 X45.23 Y11.872
G0 X44.801 Y12.248
G1 F2400 E9.40781
G0 F4320 X43.778 Y13.12
G0 X45.445 Y13.531
G0 X16.921 Y13.519
G0 X18.511 Y13.113
G0 X17.003 Y11.969
G0 X16.01 Y11.593
G0 X15.057 Y11.696
G0 X14.001 Y12.248
G1 F2400 E11.93439
G1 F1980 X13.681 Y12.712 E11.95949
G1 X13.482 Y13.244 E11.98478
G1 X13.415 Y13.794 E12.00945
G1 X13.483 Y14.352 E12.03448
G1 X13.682 Y14.876 E12.05944
G1 X14.001 Y15.338 E12.08444
G1 X14.421 Y15.71 E12.10942
G1 X14.918 Y15.971 E12.13442
G1 X15.463 Y16.106 E12.15942
G1 X16.025 Y16.106 E12.18444
G1 X16.571 Y15.971 E12.20949
G1 X17.068 Y15.71 E12.23448
G1 X17.488 Y15.338 E12.25946
G1 X17.806 Y14.876 E12.28444
G1 X18.006 Y14.351 E12.30945
G1 X18.072 Y13.794 E12.33443
G1 X18.006 Y13.237 E12.3594
G1 X17.806 Y12.71 E12.3845
G1 X17.483 Y12.245 E12.40971
G1 X17.067 Y11.876 E12.43447
G1 X16.563 Y11.614 E12.45977
G1 X16.023 Y11.482 E12.48452
G1 X15.456 Y11.484 E12.50977
G1 X14.919 Y11.617 E12.5344
G1 X14.453 Y11.86 E12.5578
G0 F1782 X14.43 Y11.872
G0 X14.001 Y12.248
G1 F2400 E10.0578
G0 F4320 X13.591 Y13.271
G0 X13.592 Y14.324
G0 X14.734 Y16.457
G0 X15.342 Y14.851
G0 X16.142 Y43.455
G0 X16.754 Y41.931
G0 X17.488 Y43.048
G1 F2400 E12.58438
G1 F1980 X17.06 Y42.673 E12.60972
G1 X16.57 Y42.417 E12.63434
G1 X16.025 Y42.282 E12.65934
G1 X15.463 Y42.282 E12.68436
G1 X14.919 Y42.417 E12.70932
G1 X14.43 Y42.672 E12.73388
G1 X14.001 Y43.048 E12.75928
G1 X13.682 Y43.511 E12.78431
G1 X13.483 Y44.037 E12.80935
G1 X13.415 Y44.594 E12.83434
G1 X13.483 Y45.152 E12.85937
G1 X13.682 Y45.676 E12.88433
G1 X14.001 Y46.138 E12.90933
G1 X14.421 Y46.51 E12.93431
G1 X14.918 Y46.771 E12.9593
G1 X15.463 Y46.906 E12.9843
G1 X16.025 Y46.906 E13.00933
G1 X16.571 Y46.771 E13.03437
G1 X17.068 Y46.51 E13.05937
G1 X17.489 Y46.136 E13.08444
G1 X17.809 Y45.668 E13.10969
G1 X18.007 Y45.144 E13.13463
G1 X18.072 Y44.594 E13.15929
G1 X18.006 Y44.037 E13.18426
G1 X17.818 Y43.544 E13.20776
G0 F1782 X17.806 Y43.511
G0 X17.488 Y43.048
G1 F2400 E10.70776
G0 F4320 X16.53 Y42.521
G0 X15.478 Y42.393
G0 X14.493 Y42.765
G0 X13.781 Y43.563
G0 X13.555 Y44.364
G0 X13.612 Y46.483
G0 X14.897 Y45.342
G0 X6.408 Y46.471
G0 X8.054 Y46.483
G0 X7.519 Y52.819
G1 F2400 E13.23434
G1 F1980 X7.519 Y5.569 E15.33824
G1 X54.769 Y5.569 E17.44214
G1 X54.769 Y52.819 E19.54604
G1 X8.116 Y52.819 E21.62336
G0 F1782 X7.519 Y52.819
G1 F2400 E19.12336
G0 F4320 X48.288 Y52.284
G0 X48.288 Y54.009
G0 X46.959 Y45.729
G0 X47.555 Y47.257
G0 X48.51 Y45.616
G0 X48.761 Y44.594
G0 X48.288 Y43.048
G1 F2400 E21.64994
G1 F1980 X47.86 Y42.673 E21.67528
G1 X47.37 Y42.417 E21.6999
G1 X46.825 Y42.282 E21.7249
G1 X46.263 Y42.282 E21.74992
G1 X45.719 Y42.417 E21.77488
G1 X45.23 Y42.672 E21.79944
G1 X44.801 Y43.048 E21.82484
G1 X44.482 Y43.511 E21.84987
G1 X44.283 Y44.037 E21.87492
G1 X44.215 Y44.594 E21.8999
G1 X44.283 Y45.152 E21.92493
G1 X44.482 Y45.676 E21.94989
G1 X44.801 Y46.138 E21.97489
G1 X45.221 Y46.51 E21.99987
G1 X45.718 Y46.771 E22.02487
G1 X46.263 Y46.906 E22.04987
G1 X46.825 Y46.906 E22.07489
G1 X47.371 Y46.771 E22.09993
G1 X47.868 Y46.51 E22.12493
G1 X48.289 Y46.136 E22.15
G1 X48.609 Y45.668 E22.17525
G1 X48.807 Y45.144 E22.20019
G1 X48.872 Y44.594 E22.22485
G1 X48.806 Y44.037 E22.24983
G1 X48.618 Y43.544 E22.27332
G0 F1782 X48.606 Y43.511
G0 X48.288 Y43.048
G0 F4320 X48.043 Y43.266
;TYPE:WALL-OUTER
G1 F2400 E22.2999
G1 F1980 X47.675 Y42.943 E22.32171
G1 X47.254 Y42.723 E22.34286
G1 X46.785 Y42.607 E22.36437
G1 X46.303 Y42.607 E22.38583
G1 X45.835 Y42.723 E22.4073
G1 X45.415 Y42.942 E22.42839
G1 X45.046 Y43.266 E22.45026
G1 X44.772 Y43.663 E22.47174
G1 X44.601 Y44.115 E22.49325
G1 X44.542 Y44.594 E22.51474
G1 X44.601 Y45.073 E22.53623
G1 X44.772 Y45.524 E22.55771
G1 X45.046 Y45.921 E22.57919
G1 X45.407 Y46.241 E22.60067
G1 X45.834 Y46.465 E22.62214
G1 X46.303 Y46.581 E22.64365
G1 X46.785 Y46.581 E22.66511
G1 X47.255 Y46.465 E22.68667
G1 X47.682 Y46.241 E22.70814
G1 X48.043 Y45.92 E22.72965
G1 X48.319 Y45.517 E22.7514
G1 X48.489 Y45.066 E22.77286
G1 X48.545 Y44.594 E22.79402
G1 X48.488 Y44.115 E22.8155
G1 X48.357 Y43.771 E22.83189
G0 F1782 X48.316 Y43.663
G0 X48.043 Y43.266
G0 F4320 X47.893 Y43.134
G1 F2400 E20.33189
G0 F4320 X48.074 Y42.929
G0 X47.554 Y41.931
G0 X46.946 Y43.537
G0 X46.143 Y14.931
G0 X45.534 Y16.457
G0 X44.581 Y14.824
G0 X44.333 Y13.847
G0 X44.515 Y12.765
G0 X44.771 Y12.864
G1 F2400 E22.85848
G1 F1980 X44.6 Y13.322 E22.88024
G1 X44.542 Y13.794 E22.90142
G1 X44.601 Y14.273 E22.92291
G1 X44.772 Y14.724 E22.94439
G1 X45.046 Y15.121 E22.96586
G1 X45.407 Y15.441 E22.98734
G1 X45.834 Y15.665 E23.00881
G1 X46.303 Y15.781 E23.03033
G1 X46.785 Y15.781 E23.05179
G1 X47.255 Y15.665 E23.07334
G1 X47.682 Y15.441 E23.09482
G1 X48.043 Y15.121 E23.1163
G1 X48.316 Y14.724 E23.13775
G1 X48.488 Y14.273 E23.15924
G1 X48.545 Y13.794 E23.18072
G1 X48.488 Y13.315 E23.2022
G1 X48.316 Y12.863 E23.22373
G1 X48.038 Y12.462 E23.24546
G1 X47.681 Y12.146 E23.26669
G1 X47.248 Y11.92 E23.28844
G1 X46.785 Y11.807 E23.30966
G1 X46.296 Y11.809 E23.33143
G1 X45.835 Y11.923 E23.35258
G1 X45.415 Y12.142 E23.37367
G1 X45.131 Y12.391 E23.39049
G0 F1782 X45.046 Y12.466
G0 X44.771 Y12.864
G0 F4320 X44.701 Y13.051
G1 F2400 E20.89049
G0 F4320 X44.445 Y12.954
G0 X43.696 Y13.794
G0 X45.413 Y13.794
G0 X16.954 Y13.794
G0 X18.59 Y13.794
G0 X17.399 Y12.319
G0 X16.524 Y11.718
G0 X15.47 Y11.595
G0 X14.493 Y11.965
G0 X13.715 Y12.765
G0 X13.971 Y12.864
G1 F2400 E23.41707
G1 F1980 X13.8 Y13.322 E23.43884
G1 X13.742 Y13.794 E23.46001
G1 X13.801 Y14.273 E23.4815
G1 X13.972 Y14.724 E23.50298
G1 X14.246 Y15.121 E23.52446
G1 X14.607 Y15.441 E23.54594
G1 X15.034 Y15.665 E23.56741
G1 X15.503 Y15.781 E23.58892
G1 X15.985 Y15.781 E23.61038
G1 X16.455 Y15.665 E23.63194
G1 X16.882 Y15.441 E23.65341
G1 X17.243 Y15.121 E23.67489
G1 X17.516 Y14.724 E23.69634
G1 X17.688 Y14.273 E23.71783
G1 X17.745 Y13.794 E23.73931
G1 X17.688 Y13.315 E23.76079
G1 X17.516 Y12.863 E23.78233
G1 X17.238 Y12.462 E23.80405
G1 X16.881 Y12.146 E23.82528
G1 X16.448 Y11.92 E23.84703
G1 X15.985 Y11.807 E23.86825
G1 X15.496 Y11.809 E23.89003
G1 X15.035 Y11.923 E23.91117
G1 X14.615 Y12.142 E23.93226
G1 X14.331 Y12.391 E23.94908
G0 F1782 X14.246 Y12.466
G0 X13.971 Y12.864
G0 F4320 X13.901 Y13.051
G1 F2400 E21.44908
G0 F4320 X13.645 Y12.954
G0 X13.526 Y13.794
G0 X13.699 Y14.607
G0 X14.734 Y16.457
G0 X15.342 Y14.851
G0 X16.142 Y43.455
G0 X16.754 Y41.931
G0 X17.425 Y43.061
G0 X17.243 Y43.266
G1 F2400 E23.97566
G1 F1980 X16.875 Y42.943 E23.99746
G1 X16.454 Y42.723 E24.01862
G1 X15.985 Y42.607 E24.04013
G1 X15.503 Y42.607 E24.06159
G1 X15.035 Y42.723 E24.08306
G1 X14.615 Y42.942 E24.10415
G1 X14.246 Y43.266 E24.12602
G1 X13.972 Y43.663 E24.14749
G1 X13.801 Y44.115 E24.16901
G1 X13.742 Y44.594 E24.1905
G1 X13.801 Y45.073 E24.21199
G1 X13.972 Y45.524 E24.23347
G1 X14.246 Y45.921 E24.25495
G1 X14.607 Y46.241 E24.27643
G1 X15.034 Y46.465 E24.2979
G1 X15.503 Y46.581 E24.31941
G1 X15.985 Y46.581 E24.34087
G1 X16.455 Y46.465 E24.36243
G1 X16.882 Y46.241 E24.3839
G1 X17.243 Y45.92 E24.40541
G1 X17.519 Y45.517 E24.42716
G1 X17.689 Y45.066 E24.44862
G1 X17.745 Y44.594 E24.46978
G1 X17.688 Y44.115 E24.49126
G1 X17.557 Y43.771 E24.50765
G0 F1782 X17.516 Y43.663
G0 X17.243 Y43.266
G0 F4320 X17.093 Y43.134
G1 F2400 E22.00765
G0 F4320 X17.274 Y42.929
G0 X16.53 Y42.521
G0 X15.478 Y42.393
G0 X14.493 Y42.765
G0 X13.781 Y43.563
G0 X13.555 Y44.364
G0 X13.612 Y46.483
G0 X14.897 Y45.342
G0 X6.408 Y46.471
G0 X8.054 Y46.483
G0 X7.469 Y52.899
G0 X7.194 Y53.144
G1 F2400 E24.53423
G1 F1980 X7.194 Y5.244 E26.66708
G1 X55.094 Y5.244 E28.79992
G1 X55.094 Y53.144 E30.93277
G1 X7.791 Y53.144 E33.03903
G0 F1782 X7.194 Y53.144
G0 F4320 X7.194 Y52.944
G0 X7.469 Y52.944
G0 X7.954 Y52.129
G0 X8.209 Y52.129
;TYPE:SKIN
G1 F2400 E33.06561
G1 F1980 X8.209 Y6.259 E35.10806
G1 X54.079 Y6.259 E37.15052
G1 X54.079 Y52.129 E39.19297
G1 X8.806 Y52.129 E41.20884
G0 F1782 X8.209 Y52.129
G1 F2400 E38.70884
G0 F4320 X7.954 Y52.129
G0 X8.054 Y46.431
G0 X6.329 Y46.431
G0 X14.663 Y45.131
G0 X13.222 Y45.918
G0 X13.481 Y46.599
G1 F2400 E41.23542
G1 F1980 X14.027 Y47.082 E41.26788
G1 X14.671 Y47.421 E41.30029
G1 X15.379 Y47.596 E41.33276
G1 X16.109 Y47.596 E41.36527
G1 X16.818 Y47.421 E41.39778
G1 X17.464 Y47.082 E41.43027
G1 X18.011 Y46.596 E41.46285
G1 X18.425 Y45.989 E41.49557
G1 X18.683 Y45.309 E41.52795
G1 X18.766 Y44.594 E41.56
G1 X18.68 Y43.871 E41.59242
G1 X18.421 Y43.188 E41.62495
G1 X18.008 Y42.587 E41.65742
G1 X17.453 Y42.1 E41.69029
G1 X16.816 Y41.767 E41.7223
G1 X16.109 Y41.592 E41.75473
G1 X15.379 Y41.592 E41.78723
G1 X14.673 Y41.767 E41.81962
G1 X14.037 Y42.099 E41.85157
G1 X13.482 Y42.586 E41.88444
G1 X13.067 Y43.188 E41.917
G1 X12.809 Y43.871 E41.94951
G1 X12.72 Y44.594 E41.98195
G1 X12.809 Y45.319 E42.01447
G1 X13.067 Y45.999 E42.04686
G1 X13.142 Y46.107 E42.05271
G0 F1782 X13.481 Y46.599
G1 F2400 E39.55271
G0 F4320 X13.674 Y46.431
G0 X13.526 Y44.594
G0 X14.137 Y42.243
G0 X15.107 Y43.659
G0 X15.606 Y14.995
G0 X15.399 Y16.622
G0 X15.379 Y16.796
G1 F2400 E42.07929
G1 F1980 X16.109 Y16.796 E42.1118
G1 X16.818 Y16.621 E42.14432
G1 X17.462 Y16.282 E42.17672
G1 X18.008 Y15.799 E42.20918
G1 X18.421 Y15.199 E42.24161
G1 X18.68 Y14.517 E42.2741
G1 X18.766 Y13.794 E42.30652
G1 X18.681 Y13.071 E42.33893
G1 X18.421 Y12.387 E42.37151
G1 X18.003 Y11.784 E42.40418
G1 X17.461 Y11.303 E42.43645
G1 X16.807 Y10.963 E42.46927
G1 X16.106 Y10.792 E42.5014
G1 X15.371 Y10.794 E42.53413
G1 X14.673 Y10.967 E42.56615
G1 X14.037 Y11.299 E42.59809
G1 X13.482 Y11.785 E42.63094
G1 X13.065 Y12.39 E42.66366
G1 X12.808 Y13.079 E42.6964
G1 X12.72 Y13.794 E42.72848
G1 X12.809 Y14.519 E42.76101
G1 X13.067 Y15.199 E42.79339
G1 X13.481 Y15.799 E42.82585
G1 X14.027 Y16.282 E42.85831
G1 X14.671 Y16.621 E42.89071
G1 X14.8 Y16.653 E42.89663
G0 F1782 X15.379 Y16.796
G1 F2400 E40.39663
G0 F4320 X15.409 Y16.541
G0 X17.878 Y15.683
G0 X16.591 Y14.543
G0 X45.46 Y14.32
G0 X44.022 Y15.118
G0 X44.281 Y15.799
G1 F2400 E42.92321
G1 F1980 X44.827 Y16.282 E42.95567
G1 X45.471 Y16.621 E42.98808
G1 X46.179 Y16.796 E43.02055
G1 X46.909 Y16.796 E43.05306
G1 X47.618 Y16.621 E43.08557
G1 X48.262 Y16.282 E43.11798
G1 X48.808 Y15.799 E43.15044
G1 X49.221 Y15.199 E43.18287
G1 X49.48 Y14.517 E43.21536
G1 X49.566 Y13.794 E43.24778
G1 X49.481 Y13.071 E43.28019
G1 X49.221 Y12.387 E43.31277
G1 X48.803 Y11.784 E43.34544
G1 X48.261 Y11.303 E43.37771
G1 X47.607 Y10.963 E43.41053
G1 X46.906 Y10.792 E43.44266
G1 X46.171 Y10.794 E43.47539
G1 X45.473 Y10.967 E43.50741
G1 X44.837 Y11.299 E43.53935
G1 X44.282 Y11.785 E43.5722
G1 X43.865 Y12.39 E43.60492
