;FLAVOR:Marlin
;TIME:5836
;Filament used: 7.02509m
;Layer height: 0.30625
;MINX:3.748
;MINY:4.72
;MINZ:0.306
;MAXX:71.386
;MAXY:64.054
;MAXZ:29.988
;Generated with Cura_SteamEngine 4.2.1
M140 S65
M105
M190 S65
M104 S205
M105
M109 S205
M82 ;absolute extrusion mode
G21;(metric values)
G90;(absolute positioning)
M82;(set extruder to absolute mode)
M107;(start with the fan off)
G28;(Home the printer)
G92 E0;(Reset the extruder to 0)
G0 Z5 E5 F500;(Move up and prime the nozzle)
G0 X-1 Z0;(Move outside the printable area)
G1 Y60 E8 F500;(Draw a priming/wiping line to the rear)
G1 X-1;(Move a little closer to the print area)
G1 Y10 E16 F500;(draw more priming/wiping)
G1 E15 F250;(Small retract)
G92 E0;(Zero the extruder)
M141 S28
G92 E0
G92 E0
G1 F2400 E-2.5
;LAYER_COUNT:98
;LAYER:0
M107
;MESH:Gripper-V-6.stl
G0 F4320 X5.288 Y14.432 Z0.306
;TYPE:WALL-INNER
G1 F2400 E0
G1 F1980 X5.288 Y6.182 E0.36735
G1 X69.858 Y6.182 E3.24246
G1 X69.858 Y14.432 E3.6098
G1 X5.885 Y14.432 E6.45833
G0 F1782 X5.288 Y14.432
G1 F2400 E3.95833
G0 F4320 X31.792 Y14.247
G0 X31.624 Y12.825
G0 X32.113 Y12.004
G0 X32.801 Y11.395
G0 X33.126 Y10.537
G0 X33.016 Y9.628
G0 X31.792 Y7.993
G1 F2400 E6.48491
G1 F1980 X31.223 Y7.927 E6.51042
G1 X30.654 Y7.993 E6.53592
G1 X30.116 Y8.199 E6.56158
G1 X29.643 Y8.524 E6.58713
G1 X29.263 Y8.956 E6.61275
G1 X28.997 Y9.462 E6.6382
G1 X28.859 Y10.019 E6.66375
G1 X28.859 Y10.595 E6.6894
G1 X28.997 Y11.152 E6.71495
G1 X29.263 Y11.658 E6.74041
G1 X29.643 Y12.09 E6.76603
G1 X30.117 Y12.415 E6.79162
G1 X30.654 Y12.619 E6.81719
G1 X31.223 Y12.687 E6.84271
G1 X31.792 Y12.619 E6.86823
G1 X32.329 Y12.415 E6.8938
G1 X32.802 Y12.09 E6.91936
G1 X33.184 Y11.659 E6.945
G1 X33.45 Y11.151 E6.97054
G1 X33.587 Y10.593 E6.99612
G1 X33.587 Y10.021 E7.02159
G1 X33.45 Y9.463 E7.04717
G1 X33.191 Y8.968 E7.07205
G1 X32.805 Y8.526 E7.09818
G1 X32.347 Y8.21 E7.12295
G0 F1782 X32.33 Y8.199
G0 X31.792 Y7.993
G1 F2400 E4.62295
G0 F4320 X33.329 Y8.874
G0 X31.911 Y9.843
G0 X43.155 Y9.833
G0 X41.826 Y8.861
G0 X44.492 Y7.993
G1 F2400 E7.14954
G1 F1980 X43.923 Y7.927 E7.17504
G1 X43.354 Y7.993 E7.20055
G1 X42.816 Y8.199 E7.2262
G1 X42.343 Y8.524 E7.25175
G1 X41.963 Y8.956 E7.27737
G1 X41.697 Y9.462 E7.30283
G1 X41.559 Y10.019 E7.32838
G1 X41.559 Y10.595 E7.35403
G1 X41.697 Y11.152 E7.37958
G1 X41.963 Y11.658 E7.40503
G1 X42.343 Y12.09 E7.43065
G1 X42.817 Y12.415 E7.45624
G1 X43.354 Y12.619 E7.48182
G1 X43.923 Y12.687 E7.50733
G1 X44.492 Y12.619 E7.53285
G1 X45.029 Y12.415 E7.55843
G1 X45.502 Y12.09 E7.58398
G1 X45.884 Y11.659 E7.60963
G1 X46.15 Y11.151 E7.63516
G1 X46.287 Y10.593 E7.66074
G1 X46.287 Y10.021 E7.68621
G1 X46.15 Y9.463 E7.7118
G1 X45.891 Y8.968 E7.73667
G1 X45.505 Y8.526 E7.7628
G1 X45.047 Y8.21 E7.78758
G0 F1782 X45.03 Y8.199
G0 X44.492 Y7.993
G0 F4320 X45.27 Y8.789
G1 F2400 E7.81416
G1 F1980 X44.866 Y8.511 E7.836
G1 X44.408 Y8.336 E7.85783
G1 X43.923 Y8.279 E7.87957
G1 X43.438 Y8.336 E7.90132
G1 X42.98 Y8.511 E7.92315
G1 X42.577 Y8.788 E7.94492
G1 X42.253 Y9.156 E7.96676
G1 X42.027 Y9.587 E7.98842
G1 X41.909 Y10.062 E8.01022
G1 X41.909 Y10.552 E8.03204
G1 X42.027 Y11.027 E8.05383
G1 X42.253 Y11.458 E8.0755
G1 X42.577 Y11.826 E8.09733
G1 X42.981 Y12.103 E8.11914
G1 X43.438 Y12.277 E8.14092
G1 X43.923 Y12.335 E8.16267
G1 X44.408 Y12.277 E8.18441
G1 X44.865 Y12.103 E8.20619
G1 X45.269 Y11.826 E8.228
G1 X45.594 Y11.459 E8.24983
G1 X45.82 Y11.026 E8.27158
G1 X45.937 Y10.551 E8.29336
G1 X45.937 Y10.063 E8.31509
G1 X45.82 Y9.588 E8.33687
G1 X45.644 Y9.252 E8.35376
G0 F1782 X45.6 Y9.167
G0 X45.27 Y8.789
G1 F2400 E5.85376
G0 F4320 X44.381 Y8.445
G0 X43.465 Y8.445
G0 X41.541 Y9.403
G0 X43.147 Y10.011
G0 X32.08 Y10.012
G0 X33.606 Y9.404
G0 X32.57 Y8.789
G1 F2400 E8.38034
G1 F1980 X32.166 Y8.511 E8.40218
G1 X31.708 Y8.336 E8.42401
G1 X31.223 Y8.279 E8.44575
G1 X30.738 Y8.336 E8.4675
G1 X30.28 Y8.511 E8.48933
G1 X29.877 Y8.788 E8.5111
G1 X29.553 Y9.156 E8.53294
G1 X29.327 Y9.587 E8.55461
G1 X29.209 Y10.062 E8.5764
G1 X29.209 Y10.552 E8.59822
G1 X29.327 Y11.027 E8.62001
G1 X29.553 Y11.458 E8.64168
G1 X29.877 Y11.826 E8.66351
G1 X30.281 Y12.103 E8.68532
G1 X30.738 Y12.277 E8.7071
G1 X31.223 Y12.335 E8.72885
G1 X31.708 Y12.277 E8.7506
G1 X32.165 Y12.103 E8.77237
G1 X32.569 Y11.826 E8.79418
G1 X32.894 Y11.459 E8.81601
G1 X33.12 Y11.026 E8.83776
G1 X33.237 Y10.551 E8.85954
G1 X33.237 Y10.063 E8.88127
G1 X33.12 Y9.588 E8.90305
G1 X32.944 Y9.252 E8.91994
G0 F1782 X32.9 Y9.167
G0 X32.57 Y8.789
G1 F2400 E6.41994
G0 F4320 X31.681 Y8.445
G0 X30.765 Y8.445
G0 X28.693 Y9.998
G0 X30.398 Y10.207
G0 X28.715 Y15.892
G0 X28.693 Y14.247
G0 X4.938 Y14.782
G1 F2400 E8.94652
G1 F1980 X4.938 Y5.832 E9.34504
G1 X70.208 Y5.832 E12.25132
G1 X70.208 Y14.782 E12.64983
G1 X5.535 Y14.782 E15.52953
G0 F1782 X4.938 Y14.782
G0 F4320 X4.613 Y15.107
;TYPE:WALL-OUTER
G1 F2400 E15.55611
G1 F1980 X4.613 Y5.507 E15.98357
G1 X70.533 Y5.507 E18.91879
G1 X70.533 Y15.107 E19.34625
G1 X5.21 Y15.107 E22.25489
G0 F1782 X4.613 Y15.107
G0 F4320 X4.613 Y14.907
G1 F2400 E19.75489
G0 F4320 X4.888 Y14.832
G0 X29.938 Y14.247
G0 X30.512 Y12.742
G0 X29.938 Y11.806
G0 X30.094 Y11.581
G1 F2400 E22.28147
G1 F1980 X30.433 Y11.813 E22.29976
G1 X30.816 Y11.959 E22.31801
G1 X31.223 Y12.008 E22.33627
G1 X31.63 Y11.959 E22.35452
G1 X32.013 Y11.813 E22.37277
G1 X32.352 Y11.581 E22.39106
G1 X32.624 Y11.273 E22.40936
G1 X32.814 Y10.91 E22.4276
G1 X32.912 Y10.512 E22.44585
G1 X32.912 Y10.102 E22.46411
G1 X32.814 Y9.704 E22.48236
G1 X32.63 Y9.352 E22.50005
G1 X32.352 Y9.034 E22.51885
G1 X32.014 Y8.801 E22.53713
G1 X31.63 Y8.654 E22.55544
G1 X31.223 Y8.606 E22.57369
G1 X30.816 Y8.654 E22.59194
G1 X30.432 Y8.801 E22.61025
G1 X30.094 Y9.033 E22.6285
G1 X29.823 Y9.341 E22.64677
G1 X29.633 Y9.703 E22.66497
G1 X29.534 Y10.102 E22.68328
G1 X29.534 Y10.512 E22.70153
G1 X29.633 Y10.911 E22.71984
G1 X29.736 Y11.108 E22.72974
G0 F1782 X29.823 Y11.273
G0 X30.094 Y11.581
G0 F4320 X30.259 Y11.694
G1 F2400 E20.22974
G0 F4320 X30.103 Y11.919
G0 X30.765 Y12.168
G0 X31.681 Y12.168
G0 X33.753 Y10.613
G0 X32.048 Y10.408
G0 X43.018 Y10.406
G0 X41.393 Y10.616
G0 X42.638 Y11.806
G0 X42.794 Y11.581
G1 F2400 E22.75632
G1 F1980 X43.133 Y11.813 E22.77461
G1 X43.516 Y11.959 E22.79286
G1 X43.923 Y12.008 E22.81111
G1 X44.33 Y11.959 E22.82937
G1 X44.713 Y11.813 E22.84762
G1 X45.052 Y11.581 E22.86591
G1 X45.324 Y11.273 E22.88421
G1 X45.514 Y10.91 E22.90245
G1 X45.612 Y10.512 E22.9207
G1 X45.612 Y10.102 E22.93896
G1 X45.514 Y9.704 E22.95721
G1 X45.33 Y9.352 E22.97489
G1 X45.052 Y9.034 E22.9937
G1 X44.714 Y8.801 E23.01198
G1 X44.33 Y8.654 E23.03029
G1 X43.923 Y8.606 E23.04854
G1 X43.516 Y8.654 E23.06678
G1 X43.132 Y8.801 E23.08509
G1 X42.794 Y9.033 E23.10335
G1 X42.523 Y9.341 E23.12161
G1 X42.333 Y9.703 E23.13982
G1 X42.234 Y10.102 E23.15812
G1 X42.234 Y10.512 E23.17638
G1 X42.333 Y10.911 E23.19468
G1 X42.436 Y11.108 E23.20458
G0 F1782 X42.523 Y11.273
G0 X42.794 Y11.581
G0 F4320 X42.959 Y11.694
G0 X42.804 Y11.92
G0 X42.116 Y12.346
;TYPE:SKIN
G1 F2400 E23.23117
G1 F1980 X42.658 Y12.718 E23.26044
G1 X43.272 Y12.951 E23.28968
G1 X43.923 Y13.029 E23.31887
G1 X44.574 Y12.951 E23.34807
G1 X45.188 Y12.718 E23.37731
G1 X45.729 Y12.347 E23.40652
G1 X46.166 Y11.853 E23.43589
G1 X46.47 Y11.272 E23.46508
G1 X46.627 Y10.634 E23.49434
G1 X46.627 Y9.98 E23.52346
G1 X46.47 Y9.342 E23.55272
G1 X46.173 Y8.775 E23.58122
G1 X45.733 Y8.27 E23.61104
G1 X45.189 Y7.896 E23.64044
G1 X44.574 Y7.66 E23.66977
G1 X43.923 Y7.585 E23.69895
G1 X43.272 Y7.66 E23.72812
G1 X42.657 Y7.896 E23.75746
G1 X42.116 Y8.268 E23.78669
G1 X41.681 Y8.762 E23.816
G1 X41.377 Y9.34 E23.84508
G1 X41.219 Y9.978 E23.87434
G1 X41.219 Y10.636 E23.90364
G1 X41.377 Y11.274 E23.93291
G1 X41.681 Y11.852 E23.96199
G1 X41.722 Y11.898 E23.96473
G0 F1782 X42.116 Y12.346
G1 F2400 E21.46473
G0 F4320 X42.287 Y12.156
G0 X43.239 Y10.78
G0 X32.126 Y10.41
G0 X33.753 Y10.613
G0 X33.927 Y10.634
G1 F2400 E23.99132
G1 F1980 X33.927 Y9.98 E24.02044
G1 X33.77 Y9.342 E24.04969
G1 X33.473 Y8.775 E24.07819
G1 X33.033 Y8.27 E24.10802
G1 X32.489 Y7.896 E24.13741
G1 X31.874 Y7.66 E24.16674
G1 X31.223 Y7.585 E24.19592
G1 X30.572 Y7.66 E24.2251
G1 X29.957 Y7.896 E24.25443
G1 X29.416 Y8.268 E24.28367
G1 X28.981 Y8.762 E24.31297
G1 X28.677 Y9.34 E24.34205
G1 X28.519 Y9.978 E24.37132
G1 X28.519 Y10.636 E24.40062
G1 X28.677 Y11.274 E24.42989
G1 X28.981 Y11.852 E24.45896
G1 X29.416 Y12.346 E24.48827
G1 X29.958 Y12.718 E24.51754
G1 X30.572 Y12.951 E24.54679
G1 X31.223 Y13.029 E24.57598
G1 X31.874 Y12.951 E24.60518
G1 X32.488 Y12.718 E24.63442
G1 X33.029 Y12.347 E24.66363
G1 X33.466 Y11.853 E24.69299
G1 X33.77 Y11.272 E24.72219
G1 X33.785 Y11.213 E24.7249
G0 F1782 X33.927 Y10.634
G1 F2400 E22.2249
G0 F4320 X33.672 Y10.603
G0 X32.048 Y10.408
G0 X33.728 Y15.893
G0 X33.753 Y14.247
G0 X69.701 Y14.275
G0 X69.518 Y14.092
G1 F2400 E24.75148
G1 F1980 X5.628 Y14.092 E27.59632
G1 X5.628 Y6.522 E27.93338
G1 X69.518 Y6.522 E30.77822
G1 X69.518 Y13.495 E31.0887
G0 F1782 X69.518 Y14.092
G0 F4320 X69.773 Y14.092
G0 X69.773 Y6.993
G0 X69.36 Y6.993
G1 F2400 E31.11528
G1 F1980 X69.046 Y6.679 E31.13506
G0 F4320 X68.551 Y6.679
G1 F1980 X69.36 Y7.488 E31.186
G0 F4320 X69.36 Y7.983
G1 F1980 X68.056 Y6.679 E31.26811
G0 F4320 X67.561 Y6.679
G1 F1980 X69.36 Y8.478 E31.3814
G0 F4320 X69.36 Y8.973
G1 F1980 X67.066 Y6.679 E31.52585
G0 F4320 X66.571 Y6.679
G1 F1980 X69.36 Y9.468 E31.70148
G0 F4320 X69.36 Y9.963
G1 F1980 X66.076 Y6.679 E31.90827
G0 F4320 X65.581 Y6.679
G1 F1980 X69.36 Y10.458 E32.14624
G0 F4320 X69.36 Y10.953
G1 F1980 X65.086 Y6.679 E32.41538
G0 F4320 X64.591 Y6.679
G1 F1980 X69.36 Y11.448 E32.71568
G0 F4320 X69.36 Y11.943
G1 F1980 X64.096 Y6.679 E33.04716
G0 F4320 X63.601 Y6.679
G1 F1980 X69.36 Y12.438 E33.40981
G0 F4320 X69.36 Y12.933
G1 F1980 X63.106 Y6.679 E33.80363
G0 F4320 X62.611 Y6.679
G1 F1980 X69.36 Y13.428 E34.22862
G0 F4320 X69.36 Y13.923
G1 F1980 X62.116 Y6.679 E34.68478
G0 F4320 X61.621 Y6.679
G1 F1980 X68.876 Y13.934 E35.14163
G0 F4320 X68.381 Y13.934
G1 F1980 X61.126 Y6.679 E35.59848
G0 F4320 X60.631 Y6.679
G1 F1980 X67.886 Y13.934 E36.05534
G0 F4320 X67.391 Y13.934
G1 F1980 X60.136 Y6.679 E36.51219
G0 F4320 X59.641 Y6.679
G1 F1980 X66.896 Y13.934 E36.96904
G0 F4320 X66.401 Y13.934
G1 F1980 X59.146 Y6.679 E37.42589
G0 F4320 X58.651 Y6.679
G1 F1980 X65.906 Y13.934 E37.88275
G0 F4320 X65.411 Y13.934
G1 F1980 X58.156 Y6.679 E38.3396
G0 F4320 X57.661 Y6.679
G1 F1980 X64.916 Y13.934 E38.79645
G0 F4320 X64.421 Y13.934
G1 F1980 X57.166 Y6.679 E39.2533
G0 F4320 X56.671 Y6.679
G1 F1980 X63.926 Y13.934 E39.71015
G0 F4320 X63.431 Y13.934
G1 F1980 X56.176 Y6.679 E40.16701
G0 F4320 X55.681 Y6.679
G1 F1980 X62.936 Y13.934 E40.62386
G0 F4320 X62.441 Y13.934
G1 F1980 X55.186 Y6.679 E41.08071
G0 F4320 X54.691 Y6.679
G1 F1980 X61.946 Y13.934 E41.53756
G0 F4320 X61.451 Y13.934
G1 F1980 X54.196 Y6.679 E41.99442
G0 F4320 X53.701 Y6.679
G1 F1980 X60.956 Y13.934 E42.45127
G0 F4320 X60.461 Y13.934
G1 F1980 X53.206 Y6.679 E42.90812
G0 F4320 X52.711 Y6.679
G1 F1980 X59.966 Y13.934 E43.36497
G0 F4320 X59.471 Y13.934
G1 F1980 X52.217 Y6.679 E43.82179
G0 F4320 X51.722 Y6.679
G1 F1980 X58.976 Y13.934 E44.27862
G0 F4320 X58.481 Y13.934
G1 F1980 X51.227 Y6.679 E44.73544
G0 F4320 X50.732 Y6.679
G1 F1980 X57.986 Y13.934 E45.19226
G0 F4320 X57.492 Y13.934
G1 F1980 X50.237 Y6.679 E45.64911
G0 F4320 X49.742 Y6.679
G1 F1980 X56.997 Y13.934 E46.10596
G0 F4320 X56.502 Y13.934
G1 F1980 X49.247 Y6.679 E46.56281
G0 F4320 X48.752 Y6.679
G1 F1980 X56.007 Y13.934 E47.01967
G0 F4320 X55.512 Y13.934
G1 F1980 X48.257 Y6.679 E47.47652
G0 F4320 X47.762 Y6.679
G1 F1980 X55.017 Y13.934 E47.93337
G0 F4320 X54.522 Y13.934
G1 F1980 X47.267 Y6.679 E48.39022
G0 F4320 X46.772 Y6.679
G1 F1980 X54.027 Y13.934 E48.84708
G0 F4320 X53.532 Y13.934
G1 F1980 X46.277 Y6.679 E49.30393
G0 F4320 X45.782 Y6.679
G1 F1980 X53.037 Y13.934 E49.76078
G0 F4320 X52.542 Y13.934
G1 F1980 X45.287 Y6.679 E50.21763
G0 F4320 X44.792 Y6.679
G1 F1980 X52.047 Y13.934 E50.67449
G0 F4320 X51.552 Y13.934
G1 F1980 X46.284 Y8.666 E51.00622
G1 X46.222 Y8.604
G0 F4320 X45.618 Y8
G1 F1980 X44.297 Y6.679 E51.0894
G0 F4320 X43.802 Y6.679
G1 F1980 X44.641 Y7.517 E51.1422
G0 F4320 X44.071 Y7.443
G1 F1980 X43.307 Y6.679 E51.19031
G0 F4320 X42.812 Y6.679
G1 F1980 X43.597 Y7.464 E51.23974
G0 F4320 X43.169 Y7.531
G1 F1980 X42.317 Y6.679 E51.29339
G0 F4320 X41.822 Y6.679
G1 F1980 X42.811 Y7.668 E51.35567
G0 F4320 X42.476 Y7.828
G1 F1980 X41.327 Y6.679 E51.42803
G0 F4320 X40.832 Y6.679
G1 F1980 X42.183 Y8.029 E51.51307
G0 F4320 X41.916 Y8.258
G1 F1980 X40.337 Y6.679 E51.6125
G0 F4320 X39.842 Y6.679
G1 F1980 X41.684 Y8.521 E51.72849
G0 F4320 X41.478 Y8.809
G1 F1980 X39.347 Y6.679 E51.86265
G0 F4320 X38.852 Y6.679
G1 F1980 X41.307 Y9.134 E52.01724
G0 F4320 X41.175 Y9.497
G1 F1980 X38.357 Y6.679 E52.19469
G0 F4320 X37.862 Y6.679
G1 F1980 X41.077 Y9.893 E52.39711
G0 F4320 X41.06 Y10.372
G1 F1980 X37.367 Y6.679 E52.62966
G0 F4320 X36.872 Y6.679
G1 F1980 X41.13 Y10.936 E52.89776
G1 X41.192 Y10.998
G0 F4320 X41.45 Y11.752
G1 F1980 X36.377 Y6.679 E53.21721
G0 F4320 X35.882 Y6.679
G1 F1980 X43.137 Y13.934 E53.67406
G0 F4320 X43.632 Y13.934
G1 F1980 X42.497 Y12.799 E53.74554
G1 X42.435 Y12.737
G0 F4320 X43.306 Y13.112
G1 F1980 X44.127 Y13.934 E53.79727
G0 F4320 X44.622 Y13.934
G1 F1980 X43.868 Y13.18 E53.84475
G0 F4320 X44.322 Y13.139
G1 F1980 X45.117 Y13.934 E53.89481
G0 F4320 X45.612 Y13.934
G1 F1980 X44.735 Y13.057 E53.95003
G0 F4320 X45.095 Y12.921
G1 F1980 X46.107 Y13.934 E54.01379
G0 F4320 X46.602 Y13.934
G1 F1980 X45.418 Y12.75 E54.08835
G0 F4320 X45.712 Y12.549
G1 F1980 X47.097 Y13.934 E54.17556
G0 F4320 X47.592 Y13.934
G1 F1980 X45.969 Y12.311 E54.27776
G0 F4320 X46.201 Y12.048
G1 F1980 X48.087 Y13.934 E54.39653
G0 F4320 X48.582 Y13.934
G1 F1980 X46.396 Y11.748 E54.53418
G0 F4320 X46.566 Y11.423
G1 F1980 X49.077 Y13.934 E54.6923
G0 F4320 X49.572 Y13.934
G1 F1980 X46.686 Y11.047 E54.87406
G0 F4320 X46.783 Y10.65
G1 F1980 X50.067 Y13.934 E55.08086
G0 F4320 X50.562 Y13.934
G1 F1980 X46.783 Y10.155 E55.31883
G0 F4320 X46.686 Y9.562
G1 F1980 X51.057 Y13.934 E55.5941
G1 X51.119 Y13.996
G0 F4320 X51.119 Y14.347
G0 X42.642 Y14.347
G0 X42.642 Y13.934
G1 F1980 X35.387 Y6.679 E56.05096
G0 F4320 X34.892 Y6.679
G1 F1980 X42.147 Y13.934 E56.50781
G0 F4320 X41.652 Y13.934
G1 F1980 X34.397 Y6.679 E56.96466
G0 F4320 X33.902 Y6.679
G1 F1980 X41.157 Y13.934 E57.42151
G0 F4320 X40.662 Y13.934
G1 F1980 X33.407 Y6.679 E57.87837
G0 F4320 X32.912 Y6.679
G1 F1980 X40.167 Y13.934 E58.33522
G0 F4320 X39.672 Y13.934
G1 F1980 X32.418 Y6.679 E58.79204
G0 F4320 X31.923 Y6.679
G1 F1980 X39.177 Y13.934 E59.24886
G0 F4320 X38.682 Y13.934
G1 F1980 X33.786 Y9.037 E59.5572
G1 X33.724 Y8.975
G0 F4320 X34.04 Y9.786
G1 F1980 X38.188 Y13.934 E59.8184
G0 F4320 X37.693 Y13.934
G1 F1980 X34.083 Y10.324 E60.04572
G0 F4320 X34.05 Y10.786
G1 F1980 X37.198 Y13.934 E60.24395
G0 F4320 X36.703 Y13.934
G1 F1980 X33.953 Y11.184 E60.41712
G0 F4320 X33.808 Y11.535
G1 F1980 X36.208 Y13.934 E60.56822
G0 F4320 X35.713 Y13.934
G1 F1980 X33.638 Y11.859 E60.69889
G0 F4320 X33.422 Y12.138
G1 F1980 X35.218 Y13.934 E60.81198
G0 F4320 X34.723 Y13.934
G1 F1980 X33.19 Y12.401 E60.90852
G0 F4320 X32.912 Y12.618
G1 F1980 X34.228 Y13.934 E60.99138
G0 F4320 X33.733 Y13.934
G1 F1980 X32.618 Y12.819 E61.0616
G0 F4320 X32.272 Y12.968
G1 F1980 X33.238 Y13.934 E61.12243
G0 F4320 X32.743 Y13.934
G1 F1980 X31.913 Y13.104 E61.17469
G0 F4320 X31.471 Y13.157
G1 F1980 X32.248 Y13.934 E61.22362
G0 F4320 X31.753 Y13.934
G1 F1980 X30.976 Y13.157 E61.27255
G0 F4320 X30.364 Y13.04
G1 F1980 X31.258 Y13.934 E61.32884
G0 F4320 X30.763 Y13.934
G1 F1980 X23.508 Y6.679 E61.7857
G0 F4320 X23.013 Y6.679
G1 F1980 X30.268 Y13.934 E62.24255
G0 F4320 X29.773 Y13.934
G1 F1980 X22.518 Y6.679 E62.6994
G0 F4320 X22.023 Y6.679
G1 F1980 X29.278 Y13.934 E63.15625
G0 F4320 X28.783 Y13.934
G1 F1980 X21.528 Y6.679 E63.61311
G0 F4320 X21.033 Y6.679
G1 F1980 X28.288 Y13.934 E64.06996
G0 F4320 X27.793 Y13.934
G1 F1980 X20.538 Y6.679 E64.52681
G0 F4320 X20.043 Y6.679
G1 F1980 X27.298 Y13.934 E64.98366
G0 F4320 X26.803 Y13.934
