;FLAVOR:Marlin
;TIME:1386
;Filament used: 1.56408m
;Layer height: 0.30625
;MINX:3.088
;MINY:6.301
;MINZ:0.306
;MAXX:65.873
;MAXY:17.631
;MAXZ:29.988
;Generated with Cura_SteamEngine 4.2.1
M140 S65
M105
M190 S65
M104 S205
M105
M109 S205
M82 ;absolute extrusion mode
G21;(metric values)
G90;(absolute positioning)
M82;(set extruder to absolute mode)
M107;(start with the fan off)
G28;(Home the printer)
G92 E0;(Reset the extruder to 0)
G0 Z5 E5 F500;(Move up and prime the nozzle)
G0 X-1 Z0;(Move outside the printable area)
G1 Y60 E8 F500;(Draw a priming/wiping line to the rear)
G1 X-1;(Move a little closer to the print area)
G1 Y10 E16 F500;(draw more priming/wiping)
G1 E15 F250;(Small retract)
G92 E0;(Zero the extruder)
M141 S28
G92 E0
G92 E0
G1 F2400 E-2.5
;LAYER_COUNT:98
;LAYER:0
M107
;MESH:Gripper-V-4-2.stl
G0 F4320 X4.628 Y16.091 Z0.306
;TYPE:WALL-INNER
G1 F2400 E0
G1 F1980 X4.628 Y7.841 E0.36735
G1 X65.198 Y7.841 E3.06435
G1 X65.198 Y16.091 E3.4317
G1 X5.225 Y16.091 E6.10211
G0 F1782 X4.628 Y16.091
G1 F2400 E3.60211
G0 F4320 X29.132 Y15.906
G0 X28.964 Y14.484
G0 X29.453 Y13.663
G0 X30.141 Y13.054
G0 X30.466 Y12.196
G0 X30.356 Y11.287
G0 X29.132 Y9.652
G1 F2400 E6.1287
G1 F1980 X28.563 Y9.586 E6.1542
G1 X27.994 Y9.652 E6.17971
G1 X27.456 Y9.858 E6.20536
G1 X26.984 Y10.183 E6.23088
G1 X26.603 Y10.614 E6.25649
G1 X26.337 Y11.121 E6.28199
G1 X26.199 Y11.678 E6.30754
G1 X26.199 Y12.254 E6.33318
G1 X26.337 Y12.811 E6.35874
G1 X26.603 Y13.318 E6.38423
G1 X26.984 Y13.749 E6.40984
G1 X27.456 Y14.074 E6.43536
G1 X27.994 Y14.278 E6.46098
G1 X28.563 Y14.346 E6.4865
G1 X29.132 Y14.278 E6.51201
G1 X29.669 Y14.074 E6.53759
G1 X30.142 Y13.749 E6.56315
G1 X30.524 Y13.318 E6.58879
G1 X30.79 Y12.81 E6.61432
G1 X30.927 Y12.252 E6.63991
G1 X30.927 Y11.68 E6.66538
G1 X30.79 Y11.122 E6.69096
G1 X30.531 Y10.627 E6.71584
G1 X30.145 Y10.185 E6.74196
G1 X29.687 Y9.869 E6.76674
G0 F1782 X29.67 Y9.858
G0 X29.132 Y9.652
G1 F2400 E4.26674
G0 F4320 X30.256 Y10.06
G0 X29.112 Y11.342
G0 X40.621 Y11.342
G0 X39.573 Y10.057
G0 X41.832 Y9.652
G1 F2400 E6.79332
G1 F1980 X41.263 Y9.586 E6.81883
G1 X40.694 Y9.652 E6.84434
G1 X40.156 Y9.858 E6.86999
G1 X39.684 Y10.183 E6.8955
G1 X39.303 Y10.614 E6.92112
G1 X39.037 Y11.121 E6.94661
G1 X38.899 Y11.678 E6.97216
G1 X38.899 Y12.254 E6.99781
G1 X39.037 Y12.811 E7.02336
G1 X39.303 Y13.318 E7.04886
G1 X39.684 Y13.749 E7.07447
G1 X40.156 Y14.074 E7.09999
G1 X40.694 Y14.278 E7.12561
G1 X41.263 Y14.346 E7.15112
G1 X41.832 Y14.278 E7.17664
G1 X42.369 Y14.074 E7.20222
G1 X42.842 Y13.749 E7.22777
G1 X43.224 Y13.318 E7.25342
G1 X43.49 Y12.81 E7.27895
G1 X43.627 Y12.252 E7.30453
G1 X43.627 Y11.68 E7.33
G1 X43.49 Y11.122 E7.35559
G1 X43.231 Y10.627 E7.38046
G1 X42.845 Y10.185 E7.40659
G1 X42.387 Y9.869 E7.43137
G0 F1782 X42.37 Y9.858
G0 X41.832 Y9.652
G0 F4320 X42.61 Y10.448
G1 F2400 E7.45795
G1 F1980 X42.206 Y10.17 E7.47979
G1 X41.748 Y9.995 E7.50162
G1 X41.263 Y9.938 E7.52336
G1 X40.778 Y9.995 E7.54511
G1 X40.32 Y10.17 E7.56694
G1 X39.918 Y10.447 E7.58868
G1 X39.593 Y10.814 E7.6105
G1 X39.367 Y11.246 E7.63221
G1 X39.249 Y11.721 E7.65401
G1 X39.249 Y12.211 E7.67582
G1 X39.367 Y12.686 E7.69762
G1 X39.593 Y13.118 E7.71933
G1 X39.918 Y13.485 E7.74115
G1 X40.32 Y13.762 E7.76289
G1 X40.778 Y13.936 E7.78471
G1 X41.263 Y13.994 E7.80646
G1 X41.748 Y13.936 E7.82821
G1 X42.205 Y13.762 E7.84998
G1 X42.609 Y13.485 E7.87179
G1 X42.934 Y13.118 E7.89362
G1 X43.16 Y12.685 E7.91537
G1 X43.277 Y12.21 E7.93715
G1 X43.277 Y11.722 E7.95888
G1 X43.16 Y11.247 E7.98066
G1 X42.984 Y10.911 E7.99755
G0 F1782 X42.94 Y10.826
G0 X42.61 Y10.448
G1 F2400 E5.49755
G0 F4320 X41.721 Y10.104
G0 X39.166 Y10.519
G0 X40.579 Y11.493
G0 X29.335 Y11.501
G0 X30.669 Y10.533
G0 X29.91 Y10.448
G1 F2400 E8.02413
G1 F1980 X29.506 Y10.17 E8.04597
G1 X29.048 Y9.995 E8.0678
G1 X28.563 Y9.938 E8.08955
G1 X28.078 Y9.995 E8.11129
G1 X27.62 Y10.17 E8.13312
G1 X27.218 Y10.447 E8.15486
G1 X26.893 Y10.814 E8.17669
G1 X26.667 Y11.246 E8.1984
G1 X26.549 Y11.721 E8.22019
G1 X26.549 Y12.211 E8.24201
G1 X26.667 Y12.686 E8.2638
G1 X26.893 Y13.118 E8.28551
G1 X27.218 Y13.485 E8.30734
G1 X27.62 Y13.762 E8.32908
G1 X28.078 Y13.936 E8.35089
G1 X28.563 Y13.994 E8.37264
G1 X29.048 Y13.936 E8.39439
G1 X29.505 Y13.762 E8.41616
G1 X29.909 Y13.485 E8.43797
G1 X30.234 Y13.118 E8.4598
G1 X30.46 Y12.685 E8.48155
G1 X30.577 Y12.21 E8.50333
G1 X30.577 Y11.722 E8.52506
G1 X30.46 Y11.247 E8.54685
G1 X30.284 Y10.911 E8.56373
G0 F1782 X30.24 Y10.826
G0 X29.91 Y10.448
G1 F2400 E6.06373
G0 F4320 X29.021 Y10.104
G0 X28.105 Y10.104
G0 X27.292 Y10.531
G0 X26.033 Y12.275
G0 X27.738 Y12.066
G0 X26.056 Y17.551
G0 X26.033 Y15.906
G0 X4.278 Y16.441
G1 F2400 E8.59032
G1 F1980 X4.278 Y7.491 E8.98883
G1 X65.548 Y7.491 E11.717
G1 X65.548 Y16.441 E12.11552
G1 X4.875 Y16.441 E14.81711
G0 F1782 X4.278 Y16.441
G0 F4320 X3.953 Y16.766
;TYPE:WALL-OUTER
G1 F2400 E14.84369
G1 F1980 X3.953 Y7.166 E15.27115
G1 X65.873 Y7.166 E18.02826
G1 X65.873 Y16.766 E18.45572
G1 X4.55 Y16.766 E21.18625
G0 F1782 X3.953 Y16.766
G0 F4320 X3.953 Y16.566
G1 F2400 E18.68625
G0 F4320 X4.228 Y16.491
G0 X29.849 Y15.906
G0 X29.277 Y14.4
G0 X30.356 Y12.645
G0 X30.466 Y11.736
G0 X29.849 Y10.468
G0 X29.692 Y10.693
G1 F2400 E21.21283
G1 F1980 X29.354 Y10.46 E21.23111
G1 X28.97 Y10.313 E21.24942
G1 X28.563 Y10.265 E21.26767
G1 X28.156 Y10.313 E21.28592
G1 X27.772 Y10.46 E21.30423
G1 X27.435 Y10.692 E21.32244
G1 X27.163 Y11 E21.34074
G1 X26.973 Y11.362 E21.35894
G1 X26.874 Y11.761 E21.37725
G1 X26.874 Y12.171 E21.3955
G1 X26.973 Y12.57 E21.41381
G1 X27.163 Y12.932 E21.43201
G1 X27.435 Y13.24 E21.45031
G1 X27.772 Y13.472 E21.46853
G1 X28.156 Y13.618 E21.48682
G1 X28.563 Y13.667 E21.50507
G1 X28.97 Y13.618 E21.52333
G1 X29.353 Y13.472 E21.54158
G1 X29.692 Y13.24 E21.55987
G1 X29.964 Y12.932 E21.57817
G1 X30.154 Y12.569 E21.59641
G1 X30.252 Y12.171 E21.61466
G1 X30.252 Y11.761 E21.63292
G1 X30.154 Y11.363 E21.65117
G1 X30.051 Y11.166 E21.66107
G0 F1782 X29.97 Y11.011
G0 X29.692 Y10.693
G0 F4320 X29.528 Y10.58
G1 F2400 E19.16107
G0 F4320 X29.683 Y10.354
G0 X30.669 Y10.533
G0 X29.251 Y11.502
G0 X40.495 Y11.492
G0 X39.166 Y10.519
G0 X40.805 Y10.104
G0 X41.633 Y10.093
G0 X42.549 Y10.468
G0 X42.392 Y10.693
G1 F2400 E21.68765
G1 F1980 X42.054 Y10.46 E21.70593
G1 X41.67 Y10.313 E21.72424
G1 X41.263 Y10.265 E21.74248
G1 X40.856 Y10.313 E21.76073
G1 X40.472 Y10.46 E21.77904
G1 X40.135 Y10.692 E21.79726
G1 X39.863 Y11 E21.81556
G1 X39.673 Y11.362 E21.83376
G1 X39.574 Y11.761 E21.85206
G1 X39.574 Y12.171 E21.87032
G1 X39.673 Y12.57 E21.88863
G1 X39.863 Y12.932 E21.90683
G1 X40.135 Y13.24 E21.92513
G1 X40.472 Y13.472 E21.94334
G1 X40.856 Y13.618 E21.96164
G1 X41.263 Y13.667 E21.97989
G1 X41.67 Y13.618 E21.99814
G1 X42.053 Y13.472 E22.01639
G1 X42.392 Y13.24 E22.03469
G1 X42.664 Y12.932 E22.05298
G1 X42.854 Y12.569 E22.07123
G1 X42.952 Y12.171 E22.08948
G1 X42.952 Y11.761 E22.10773
G1 X42.854 Y11.363 E22.12598
G1 X42.751 Y11.166 E22.13588
G0 F1782 X42.67 Y11.011
G0 X42.392 Y10.693
G0 F4320 X42.228 Y10.58
G0 X42.383 Y10.354
G0 X43.073 Y9.929
;TYPE:SKIN
G1 F2400 E22.16246
G1 F1980 X42.529 Y9.555 E22.19186
G1 X41.914 Y9.319 E22.22119
G1 X41.263 Y9.244 E22.25037
G1 X40.612 Y9.319 E22.27955
G1 X39.997 Y9.555 E22.30888
G1 X39.457 Y9.927 E22.33808
G1 X39.021 Y10.42 E22.36738
G1 X38.717 Y10.999 E22.3965
G1 X38.559 Y11.637 E22.42577
G1 X38.559 Y12.295 E22.45507
G1 X38.717 Y12.933 E22.48433
G1 X39.021 Y13.512 E22.51345
G1 X39.457 Y14.005 E22.54276
G1 X39.997 Y14.377 E22.57195
G1 X40.612 Y14.61 E22.60124
G1 X41.263 Y14.688 E22.63043
G1 X41.914 Y14.61 E22.65963
G1 X42.528 Y14.377 E22.68887
G1 X43.069 Y14.006 E22.71808
G1 X43.506 Y13.512 E22.74745
G1 X43.81 Y12.931 E22.77664
G1 X43.967 Y12.293 E22.8059
G1 X43.967 Y11.639 E22.83502
G1 X43.81 Y11.001 E22.86427
G1 X43.513 Y10.434 E22.89278
G1 X43.465 Y10.379 E22.89603
G0 F1782 X43.073 Y9.929
G1 F2400 E20.39603
G0 F4320 X42.901 Y10.12
G0 X41.263 Y10.049
G0 X40.372 Y10.269
G0 X38.733 Y11.657
G0 X40.438 Y11.866
G0 X29.466 Y11.864
G0 X31.093 Y11.66
G0 X31.267 Y11.639
G1 F2400 E22.92261
G1 F1980 X31.11 Y11.001 E22.95186
G1 X30.813 Y10.434 E22.98036
G1 X30.373 Y9.929 E23.01019
G1 X29.829 Y9.555 E23.03958
G1 X29.214 Y9.319 E23.06891
G1 X28.563 Y9.244 E23.09809
G1 X27.912 Y9.319 E23.12727
G1 X27.297 Y9.555 E23.1566
G1 X26.757 Y9.927 E23.1858
G1 X26.321 Y10.42 E23.21511
G1 X26.017 Y10.999 E23.24423
G1 X25.859 Y11.637 E23.27349
G1 X25.859 Y12.295 E23.30279
G1 X26.017 Y12.933 E23.33206
G1 X26.321 Y13.512 E23.36118
G1 X26.757 Y14.005 E23.39048
G1 X27.297 Y14.377 E23.41968
G1 X27.912 Y14.61 E23.44896
G1 X28.563 Y14.688 E23.47816
G1 X29.214 Y14.61 E23.50735
G1 X29.828 Y14.377 E23.53659
G1 X30.369 Y14.006 E23.5658
G1 X30.806 Y13.512 E23.59517
G1 X31.11 Y12.931 E23.62437
G1 X31.267 Y12.293 E23.65362
G1 X31.267 Y12.236 E23.65616
G0 F1782 X31.267 Y11.639
G1 F2400 E21.15616
G0 F4320 X31.012 Y11.67
G0 X29.388 Y11.865
G0 X31.068 Y6.379
G0 X31.093 Y8.026
G0 X64.858 Y7.926
G0 X64.858 Y8.181
G1 F2400 E23.68274
G1 F1980 X64.858 Y15.751 E24.01981
G1 X4.968 Y15.751 E26.68653
G1 X4.968 Y8.181 E27.0236
G1 X64.261 Y8.181 E29.66374
G0 F1782 X64.858 Y8.181
G0 F4320 X64.7 Y8.768
G1 F2400 E29.69033
G1 F1980 X64.27 Y8.338 E29.7174
G0 F4320 X63.775 Y8.338
G1 F1980 X64.7 Y9.263 E29.77565
G0 F4320 X64.7 Y9.758
G1 F1980 X63.28 Y8.338 E29.86507
G0 F4320 X62.785 Y8.338
G1 F1980 X64.7 Y10.253 E29.98566
G0 F4320 X64.7 Y10.748
G1 F1980 X62.29 Y8.338 E30.13742
G0 F4320 X61.795 Y8.338
G1 F1980 X64.7 Y11.242 E30.32032
G0 F4320 X64.7 Y11.737
G1 F1980 X61.3 Y8.338 E30.53439
G0 F4320 X60.805 Y8.338
G1 F1980 X64.7 Y12.232 E30.77963
G0 F4320 X64.7 Y12.727
G1 F1980 X60.31 Y8.338 E31.05604
G0 F4320 X59.815 Y8.338
G1 F1980 X64.7 Y13.222 E31.36362
G0 F4320 X64.7 Y13.717
G1 F1980 X59.32 Y8.338 E31.70237
G0 F4320 X58.825 Y8.338
G1 F1980 X64.7 Y14.212 E32.07229
G0 F4320 X64.7 Y14.707
G1 F1980 X58.33 Y8.338 E32.47338
G0 F4320 X57.835 Y8.338
G1 F1980 X64.7 Y15.202 E32.90564
G0 F4320 X64.596 Y15.593
G1 F1980 X57.34 Y8.338 E33.36253
G0 F4320 X56.845 Y8.338
G1 F1980 X64.101 Y15.593 E33.81941
G0 F4320 X63.606 Y15.593
G1 F1980 X56.35 Y8.338 E34.27629
G0 F4320 X55.855 Y8.338
G1 F1980 X63.111 Y15.593 E34.73318
G0 F4320 X62.616 Y15.593
G1 F1980 X55.36 Y8.338 E35.19006
G0 F4320 X54.865 Y8.338
G1 F1980 X62.121 Y15.593 E35.64695
G0 F4320 X61.626 Y15.593
G1 F1980 X54.37 Y8.338 E36.10383
G0 F4320 X53.875 Y8.338
G1 F1980 X61.131 Y15.593 E36.56071
G0 F4320 X60.636 Y15.593
G1 F1980 X53.38 Y8.338 E37.0176
G0 F4320 X52.885 Y8.338
G1 F1980 X60.141 Y15.593 E37.47448
G0 F4320 X59.646 Y15.593
G1 F1980 X52.39 Y8.338 E37.93136
G0 F4320 X51.895 Y8.338
G1 F1980 X59.151 Y15.593 E38.38825
G0 F4320 X58.656 Y15.593
G1 F1980 X51.401 Y8.338 E38.8451
G0 F4320 X50.906 Y8.338
G1 F1980 X58.161 Y15.593 E39.30195
G0 F4320 X57.666 Y15.593
G1 F1980 X50.411 Y8.338 E39.75881
G0 F4320 X49.916 Y8.338
G1 F1980 X57.171 Y15.593 E40.21566
G0 F4320 X56.676 Y15.593
G1 F1980 X49.421 Y8.338 E40.67251
G0 F4320 X48.926 Y8.338
G1 F1980 X56.181 Y15.593 E41.12936
G0 F4320 X55.686 Y15.593
G1 F1980 X48.431 Y8.338 E41.58622
G0 F4320 X47.936 Y8.338
G1 F1980 X55.191 Y15.593 E42.04307
G0 F4320 X54.696 Y15.593
G1 F1980 X47.441 Y8.338 E42.49992
G0 F4320 X46.946 Y8.338
G1 F1980 X54.201 Y15.593 E42.95677
G0 F4320 X53.706 Y15.593
G1 F1980 X46.451 Y8.338 E43.41362
G0 F4320 X45.956 Y8.338
G1 F1980 X53.211 Y15.593 E43.87048
G0 F4320 X52.716 Y15.593
G1 F1980 X45.461 Y8.338 E44.32733
G0 F4320 X44.966 Y8.338
G1 F1980 X52.221 Y15.593 E44.78418
G0 F4320 X51.726 Y15.593
G1 F1980 X44.471 Y8.338 E45.24103
G0 F4320 X43.976 Y8.338
G1 F1980 X51.232 Y15.593 E45.69792
G0 F4320 X50.737 Y15.593
G1 F1980 X43.481 Y8.338 E46.1548
G0 F4320 X42.986 Y8.338
G1 F1980 X50.242 Y15.593 E46.61169
G0 F4320 X49.747 Y15.593
G1 F1980 X42.491 Y8.338 E47.06857
G0 F4320 X41.996 Y8.338
G1 F1980 X49.252 Y15.593 E47.52545
G0 F4320 X48.757 Y15.593
G1 F1980 X43.79 Y10.627 E47.8382
G1 X43.728 Y10.565
G0 F4320 X44.07 Y11.402
G1 F1980 X48.262 Y15.593 E48.10214
G0 F4320 X47.767 Y15.593
G1 F1980 X44.123 Y11.95 E48.33157
G0 F4320 X44.097 Y12.418
G1 F1980 X47.272 Y15.593 E48.53151
G0 F4320 X46.777 Y15.593
G1 F1980 X43.999 Y12.815 E48.70644
G0 F4320 X43.86 Y13.171
G1 F1980 X46.282 Y15.593 E48.85895
G0 F4320 X45.787 Y15.593
G1 F1980 X43.69 Y13.497 E48.99097
G0 F4320 X43.478 Y13.78
G1 F1980 X45.292 Y15.593 E49.10517
G0 F4320 X44.797 Y15.593
G1 F1980 X43.245 Y14.042 E49.20287
G0 F4320 X42.971 Y14.263
G1 F1980 X44.302 Y15.593 E49.28665
G0 F4320 X43.807 Y15.593
G1 F1980 X42.678 Y14.464 E49.35774
G0 F4320 X42.336 Y14.618
G1 F1980 X43.312 Y15.593 E49.41917
G0 F4320 X42.817 Y15.593
G1 F1980 X41.977 Y14.753 E49.47207
G0 F4320 X41.541 Y14.813
G1 F1980 X42.322 Y15.593 E49.52122
G0 F4320 X41.827 Y15.593
G1 F1980 X41.055 Y14.821 E49.56983
G0 F4320 X40.458 Y14.719
G1 F1980 X41.332 Y15.593 E49.62487
G0 F4320 X40.837 Y15.593
G1 F1980 X39.404 Y14.16 E49.7151
G0 F4320 X39.221 Y13.977
G1 F1980 X33.581 Y8.337 E50.07026
G0 F4320 X33.086 Y8.337
G1 F1980 X40.342 Y15.593 E50.52717
G0 F4320 X39.847 Y15.593
G1 F1980 X32.591 Y8.337 E50.98409
G0 F4320 X32.096 Y8.337
G1 F1980 X39.352 Y15.593 E51.441
G0 F4320 X38.857 Y15.593
G1 F1980 X31.601 Y8.337 E51.89792
G0 F4320 X31.106 Y8.337
G1 F1980 X38.362 Y15.593 E52.35483
G0 F4320 X37.867 Y15.593
G1 F1980 X30.611 Y8.337 E52.81175
G0 F4320 X30.116 Y8.337
G1 F1980 X37.372 Y15.593 E53.26866
G0 F4320 X36.877 Y15.593
G1 F1980 X29.621 Y8.337 E53.72558
G0 F4320 X29.126 Y8.337
G1 F1980 X36.382 Y15.593 E54.1825
G0 F4320 X35.887 Y15.593
G1 F1980 X31.263 Y10.969 E54.47367
G0 F4320 X31.423 Y11.624
G1 F1980 X35.392 Y15.593 E54.7236
G0 F4320 X34.897 Y15.593
G1 F1980 X31.423 Y12.119 E54.94236
G0 F4320 X31.363 Y12.554
G1 F1980 X34.402 Y15.593 E55.13373
G0 F4320 X33.907 Y15.593
G1 F1980 X31.266 Y12.952 E55.30004
G0 F4320 X31.102 Y13.283
G1 F1980 X33.412 Y15.593 E55.4455
G0 F4320 X32.917 Y15.593
G1 F1980 X30.93 Y13.606 E55.57062
G0 F4320 X30.699 Y13.869
G1 F1980 X32.422 Y15.593 E55.67915
G0 F4320 X31.927 Y15.593
G1 F1980 X30.464 Y14.13 E55.77128
G0 F4320 X30.171 Y14.332
G1 F1980 X31.432 Y15.593 E55.85068
G0 F4320 X30.937 Y15.593
G1 F1980 X29.872 Y14.528 E55.91775
G0 F4320 X29.513 Y14.663
G1 F1980 X30.442 Y15.593 E55.97628
G0 F4320 X29.947 Y15.593
G1 F1980 X29.132 Y14.777 E56.02763
G0 F4320 X28.69 Y14.83
G1 F1980 X29.452 Y15.593 E56.07565
G0 F4320 X28.957 Y15.593
G1 F1980 X28.162 Y14.798 E56.12571
G0 F4320 X27.486 Y14.617
G1 F1980 X28.462 Y15.593 E56.18717
G0 F4320 X27.967 Y15.593
G1 F1980 X20.711 Y8.337 E56.64408
G0 F4320 X21.206 Y8.337
G1 F1980 X25.878 Y13.009 E56.93828
G0 F4320 X25.708 Y12.343
G1 F1980 X21.701 Y8.337 E57.19057
G0 F4320 X22.196 Y8.337
G1 F1980 X25.701 Y11.841 E57.41125
G0 F4320 X25.754 Y11.4
G1 F1980 X22.691 Y8.337 E57.60413
G0 F4320 X23.186 Y8.337
G1 F1980 X25.853 Y11.003 E57.77205
G0 F4320 X26.013 Y10.668
G1 F1980 X23.681 Y8.337 E57.91886
G0 F4320 X24.176 Y8.337
G1 F1980 X26.182 Y10.343 E58.04518
G0 F4320 X26.412 Y10.078
G1 F1980 X24.671 Y8.337 E58.15481
G0 F4320 X25.166 Y8.337
G1 F1980 X26.645 Y9.816 E58.24795
G0 F4320 X26.935 Y9.611
G1 F1980 X25.661 Y8.337 E58.32817
G0 F4320 X26.156 Y8.337
G1 F1980 X27.229 Y9.41 E58.39574
G0 F4320 X27.588 Y9.274
G1 F1980 X26.651 Y8.337 E58.45474
G0 F4320 X27.146 Y8.337
G1 F1980 X27.963 Y9.154 E58.50619
G0 F4320 X28.407 Y9.103
G1 F1980 X27.641 Y8.337 E58.55442
G0 F4320 X28.136 Y8.337
G1 F1980 X28.927 Y9.128 E58.60423
G0 F4320 X29.588 Y9.294
G1 F1980 X28.631 Y8.337 E58.6645
G1 X28.569 Y8.275
G0 F4320 X28.569 Y7.926
G0 X34.076 Y7.926
G0 X34.076 Y8.337
G1 F1980 X38.515 Y12.776 E58.94402
G0 F4320 X38.401 Y12.167
G1 F1980 X34.571 Y8.337 E59.1852
G0 F4320 X35.066 Y8.338
G1 F1980 X38.401 Y11.672 E59.39518
G0 F4320 X38.488 Y11.264
G1 F1980 X35.561 Y8.338 E59.57946
G0 F4320 X36.056 Y8.338
G1 F1980 X38.6 Y10.882 E59.73966
G0 F4320 X38.77 Y10.557
G1 F1980 X36.551 Y8.338 E59.87939
G0 F4320 X37.046 Y8.338
G1 F1980 X38.959 Y10.25 E59.99982
G0 F4320 X39.192 Y9.988
G1 F1980 X37.541 Y8.338 E60.10376
G0 F4320 X38.036 Y8.338
G1 F1980 X39.443 Y9.744 E60.19232
G0 F4320 X39.736 Y9.543
G1 F1980 X38.531 Y8.338 E60.2682
G0 F4320 X39.026 Y8.338
