;FLAVOR:Marlin
;TIME:13435
;Filament used: 20.2659m
;Layer height: 0.30625
;MINX:6.713
;MINY:3.453
;MINZ:0.306
;MAXX:67.178
;MAXY:53.405
;MAXZ:106.794
;Generated with Cura_SteamEngine 4.2.1
M140 S65
M105
M190 S65
M104 S205
M105
M109 S205
M82 ;absolute extrusion mode
G21;(metric values)
G90;(absolute positioning)
M82;(set extruder to absolute mode)
M107;(start with the fan off)
G28;(Home the printer)
G92 E0;(Reset the extruder to 0)
G0 Z5 E5 F500;(Move up and prime the nozzle)
G0 X-1 Z0;(Move outside the printable area)
G1 Y60 E8 F500;(Draw a priming/wiping line to the rear)
G1 X-1;(Move a little closer to the print area)
G1 Y10 E16 F500;(draw more priming/wiping)
G1 E15 F250;(Small retract)
G92 E0;(Zero the extruder)
M141 S28
G92 E0
G92 E0
G1 F2400 E-2.5
;LAYER_COUNT:349
;LAYER:0
M107
;MESH:LinearRailV-2.stl
G0 F4320 X29.312 Y19.079 Z0.306
;TYPE:WALL-INNER
G1 F2400 E0
G1 F1980 X29.392 Y18.381 E0.03128
G1 X29.311 Y17.701 E0.06178
G1 X29.064 Y17.05 E0.09278
G1 X28.67 Y16.479 E0.12367
G1 X28.149 Y16.018 E0.15465
G1 X27.534 Y15.696 E0.18556
G1 X26.86 Y15.53 E0.21646
G1 X26.166 Y15.53 E0.24737
G1 X25.492 Y15.696 E0.27827
G1 X24.877 Y16.018 E0.30918
G1 X24.356 Y16.479 E0.34016
G1 X23.962 Y17.05 E0.37105
G1 X23.715 Y17.701 E0.40205
G1 X23.633 Y18.39 E0.43295
G1 X23.715 Y19.079 E0.46385
G1 X23.962 Y19.729 E0.49481
G1 X24.356 Y20.301 E0.52573
G1 X24.877 Y20.762 E0.55671
G1 X25.492 Y21.084 E0.58762
G1 X26.166 Y21.25 E0.61853
G1 X26.86 Y21.25 E0.64943
G1 X27.534 Y21.084 E0.68034
G1 X28.149 Y20.762 E0.71125
G1 X28.67 Y20.301 E0.74223
G1 X29.064 Y19.729 E0.77315
G1 X29.099 Y19.637 E0.77754
G0 F1782 X29.312 Y19.079
G1 F2400 E-1.72246
G0 F4320 X28.244 Y20.899
G0 X27.266 Y19.488
G0 X27.266 Y37.209
G0 X28.244 Y35.881
G0 X29.312 Y39.079
G1 F2400 E0.80412
G1 F1980 X29.392 Y38.381 E0.8354
G1 X29.311 Y37.701 E0.86589
G1 X29.064 Y37.05 E0.8969
G1 X28.67 Y36.479 E0.92779
G1 X28.149 Y36.018 E0.95876
G1 X27.534 Y35.696 E0.98967
G1 X26.86 Y35.53 E1.02058
G1 X26.166 Y35.53 E1.05148
G1 X25.492 Y35.696 E1.08239
G1 X24.877 Y36.018 E1.1133
G1 X24.356 Y36.479 E1.14428
G1 X23.962 Y37.05 E1.17517
G1 X23.715 Y37.701 E1.20617
G1 X23.633 Y38.39 E1.23707
G1 X23.715 Y39.079 E1.26796
G1 X23.962 Y39.729 E1.29893
G1 X24.356 Y40.301 E1.32985
G1 X24.877 Y40.762 E1.36083
G1 X25.492 Y41.084 E1.39174
G1 X26.166 Y41.25 E1.42265
G1 X26.86 Y41.25 E1.45355
G1 X27.534 Y41.084 E1.48446
G1 X28.149 Y40.762 E1.51537
G1 X28.67 Y40.301 E1.54634
G1 X29.064 Y39.729 E1.57727
G1 X29.099 Y39.637 E1.58165
G0 F1782 X29.312 Y39.079
G1 F2400 E-0.91835
G0 F4320 X29.558 Y38.381
G0 X27.843 Y38.381
G0 X45.101 Y38.389
G0 X43.467 Y38.39
G0 X44.704 Y39.993
G0 X45.657 Y40.65
G0 X46.803 Y40.789
G0 X47.786 Y40.432
G0 X49.312 Y39.079
G1 F2400 E1.60824
G1 F1980 X49.392 Y38.381 E1.63952
G1 X49.311 Y37.701 E1.67001
G1 X49.064 Y37.05 E1.70102
G1 X48.67 Y36.479 E1.73191
G1 X48.149 Y36.018 E1.76288
G1 X47.534 Y35.696 E1.79379
G1 X46.86 Y35.53 E1.8247
G1 X46.166 Y35.53 E1.8556
G1 X45.492 Y35.696 E1.88651
G1 X44.877 Y36.018 E1.91742
G1 X44.356 Y36.479 E1.9484
G1 X43.962 Y37.05 E1.97929
G1 X43.715 Y37.701 E2.01029
G1 X43.633 Y38.39 E2.04119
G1 X43.715 Y39.079 E2.07208
G1 X43.962 Y39.729 E2.10304
G1 X44.356 Y40.301 E2.13397
G1 X44.877 Y40.762 E2.16495
G1 X45.492 Y41.084 E2.19586
G1 X46.166 Y41.25 E2.22676
G1 X46.86 Y41.25 E2.25767
G1 X47.534 Y41.084 E2.28857
G1 X48.149 Y40.762 E2.31949
G1 X48.67 Y40.301 E2.35046
G1 X49.064 Y39.729 E2.38139
G1 X49.099 Y39.637 E2.38577
G0 F1782 X49.312 Y39.079
G1 F2400 E-0.11423
G0 F4320 X48.795 Y36.368
G0 X47.51 Y37.509
G0 X47.511 Y19.361
G0 X48.796 Y20.412
G0 X49.312 Y19.079
G1 F2400 E2.41235
G1 F1980 X49.392 Y18.381 E2.44364
G1 X49.311 Y17.701 E2.47413
G1 X49.064 Y17.05 E2.50513
G1 X48.67 Y16.479 E2.53602
G1 X48.149 Y16.018 E2.567
G1 X47.534 Y15.696 E2.59791
G1 X46.86 Y15.53 E2.62882
G1 X46.166 Y15.53 E2.65972
G1 X45.492 Y15.696 E2.69063
G1 X44.877 Y16.018 E2.72154
G1 X44.356 Y16.479 E2.75251
G1 X43.962 Y17.05 E2.7834
G1 X43.715 Y17.701 E2.81441
G1 X43.633 Y18.39 E2.8453
G1 X43.715 Y19.079 E2.8762
G1 X43.962 Y19.729 E2.90716
G1 X44.356 Y20.301 E2.93809
G1 X44.877 Y20.762 E2.96906
G1 X45.492 Y21.084 E2.99997
G1 X46.166 Y21.25 E3.03088
G1 X46.86 Y21.25 E3.06178
G1 X47.534 Y21.084 E3.09269
G1 X48.149 Y20.762 E3.1236
G1 X48.67 Y20.301 E3.15458
G1 X49.064 Y19.729 E3.18551
G1 X49.099 Y19.637 E3.18989
G0 F1782 X49.312 Y19.079
G1 F2400 E0.68989
G0 F4320 X47.885 Y20.379
G0 X45.433 Y21.24
G0 X46.039 Y19.634
G0 X45.722 Y37.233
G0 X45.514 Y39.27
G0 X45.433 Y53.323
G0 X45.433 Y51.68
G0 X7.388 Y51.865
G1 F2400 E3.21647
G1 F1980 X7.388 Y4.915 E5.30701
G1 X65.638 Y4.915 E7.90071
G1 X65.638 Y51.865 E9.99126
G1 X7.985 Y51.865 E12.55837
G0 F1782 X7.388 Y51.865
G0 F4320 X7.038 Y52.215
G1 F2400 E12.58495
G1 F1980 X7.038 Y4.565 E14.70667
G1 X65.988 Y4.565 E17.33153
G1 X65.988 Y52.215 E19.45324
G1 X7.635 Y52.215 E22.05153
G0 F1782 X7.038 Y52.215
G1 F2400 E19.55153
G0 F4320 X28.969 Y51.68
G0 X28.969 Y53.405
G0 X27.274 Y39.568
G0 X28.244 Y40.899
G0 X28.969 Y38.995
G1 F2400 E22.07811
G1 F1980 X29.04 Y38.382 E22.10559
G1 X28.969 Y37.785 E22.13236
G1 X28.752 Y37.214 E22.15956
G1 X28.406 Y36.713 E22.18667
G1 X27.949 Y36.308 E22.21386
G1 X27.409 Y36.026 E22.24098
G1 X26.817 Y35.88 E22.26813
G1 X26.209 Y35.88 E22.29521
G1 X25.617 Y36.026 E22.32236
G1 X25.077 Y36.308 E22.34948
G1 X24.62 Y36.713 E22.37667
G1 X24.274 Y37.214 E22.40378
G1 X24.057 Y37.785 E22.43098
G1 X23.985 Y38.39 E22.45811
G1 X24.057 Y38.995 E22.48524
G1 X24.274 Y39.565 E22.5124
G1 X24.62 Y40.067 E22.53954
G1 X25.077 Y40.472 E22.56673
G1 X25.617 Y40.754 E22.59386
G1 X26.209 Y40.9 E22.62101
G1 X26.817 Y40.9 E22.64808
G1 X27.409 Y40.754 E22.67523
G1 X27.949 Y40.472 E22.70236
G1 X28.406 Y40.067 E22.72955
G1 X28.752 Y39.565 E22.7567
G1 X28.757 Y39.553 E22.75727
G0 F1782 X28.969 Y38.995
G1 F2400 E20.25727
G0 F4320 X29.558 Y38.381
G0 X27.843 Y38.381
G0 X45.101 Y38.389
G0 X43.467 Y38.39
G0 X44.704 Y39.993
G0 X45.657 Y40.65
G0 X46.803 Y40.789
G0 X47.885 Y40.379
G0 X48.969 Y38.995
G1 F2400 E22.78386
G1 F1980 X49.04 Y38.382 E22.81133
G1 X48.969 Y37.785 E22.8381
G1 X48.752 Y37.214 E22.8653
G1 X48.406 Y36.713 E22.89241
G1 X47.949 Y36.308 E22.9196
G1 X47.409 Y36.026 E22.94673
G1 X46.817 Y35.88 E22.97388
G1 X46.209 Y35.88 E23.00095
G1 X45.617 Y36.026 E23.0281
G1 X45.077 Y36.308 E23.05523
G1 X44.62 Y36.713 E23.08242
G1 X44.274 Y37.214 E23.10953
G1 X44.057 Y37.785 E23.13673
G1 X43.985 Y38.39 E23.16386
G1 X44.057 Y38.995 E23.19099
G1 X44.274 Y39.565 E23.21814
G1 X44.62 Y40.067 E23.24529
G1 X45.077 Y40.472 E23.27248
G1 X45.617 Y40.754 E23.29961
G1 X46.209 Y40.9 E23.32676
G1 X46.817 Y40.9 E23.35383
G1 X47.409 Y40.754 E23.38098
G1 X47.949 Y40.472 E23.4081
G1 X48.406 Y40.067 E23.43529
G1 X48.752 Y39.565 E23.46244
G1 X48.757 Y39.553 E23.46302
G0 F1782 X48.969 Y38.995
G1 F2400 E20.96302
G0 F4320 X48.871 Y37.931
G0 X48.244 Y35.881
G0 X47.266 Y37.292
G0 X47.266 Y19.572
G0 X48.244 Y20.899
G0 X48.969 Y18.995
G1 F2400 E23.4896
G1 F1980 X49.04 Y18.382 E23.51708
G1 X48.969 Y17.785 E23.54385
G1 X48.752 Y17.214 E23.57105
G1 X48.406 Y16.713 E23.59816
G1 X47.949 Y16.308 E23.62535
G1 X47.409 Y16.026 E23.65248
G1 X46.817 Y15.88 E23.67963
G1 X46.209 Y15.88 E23.7067
G1 X45.617 Y16.026 E23.73385
G1 X45.077 Y16.308 E23.76097
G1 X44.62 Y16.713 E23.78816
G1 X44.274 Y17.214 E23.81527
G1 X44.057 Y17.785 E23.84247
G1 X43.985 Y18.39 E23.8696
G1 X44.057 Y18.995 E23.89673
G1 X44.274 Y19.565 E23.92389
G1 X44.62 Y20.067 E23.95104
G1 X45.077 Y20.472 E23.97823
G1 X45.617 Y20.754 E24.00535
G1 X46.209 Y20.9 E24.0325
G1 X46.817 Y20.9 E24.05957
G1 X47.409 Y20.754 E24.08672
G1 X47.949 Y20.472 E24.11385
G1 X48.406 Y20.067 E24.14104
G1 X48.752 Y19.565 E24.16819
G1 X48.757 Y19.553 E24.16877
G0 F1782 X48.969 Y18.995
G1 F2400 E21.66877
G0 F4320 X48.322 Y19.993
G0 X47.369 Y20.65
G0 X46.223 Y20.789
G0 X45.141 Y20.379
G0 X43.467 Y18.39
G0 X45.182 Y18.39
G0 X27.922 Y18.38
G0 X29.558 Y18.381
G0 X28.969 Y18.995
G1 F2400 E24.19535
G1 F1980 X29.04 Y18.382 E24.22283
G1 X28.969 Y17.785 E24.2496
G1 X28.752 Y17.214 E24.27679
G1 X28.406 Y16.713 E24.30391
G1 X27.949 Y16.308 E24.3311
G1 X27.409 Y16.026 E24.35822
G1 X26.817 Y15.88 E24.38537
G1 X26.209 Y15.88 E24.41244
G1 X25.617 Y16.026 E24.43959
G1 X25.077 Y16.308 E24.46672
G1 X24.62 Y16.713 E24.49391
G1 X24.274 Y17.214 E24.52102
G1 X24.057 Y17.785 E24.54822
G1 X23.985 Y18.39 E24.57535
G1 X24.057 Y18.995 E24.60248
G1 X24.274 Y19.565 E24.62963
G1 X24.62 Y20.067 E24.65678
G1 X25.077 Y20.472 E24.68397
G1 X25.617 Y20.754 E24.7111
G1 X26.209 Y20.9 E24.73825
G1 X26.817 Y20.9 E24.76532
G1 X27.409 Y20.754 E24.79247
G1 X27.949 Y20.472 E24.8196
G1 X28.406 Y20.067 E24.84678
G1 X28.752 Y19.565 E24.87393
G1 X28.757 Y19.553 E24.87451
G0 F1782 X28.969 Y18.995
G0 F4320 X28.651 Y18.917
;TYPE:WALL-OUTER
G1 F2400 E24.90109
G1 F1980 X28.713 Y18.383 E24.92503
G1 X28.651 Y17.863 E24.94835
G1 X28.462 Y17.366 E24.97203
G1 X28.161 Y16.93 E24.99562
G1 X27.763 Y16.578 E25.01927
G1 X27.293 Y16.332 E25.0429
G1 X26.778 Y16.205 E25.06651
G1 X26.248 Y16.205 E25.09011
G1 X25.733 Y16.332 E25.11373
G1 X25.263 Y16.578 E25.13735
G1 X24.865 Y16.93 E25.16101
G1 X24.564 Y17.366 E25.1846
G1 X24.375 Y17.863 E25.20828
G1 X24.312 Y18.39 E25.23191
G1 X24.375 Y18.917 E25.25554
G1 X24.564 Y19.413 E25.27918
G1 X24.865 Y19.85 E25.3028
G1 X25.263 Y20.202 E25.32646
G1 X25.733 Y20.448 E25.35008
G1 X26.248 Y20.575 E25.3737
G1 X26.778 Y20.575 E25.3973
G1 X27.293 Y20.448 E25.42092
G1 X27.763 Y20.202 E25.44454
G1 X28.161 Y19.85 E25.4682
G1 X28.424 Y19.468 E25.48885
G0 F1782 X28.462 Y19.413
G0 X28.651 Y18.917
G0 F4320 X28.674 Y18.719
G1 F2400 E22.98885
G0 F4320 X28.946 Y18.751
G0 X28.244 Y20.899
G0 X27.266 Y19.488
G0 X27.266 Y37.209
G0 X28.244 Y35.881
G0 X28.86 Y37.812
G0 X28.923 Y38.951
G0 X28.651 Y38.917
G1 F2400 E25.51543
G1 F1980 X28.713 Y38.383 E25.53937
G1 X28.651 Y37.863 E25.56269
G1 X28.462 Y37.366 E25.58636
G1 X28.161 Y36.93 E25.60996
G1 X27.763 Y36.578 E25.63361
G1 X27.293 Y36.332 E25.65723
G1 X26.778 Y36.205 E25.68085
G1 X26.248 Y36.205 E25.70445
G1 X25.733 Y36.332 E25.72807
G1 X25.263 Y36.578 E25.75169
G1 X24.865 Y36.93 E25.77535
G1 X24.564 Y37.366 E25.79894
G1 X24.375 Y37.863 E25.82262
G1 X24.312 Y38.39 E25.84625
G1 X24.375 Y38.917 E25.86988
G1 X24.564 Y39.413 E25.89352
G1 X24.865 Y39.85 E25.91714
G1 X25.263 Y40.202 E25.9408
G1 X25.733 Y40.448 E25.96442
G1 X26.248 Y40.575 E25.98804
G1 X26.778 Y40.575 E26.01164
G1 X27.293 Y40.448 E26.03526
G1 X27.763 Y40.202 E26.05888
G1 X28.161 Y39.85 E26.08254
G1 X28.424 Y39.468 E26.10319
G0 F1782 X28.462 Y39.413
G0 X28.651 Y38.917
G0 F4320 X28.674 Y38.719
G1 F2400 E23.60319
G0 F4320 X28.946 Y38.751
G0 X29.558 Y38.381
G0 X27.843 Y38.381
G0 X45.101 Y38.389
G0 X43.467 Y38.39
G0 X44.704 Y39.993
G0 X45.657 Y40.65
G0 X46.803 Y40.789
G0 X47.885 Y40.379
G0 X48.508 Y39.722
G0 X48.923 Y38.951
G0 X48.651 Y38.917
G1 F2400 E26.12977
G1 F1980 X48.713 Y38.383 E26.15371
G1 X48.651 Y37.863 E26.17703
G1 X48.462 Y37.366 E26.2007
G1 X48.161 Y36.93 E26.22429
G1 X47.763 Y36.578 E26.24795
G1 X47.293 Y36.332 E26.27157
G1 X46.778 Y36.205 E26.29519
G1 X46.248 Y36.205 E26.31879
G1 X45.733 Y36.332 E26.34241
G1 X45.263 Y36.578 E26.36603
G1 X44.865 Y36.93 E26.38969
G1 X44.564 Y37.366 E26.41328
G1 X44.375 Y37.863 E26.43696
G1 X44.312 Y38.39 E26.46059
G1 X44.375 Y38.917 E26.48422
G1 X44.564 Y39.413 E26.50786
G1 X44.865 Y39.85 E26.53148
G1 X45.263 Y40.202 E26.55514
G1 X45.733 Y40.448 E26.57876
G1 X46.248 Y40.575 E26.60238
G1 X46.778 Y40.575 E26.62598
G1 X47.293 Y40.448 E26.6496
G1 X47.763 Y40.202 E26.67322
G1 X48.161 Y39.85 E26.69688
G1 X48.424 Y39.468 E26.71753
G0 F1782 X48.462 Y39.413
G0 X48.651 Y38.917
G0 F4320 X48.674 Y38.719
G1 F2400 E24.21753
G0 F4320 X48.946 Y38.751
G0 X48.877 Y37.991
G0 X48.244 Y35.881
G0 X47.266 Y37.292
G0 X47.266 Y19.572
G0 X48.244 Y20.899
G0 X48.923 Y18.951
G0 X48.651 Y18.917
G1 F2400 E26.74411
G1 F1980 X48.713 Y18.383 E26.76805
G1 X48.651 Y17.863 E26.79137
G1 X48.462 Y17.366 E26.81504
G1 X48.161 Y16.93 E26.83863
G1 X47.763 Y16.578 E26.86229
G1 X47.293 Y16.332 E26.88591
G1 X46.778 Y16.205 E26.90953
G1 X46.248 Y16.205 E26.93313
G1 X45.733 Y16.332 E26.95675
G1 X45.263 Y16.578 E26.98037
G1 X44.865 Y16.93 E27.00403
G1 X44.564 Y17.366 E27.02762
G1 X44.375 Y17.863 E27.0513
G1 X44.312 Y18.39 E27.07493
G1 X44.375 Y18.917 E27.09856
G1 X44.564 Y19.413 E27.1222
G1 X44.865 Y19.85 E27.14582
G1 X45.263 Y20.202 E27.16948
G1 X45.733 Y20.448 E27.1931
G1 X46.248 Y20.575 E27.21672
G1 X46.778 Y20.575 E27.24032
G1 X47.293 Y20.448 E27.26394
G1 X47.763 Y20.202 E27.28756
G1 X48.161 Y19.85 E27.31122
G1 X48.424 Y19.468 E27.33187
G0 F1782 X48.462 Y19.413
G0 X48.651 Y18.917
G0 F4320 X48.674 Y18.719
G1 F2400 E24.83187
G0 F4320 X48.946 Y18.751
G0 X48.653 Y19.513
G0 X47.885 Y20.379
G0 X46.911 Y20.762
G0 X44.782 Y20.899
G0 X45.76 Y19.488
G0 X45.228 Y37.9
G0 X45.22 Y38.708
G0 X44.783 Y53.323
G0 X44.782 Y51.68
G0 X6.988 Y52.295
G0 X6.713 Y52.54
G1 F2400 E27.35845
G1 F1980 X6.713 Y4.24 E29.50911
G1 X66.313 Y4.24 E32.16292
G1 X66.313 Y52.54 E34.31357
G1 X7.31 Y52.54 E36.9408
G0 F1782 X6.713 Y52.54
G0 F4320 X6.713 Y52.34
G0 X6.988 Y52.34
G0 X7.473 Y51.525
G0 X7.728 Y51.525
;TYPE:SKIN
G1 F2400 E36.96738
G1 F1980 X7.728 Y5.255 E39.02764
G1 X65.298 Y5.255 E41.59106
G1 X65.298 Y51.525 E43.65133
G1 X8.325 Y51.525 E46.18817
G0 F1782 X7.728 Y51.525
G1 F2400 E43.68817
G0 F4320 X7.473 Y51.525
G0 X24.292 Y51.68
G0 X24.292 Y53.405
G0 X25.751 Y39.568
G0 X24.782 Y40.899
G0 X24.292 Y40.36
G0 X24.1 Y40.528
G1 F2400 E46.21475
G1 F1980 X24.683 Y41.044 E46.24941
G1 X25.371 Y41.404 E46.28399
G1 X26.125 Y41.59 E46.31857
G1 X26.901 Y41.59 E46.35312
G1 X27.655 Y41.404 E46.3877
G1 X28.343 Y41.044 E46.42228
G1 X28.926 Y40.528 E46.45694
G1 X29.367 Y39.888 E46.49155
G1 X29.645 Y39.16 E46.52625
G1 X29.734 Y38.381 E46.56116
G1 X29.643 Y37.619 E46.59533
G1 X29.367 Y36.891 E46.63
G1 X28.926 Y36.252 E46.66457
G1 X28.343 Y35.736 E46.69924
G1 X27.655 Y35.376 E46.73381
G1 X26.901 Y35.19 E46.76839
G1 X26.125 Y35.19 E46.80295
G1 X25.371 Y35.376 E46.83752
G1 X24.683 Y35.736 E46.8721
G1 X24.1 Y36.252 E46.90677
G1 X23.659 Y36.891 E46.94134
G1 X23.383 Y37.619 E46.976
G1 X23.291 Y38.39 E47.01058
G1 X23.383 Y39.161 E47.04515
G1 X23.659 Y39.888 E47.07978
G1 X23.762 Y40.037 E47.08784
G0 F1782 X24.1 Y40.528
G1 F2400 E44.58784
G0 F4320 X24.292 Y40.36
G0 X26.223 Y40.789
G0 X27.261 Y40.677
G0 X29.212 Y39.807
G0 X27.692 Y39.009
G0 X45.101 Y38.392
G0 X43.467 Y38.39
G0 X43.632 Y39.101
G0 X43.383 Y39.161
G1 F2400 E47.11443
G1 F1980 X43.659 Y39.888 E47.14905
G1 X44.1 Y40.528 E47.18366
G1 X44.683 Y41.044 E47.21833
G1 X45.371 Y41.404 E47.2529
G1 X46.125 Y41.59 E47.28748
G1 X46.901 Y41.59 E47.32203
G1 X47.655 Y41.404 E47.35661
G1 X48.343 Y41.044 E47.39119
G1 X48.926 Y40.528 E47.42585
G1 X49.367 Y39.888 E47.46046
G1 X49.645 Y39.16 E47.49516
G1 X49.734 Y38.381 E47.53007
G1 X49.643 Y37.619 E47.56424
G1 X49.367 Y36.891 E47.59891
G1 X48.926 Y36.252 E47.63348
G1 X48.343 Y35.736 E47.66815
G1 X47.655 Y35.376 E47.70272
G1 X46.901 Y35.19 E47.7373
G1 X46.125 Y35.19 E47.77186
G1 X45.371 Y35.376 E47.80644
G1 X44.683 Y35.736 E47.84101
G1 X44.1 Y36.252 E47.87568
G1 X43.659 Y36.891 E47.91025
G1 X43.383 Y37.619 E47.94492
G1 X43.291 Y38.39 E47.97949
G1 X43.313 Y38.568 E47.98748
G0 F1782 X43.383 Y39.161
G1 F2400 E45.48748
G0 F4320 X43.632 Y39.101
G0 X44.231 Y36.368
G0 X45.516 Y37.509
G0 X46.036 Y19.712
G0 X45.433 Y21.24
G0 X44.292 Y20.36
G0 X44.1 Y20.528
G1 F2400 E48.01406
G1 F1980 X44.683 Y21.044 E48.04872
G1 X45.371 Y21.404 E48.0833
G1 X46.125 Y21.59 E48.11788
G1 X46.901 Y21.59 E48.15243
G1 X47.655 Y21.404 E48.18701
G1 X48.343 Y21.044 E48.22159
G1 X48.926 Y20.528 E48.25625
G1 X49.367 Y19.888 E48.29086
G1 X49.645 Y19.16 E48.32556
G1 X49.734 Y18.381 E48.36047
G1 X49.643 Y17.619 E48.39464
G1 X49.367 Y16.891 E48.42931
G1 X48.926 Y16.252 E48.46388
G1 X48.343 Y15.736 E48.49855
G1 X47.655 Y15.376 E48.53312
G1 X46.901 Y15.19 E48.5677
G1 X46.125 Y15.19 E48.60226
G1 X45.371 Y15.376 E48.63684
G1 X44.683 Y15.736 E48.67141
G1 X44.1 Y16.252 E48.70608
G1 X43.659 Y16.891 E48.74065
G1 X43.383 Y17.619 E48.77531
G1 X43.291 Y18.39 E48.80989
G1 X43.383 Y19.161 E48.84446
