;FLAVOR:Marlin
;TIME:10999
;Filament used: 15.2238m
;Layer height: 0.30625
;MINX:4.238
;MINY:4.365
;MINZ:0.306
;MAXX:106.815
;MAXY:54.535
;MAXZ:38.862
;Generated with Cura_SteamEngine 4.2.1
M140 S65
M105
M190 S65
M104 S205
M105
M109 S205
M82 ;absolute extrusion mode
G21;(metric values)
G90;(absolute positioning)
M82;(set extruder to absolute mode)
M107;(start with the fan off)
G28;(Home the printer)
G92 E0;(Reset the extruder to 0)
G0 Z5 E5 F500;(Move up and prime the nozzle)
G0 X-1 Z0;(Move outside the printable area)
G1 Y60 E8 F500;(Draw a priming/wiping line to the rear)
G1 X-1;(Move a little closer to the print area)
G1 Y10 E16 F500;(draw more priming/wiping)
G1 E15 F250;(Small retract)
G92 E0;(Zero the extruder)
M141 S28
G92 E0
G92 E0
G1 F2400 E-2.5
;LAYER_COUNT:127
;LAYER:0
M107
;MESH:LinearTrayV-1-1.stl
G0 F4320 X11.645 Y12.54 Z0.306
;TYPE:WALL-INNER
G1 F2400 E0
G1 F1980 X11.277 Y13.075 E0.02891
G1 X11.047 Y13.688 E0.05807
G1 X10.973 Y14.32 E0.0864
G1 X11.049 Y14.96 E0.1151
G1 X11.279 Y15.566 E0.14396
G1 X11.645 Y16.097 E0.17267
G1 X12.129 Y16.527 E0.2015
G1 X12.703 Y16.827 E0.23034
G1 X13.331 Y16.981 E0.25913
G1 X13.975 Y16.981 E0.28781
G1 X14.603 Y16.827 E0.3166
G1 X15.176 Y16.527 E0.3454
G1 X15.66 Y16.097 E0.37423
G1 X16.026 Y15.566 E0.40294
G1 X16.256 Y14.962 E0.43172
G1 X16.335 Y14.32 E0.46052
G1 X16.256 Y13.677 E0.48937
G1 X16.026 Y13.072 E0.51819
G1 X15.655 Y12.537 E0.54718
G1 X15.175 Y12.112 E0.57573
G1 X14.595 Y11.809 E0.60486
G1 X13.973 Y11.658 E0.63336
G1 X13.325 Y11.66 E0.66222
G1 X12.702 Y11.811 E0.69076
G1 X12.138 Y12.107 E0.71912
G1 X12.093 Y12.146 E0.72177
G0 F1782 X11.645 Y12.54
G1 F2400 E-1.77823
G0 F4320 X13.381 Y12.121
G0 X14.208 Y12.188
G0 X16.174 Y12.994
G0 X14.654 Y13.795
G0 X43.369 Y13.793
G0 X41.929 Y12.998
G0 X42.445 Y12.54
G1 F2400 E0.74836
G1 F1980 X42.077 Y13.075 E0.77727
G1 X41.847 Y13.688 E0.80642
G1 X41.773 Y14.32 E0.83476
G1 X41.849 Y14.96 E0.86345
G1 X42.079 Y15.566 E0.89231
G1 X42.445 Y16.097 E0.92103
G1 X42.929 Y16.527 E0.94986
G1 X43.503 Y16.827 E0.9787
G1 X44.131 Y16.981 E1.00749
G1 X44.775 Y16.981 E1.03616
G1 X45.403 Y16.827 E1.06496
G1 X45.976 Y16.527 E1.09376
G1 X46.46 Y16.097 E1.12258
G1 X46.826 Y15.566 E1.1513
G1 X47.056 Y14.962 E1.18008
G1 X47.135 Y14.32 E1.20888
G1 X47.056 Y13.677 E1.23773
G1 X46.826 Y13.072 E1.26655
G1 X46.455 Y12.537 E1.29553
G1 X45.975 Y12.112 E1.32408
G1 X45.395 Y11.809 E1.35322
G1 X44.773 Y11.658 E1.38172
G1 X44.125 Y11.66 E1.41057
G1 X43.502 Y11.811 E1.43912
G1 X42.938 Y12.107 E1.46748
G1 X42.893 Y12.146 E1.47013
G0 F1782 X42.445 Y12.54
G1 F2400 E-1.02987
G0 F4320 X42.236 Y14.32
G0 X42.407 Y15.132
G0 X43.444 Y16.983
G0 X44.051 Y15.377
G0 X45.086 Y44.1
G0 X46.061 Y42.77
G0 X46.46 Y43.34
G1 F2400 E1.49671
G1 F1980 X45.967 Y42.908 E1.5259
G1 X45.403 Y42.612 E1.55426
G1 X44.775 Y42.458 E1.58305
G1 X44.131 Y42.458 E1.61173
G1 X43.502 Y42.612 E1.64056
G1 X42.939 Y42.907 E1.66886
G1 X42.445 Y43.34 E1.69811
G1 X42.079 Y43.873 E1.7269
G1 X41.849 Y44.479 E1.75577
G1 X41.773 Y45.12 E1.78451
G1 X41.849 Y45.76 E1.8132
G1 X42.079 Y46.366 E1.84207
G1 X42.445 Y46.897 E1.87078
G1 X42.929 Y47.327 E1.89961
G1 X43.503 Y47.627 E1.92845
G1 X44.131 Y47.781 E1.95724
G1 X44.775 Y47.781 E1.98592
G1 X45.403 Y47.627 E2.01471
G1 X45.976 Y47.326 E2.04353
G1 X46.462 Y46.895 E2.07245
G1 X46.83 Y46.357 E2.10147
G1 X47.057 Y45.753 E2.13021
G1 X47.135 Y45.12 E2.1586
G1 X47.056 Y44.477 E2.18745
G1 X46.826 Y43.873 E2.21623
G1 X46.798 Y43.832 E2.21844
G0 F1782 X46.46 Y43.34
G1 F2400 E-0.28156
G0 F4320 X44.719 Y42.919
G0 X43.893 Y42.99
G0 X41.931 Y43.796
G0 X43.45 Y44.596
G0 X14.737 Y44.596
G0 X16.174 Y43.796
G0 X15.66 Y43.34
G1 F2400 E2.24502
G1 F1980 X15.167 Y42.908 E2.27421
G1 X14.603 Y42.612 E2.30257
G1 X13.975 Y42.458 E2.33136
G1 X13.331 Y42.458 E2.36004
G1 X12.702 Y42.612 E2.38887
G1 X12.139 Y42.907 E2.41717
G1 X11.645 Y43.34 E2.44642
G1 X11.279 Y43.873 E2.47521
G1 X11.049 Y44.479 E2.50408
G1 X10.973 Y45.12 E2.53282
G1 X11.049 Y45.76 E2.56151
G1 X11.279 Y46.366 E2.59038
G1 X11.645 Y46.897 E2.61909
G1 X12.129 Y47.327 E2.64792
G1 X12.703 Y47.627 E2.67676
G1 X13.331 Y47.781 E2.70555
G1 X13.975 Y47.781 E2.73423
G1 X14.603 Y47.627 E2.76302
G1 X15.176 Y47.326 E2.79184
G1 X15.662 Y46.895 E2.82076
G1 X16.03 Y46.357 E2.84978
G1 X16.257 Y45.753 E2.87852
G1 X16.335 Y45.12 E2.90691
G1 X16.256 Y44.477 E2.93576
G1 X16.026 Y43.873 E2.96454
G1 X15.998 Y43.832 E2.96675
G0 F1782 X15.66 Y43.34
G1 F2400 E0.46675
G0 F4320 X13.919 Y42.919
G0 X12.867 Y43.046
G0 X11.993 Y43.649
G0 X11.5 Y44.59
G0 X11.519 Y47.007
G0 X12.806 Y45.869
G0 X4.317 Y46.995
G0 X5.963 Y47.007
G0 X5.778 Y52.995
G1 F2400 E2.99333
G1 F1980 X5.778 Y6.445 E5.06606
G1 X52.328 Y6.445 E7.1388
G1 X52.328 Y52.995 E9.21153
G1 X6.375 Y52.995 E11.25768
G0 F1782 X5.778 Y52.995
G0 F4320 X5.428 Y53.345
G1 F2400 E11.28426
G1 F1980 X5.428 Y6.095 E13.38816
G1 X52.678 Y6.095 E15.49206
G1 X52.678 Y53.345 E17.59596
G1 X6.025 Y53.345 E19.67328
G0 F1782 X5.428 Y53.345
G1 F2400 E17.17328
G0 F4320 X15.396 Y52.81
G0 X15.396 Y54.535
G0 X14.065 Y46.255
G0 X14.662 Y47.783
G0 X15.618 Y46.142
G0 X15.871 Y45.12
G0 X15.396 Y43.574
G1 F2400 E19.69986
G1 F1980 X14.968 Y43.199 E19.7252
G1 X14.478 Y42.942 E19.74984
G1 X13.933 Y42.808 E19.77483
G1 X13.373 Y42.808 E19.79976
G1 X12.827 Y42.942 E19.8248
G1 X12.338 Y43.198 E19.84937
G1 X11.909 Y43.574 E19.87478
G1 X11.591 Y44.037 E19.89979
G1 X11.391 Y44.563 E19.92484
G1 X11.325 Y45.12 E19.94982
G1 X11.391 Y45.676 E19.97475
G1 X11.591 Y46.202 E19.99981
G1 X11.909 Y46.664 E20.02478
G1 X12.329 Y47.037 E20.04979
G1 X12.827 Y47.297 E20.07481
G1 X13.373 Y47.431 E20.09984
G1 X13.933 Y47.431 E20.12477
G1 X14.478 Y47.297 E20.14976
G1 X14.976 Y47.036 E20.1748
G1 X15.397 Y46.662 E20.19987
G1 X15.717 Y46.194 E20.22512
G1 X15.915 Y45.669 E20.2501
G1 X15.982 Y45.12 E20.27473
G1 X15.914 Y44.562 E20.29976
G1 X15.726 Y44.07 E20.32321
G0 F1782 X15.714 Y44.037
G0 X15.396 Y43.574
G1 F2400 E17.82321
G0 F4320 X16.418 Y44.436
G0 X14.751 Y44.85
G0 X43.275 Y44.845
G0 X41.687 Y44.439
G0 X43.201 Y43.291
G0 X44.187 Y42.919
G0 X45.139 Y43.021
G0 X46.196 Y43.574
G1 F2400 E20.34979
G1 F1980 X45.768 Y43.199 E20.37513
G1 X45.278 Y42.942 E20.39977
G1 X44.733 Y42.808 E20.42476
G1 X44.173 Y42.808 E20.44969
G1 X43.627 Y42.942 E20.47473
G1 X43.138 Y43.198 E20.4993
G1 X42.709 Y43.574 E20.5247
G1 X42.391 Y44.037 E20.54971
G1 X42.191 Y44.563 E20.57477
G1 X42.125 Y45.12 E20.59975
G1 X42.191 Y45.676 E20.62468
G1 X42.391 Y46.202 E20.64973
G1 X42.709 Y46.664 E20.67471
G1 X43.129 Y47.037 E20.69972
G1 X43.627 Y47.297 E20.72473
G1 X44.173 Y47.431 E20.74977
G1 X44.733 Y47.431 E20.7747
G1 X45.278 Y47.297 E20.79969
G1 X45.776 Y47.036 E20.82473
G1 X46.197 Y46.662 E20.8498
G1 X46.517 Y46.194 E20.87505
G1 X46.715 Y45.669 E20.90003
G1 X46.782 Y45.12 E20.92466
G1 X46.714 Y44.562 E20.94969
G1 X46.526 Y44.07 E20.97314
G0 F1782 X46.514 Y44.037
G0 X46.196 Y43.574
G1 F2400 E18.47314
G0 F4320 X45.462 Y42.456
G0 X44.854 Y44.062
G0 X44.052 Y15.457
G0 X43.444 Y16.983
G0 X42.49 Y15.35
G0 X42.236 Y14.32
G0 X42.709 Y12.774
G1 F2400 E20.99972
G1 F1980 X42.39 Y13.238 E21.02479
G1 X42.19 Y13.771 E21.05014
G1 X42.125 Y14.32 E21.07476
G1 X42.191 Y14.876 E21.09969
G1 X42.391 Y15.402 E21.12475
G1 X42.709 Y15.864 E21.14972
G1 X43.129 Y16.237 E21.17473
G1 X43.627 Y16.497 E21.19975
G1 X44.173 Y16.631 E21.22478
G1 X44.733 Y16.631 E21.24972
G1 X45.278 Y16.497 E21.27471
G1 X45.776 Y16.237 E21.29972
G1 X46.196 Y15.864 E21.32473
G1 X46.514 Y15.402 E21.34971
G1 X46.714 Y14.877 E21.37472
G1 X46.782 Y14.32 E21.39971
G1 X46.714 Y13.762 E21.42474
G1 X46.514 Y13.236 E21.44979
G1 X46.191 Y12.771 E21.475
G1 X45.775 Y12.402 E21.49976
G1 X45.271 Y12.139 E21.52508
G1 X44.732 Y12.008 E21.54978
G1 X44.167 Y12.01 E21.57493
G1 X43.627 Y12.141 E21.59968
G1 X43.161 Y12.386 E21.62312
G0 F1782 X43.138 Y12.398
G0 X42.709 Y12.774
G1 F2400 E19.12312
G0 F4320 X41.685 Y13.648
G0 X43.354 Y14.052
G0 X14.83 Y14.049
G0 X16.418 Y13.636
G0 X14.911 Y12.495
G0 X13.919 Y12.119
G0 X12.966 Y12.22
G0 X11.909 Y12.774
G1 F2400 E21.6497
G1 F1980 X11.59 Y13.238 E21.67477
G1 X11.39 Y13.771 E21.70012
G1 X11.325 Y14.32 E21.72474
G1 X11.391 Y14.876 E21.74967
G1 X11.591 Y15.402 E21.77473
G1 X11.909 Y15.864 E21.7997
G1 X12.329 Y16.237 E21.82471
G1 X12.827 Y16.497 E21.84973
G1 X13.373 Y16.631 E21.87476
G1 X13.933 Y16.631 E21.89969
G1 X14.478 Y16.497 E21.92468
G1 X14.976 Y16.237 E21.9497
G1 X15.396 Y15.864 E21.97471
G1 X15.714 Y15.402 E21.99968
G1 X15.914 Y14.877 E22.0247
G1 X15.982 Y14.32 E22.04969
G1 X15.914 Y13.762 E22.07471
G1 X15.714 Y13.236 E22.09977
G1 X15.391 Y12.771 E22.12498
G1 X14.975 Y12.402 E22.14974
G1 X14.471 Y12.139 E22.17506
G1 X13.932 Y12.008 E22.19975
G1 X13.367 Y12.01 E22.22491
G1 X12.827 Y12.141 E22.24965
G1 X12.361 Y12.386 E22.2731
G0 F1782 X12.338 Y12.398
G0 X11.909 Y12.774
G0 F4320 X12.154 Y12.992
;TYPE:WALL-OUTER
G1 F2400 E22.29968
G1 F1980 X11.88 Y13.39 E22.32119
G1 X11.708 Y13.848 E22.34298
G1 X11.652 Y14.32 E22.36414
G1 X11.709 Y14.798 E22.38558
G1 X11.881 Y15.25 E22.40711
G1 X12.154 Y15.647 E22.42857
G1 X12.515 Y15.967 E22.45005
G1 X12.943 Y16.191 E22.47156
G1 X13.412 Y16.306 E22.49306
G1 X13.894 Y16.306 E22.51452
G1 X14.362 Y16.191 E22.53598
G1 X14.79 Y15.967 E22.55749
G1 X15.151 Y15.647 E22.57897
G1 X15.424 Y15.25 E22.60042
G1 X15.596 Y14.798 E22.62196
G1 X15.655 Y14.32 E22.6434
G1 X15.596 Y13.841 E22.66489
G1 X15.424 Y13.389 E22.68642
G1 X15.146 Y12.988 E22.70815
G1 X14.789 Y12.672 E22.72938
G1 X14.356 Y12.445 E22.75115
G1 X13.894 Y12.333 E22.77232
G1 X13.406 Y12.335 E22.79405
G1 X12.943 Y12.447 E22.81526
G1 X12.616 Y12.619 E22.83171
G0 F1782 X12.523 Y12.668
G0 X12.154 Y12.992
G0 F4320 X12.041 Y13.156
G1 F2400 E20.33171
G0 F4320 X11.816 Y13
G0 X12.401 Y12.491
G0 X13.381 Y12.121
G0 X14.432 Y12.243
G0 X16.418 Y13.636
G0 X14.751 Y14.05
G0 X43.274 Y14.051
G0 X41.685 Y13.648
G0 X42.729 Y12.835
G0 X42.954 Y12.992
G1 F2400 E22.85829
G1 F1980 X42.68 Y13.39 E22.87981
G1 X42.508 Y13.848 E22.90159
G1 X42.452 Y14.32 E22.92275
G1 X42.509 Y14.798 E22.94419
G1 X42.681 Y15.25 E22.96572
G1 X42.954 Y15.647 E22.98718
G1 X43.315 Y15.967 E23.00866
G1 X43.743 Y16.191 E23.03017
G1 X44.212 Y16.306 E23.05167
G1 X44.694 Y16.306 E23.07313
G1 X45.162 Y16.191 E23.09459
G1 X45.59 Y15.967 E23.1161
G1 X45.951 Y15.647 E23.13758
G1 X46.224 Y15.25 E23.15903
G1 X46.396 Y14.798 E23.18057
G1 X46.455 Y14.32 E23.20201
G1 X46.396 Y13.841 E23.2235
G1 X46.224 Y13.389 E23.24504
G1 X45.946 Y12.988 E23.26676
G1 X45.589 Y12.672 E23.28799
G1 X45.156 Y12.445 E23.30976
G1 X44.694 Y12.333 E23.33093
G1 X44.206 Y12.335 E23.35266
G1 X43.743 Y12.447 E23.37387
G1 X43.416 Y12.619 E23.39032
G0 F1782 X43.323 Y12.668
G0 X42.954 Y12.992
G0 F4320 X42.841 Y13.156
G1 F2400 E20.89032
G0 F4320 X42.616 Y13
G0 X42.299 Y13.797
G0 X42.3 Y14.849
G0 X43.444 Y16.983
G0 X44.051 Y15.377
G0 X44.851 Y43.981
G0 X45.462 Y42.456
G0 X46.133 Y43.587
G0 X45.951 Y43.792
G1 F2400 E23.4169
G1 F1980 X45.583 Y43.469 E23.4387
G1 X45.162 Y43.248 E23.45988
G1 X44.694 Y43.133 E23.48133
G1 X44.212 Y43.133 E23.5028
G1 X43.743 Y43.248 E23.5243
G1 X43.323 Y43.468 E23.54541
G1 X42.954 Y43.792 E23.56728
G1 X42.681 Y44.189 E23.58873
G1 X42.509 Y44.641 E23.61026
G1 X42.452 Y45.12 E23.63174
G1 X42.509 Y45.598 E23.65318
G1 X42.681 Y46.05 E23.67471
G1 X42.954 Y46.447 E23.69616
G1 X43.315 Y46.767 E23.71764
G1 X43.743 Y46.991 E23.73915
G1 X44.212 Y47.106 E23.76066
G1 X44.694 Y47.106 E23.78212
G1 X45.162 Y46.991 E23.80358
G1 X45.59 Y46.767 E23.82509
G1 X45.951 Y46.446 E23.8466
G1 X46.227 Y46.043 E23.86835
G1 X46.397 Y45.591 E23.88985
G1 X46.455 Y45.12 E23.91098
G1 X46.396 Y44.641 E23.93247
G1 X46.265 Y44.297 E23.94886
G0 F1782 X46.224 Y44.189
G0 X45.951 Y43.792
G0 F4320 X45.801 Y43.66
G1 F2400 E21.44886
G0 F4320 X45.982 Y43.455
G0 X45.238 Y43.046
G0 X44.187 Y42.919
G0 X43.404 Y43.184
G0 X41.687 Y44.439
G0 X43.355 Y44.846
G0 X14.83 Y44.849
G0 X16.418 Y44.436
G0 X15.333 Y43.587
G0 X15.151 Y43.792
G1 F2400 E23.97544
G1 F1980 X14.783 Y43.469 E23.99724
G1 X14.362 Y43.248 E24.01842
G1 X13.894 Y43.133 E24.03987
G1 X13.412 Y43.133 E24.06134
G1 X12.943 Y43.248 E24.08284
G1 X12.523 Y43.468 E24.10395
G1 X12.154 Y43.792 E24.12582
G1 X11.881 Y44.189 E24.14727
G1 X11.709 Y44.641 E24.1688
G1 X11.652 Y45.12 E24.19028
G1 X11.709 Y45.598 E24.21172
G1 X11.881 Y46.05 E24.23325
G1 X12.154 Y46.447 E24.2547
G1 X12.515 Y46.767 E24.27618
G1 X12.943 Y46.991 E24.29769
G1 X13.412 Y47.106 E24.3192
G1 X13.894 Y47.106 E24.34066
G1 X14.362 Y46.991 E24.36212
G1 X14.79 Y46.767 E24.38363
G1 X15.151 Y46.446 E24.40514
G1 X15.427 Y46.043 E24.42689
G1 X15.597 Y45.591 E24.44839
G1 X15.655 Y45.12 E24.46952
G1 X15.596 Y44.641 E24.49101
G1 X15.465 Y44.297 E24.5074
G0 F1782 X15.424 Y44.189
G0 X15.151 Y43.792
G0 F4320 X15.001 Y43.66
G1 F2400 E22.0074
G0 F4320 X15.182 Y43.455
G0 X14.438 Y43.046
G0 X13.387 Y42.919
G0 X12.401 Y43.291
G0 X11.69 Y44.089
G0 X11.465 Y44.89
G0 X11.519 Y47.007
G0 X12.806 Y45.869
G0 X4.317 Y46.995
G0 X5.963 Y47.007
G0 X5.378 Y53.425
G0 X5.103 Y53.67
G1 F2400 E24.53398
G1 F1980 X5.103 Y5.77 E26.66682
G1 X53.003 Y5.77 E28.79967
G1 X53.003 Y53.67 E30.93251
G1 X5.7 Y53.67 E33.03877
G0 F1782 X5.103 Y53.67
G0 F4320 X5.103 Y53.47
G0 X5.378 Y53.47
G0 X5.863 Y52.655
G0 X6.118 Y52.655
;TYPE:SKIN
G1 F2400 E33.06536
G1 F1980 X6.118 Y6.785 E35.10781
G1 X51.988 Y6.785 E37.15026
G1 X51.988 Y52.655 E39.19272
G1 X6.715 Y52.655 E41.20859
G0 F1782 X6.118 Y52.655
G1 F2400 E38.70859
G0 F4320 X5.863 Y52.655
G0 X5.963 Y46.955
G0 X4.238 Y46.955
G0 X12.569 Y45.655
G0 X11.131 Y46.444
G0 X11.388 Y47.124
G1 F2400 E41.23517
G1 F1980 X11.935 Y47.609 E41.26772
G1 X12.582 Y47.947 E41.30023
G1 X13.29 Y48.121 E41.33269
G1 X14.016 Y48.121 E41.36502
G1 X14.724 Y47.947 E41.39748
G1 X15.37 Y47.608 E41.42996
G1 X15.919 Y47.122 E41.46261
G1 X16.333 Y46.515 E41.49533
G1 X16.589 Y45.835 E41.52768
G1 X16.677 Y45.12 E41.55976
G1 X16.588 Y44.395 E41.59228
G1 X16.329 Y43.714 E41.62472
G1 X15.916 Y43.113 E41.65719
G1 X15.361 Y42.626 E41.69007
G1 X14.724 Y42.292 E41.7221
G1 X14.016 Y42.118 E41.75456
G1 X13.29 Y42.118 E41.78689
G1 X12.581 Y42.292 E41.81939
G1 X11.945 Y42.625 E41.85136
G1 X11.389 Y43.113 E41.8843
G1 X10.976 Y43.714 E41.91677
G1 X10.717 Y44.397 E41.94929
G1 X10.631 Y45.12 E41.98171
G1 X10.717 Y45.842 E42.01409
G1 X10.976 Y46.525 E42.04662
G1 X11.05 Y46.633 E42.05245
G0 F1782 X11.388 Y47.124
G1 F2400 E39.55245
G0 F4320 X11.581 Y46.955
G0 X11.436 Y45.12
G0 X12.045 Y42.769
G0 X13.016 Y44.184
G0 X13.512 Y15.52
G0 X13.311 Y17.147
G0 X13.29 Y17.321
G1 F2400 E42.07903
G1 F1980 X14.016 Y17.321 E42.11135
G1 X14.724 Y17.147 E42.14382
G1 X15.37 Y16.809 E42.17628
G1 X15.917 Y16.324 E42.20883
G1 X16.329 Y15.725 E42.2412
G1 X16.588 Y15.044 E42.27365
G1 X16.677 Y14.32 E42.30613
G1 X16.588 Y13.595 E42.33865
G1 X16.329 Y12.913 E42.37113
G1 X15.911 Y12.31 E42.4038
G1 X15.369 Y11.83 E42.43604
G1 X14.716 Y11.488 E42.46886
G1 X14.014 Y11.318 E42.50103
G1 X13.284 Y11.32 E42.53353
G1 X12.581 Y11.49 E42.56574
G1 X11.944 Y11.825 E42.59778
G1 X11.389 Y12.313 E42.63069
G1 X10.974 Y12.916 E42.66328
G1 X10.714 Y13.607 E42.69616
G1 X10.631 Y14.32 E42.72812
G1 X10.717 Y15.042 E42.7605
G1 X10.976 Y15.725 E42.79302
G1 X11.388 Y16.324 E42.82539
G1 X11.935 Y16.809 E42.85794
G1 X12.582 Y17.147 E42.89045
G1 X12.711 Y17.179 E42.89636
G0 F1782 X13.29 Y17.321
G1 F2400 E40.39636
G0 F4320 X13.321 Y17.066
G0 X15.271 Y16.664
G0 X14.293 Y15.252
G0 X43.367 Y14.843
G0 X41.931 Y15.644
G0 X42.188 Y16.324
G1 F2400 E42.92295
G1 F1980 X42.735 Y16.809 E42.9555
G1 X43.382 Y17.147 E42.988
G1 X44.09 Y17.321 E43.02047
G1 X44.816 Y17.321 E43.05279
G1 X45.524 Y17.147 E43.08526
G1 X46.17 Y16.809 E43.11772
G1 X46.717 Y16.324 E43.15027
G1 X47.129 Y15.725 E43.18264
G1 X47.388 Y15.044 E43.21508
G1 X47.477 Y14.32 E43.24756
G1 X47.388 Y13.595 E43.28009
G1 X47.129 Y12.913 E43.31257
G1 X46.711 Y12.31 E43.34524
G1 X46.169 Y11.83 E43.37748
G1 X45.516 Y11.488 E43.4103
G1 X44.814 Y11.318 E43.44246
G1 X44.084 Y11.32 E43.47497
G1 X43.381 Y11.49 E43.50717
G1 X42.744 Y11.825 E43.53922
G1 X42.189 Y12.313 E43.57213
G1 X41.774 Y12.916 E43.60472
G1 X41.514 Y13.607 E43.63759
G1 X41.431 Y14.32 E43.66956
