;FLAVOR:Marlin
;TIME:13513
;Filament used: 20.2212m
;Layer height: 0.30625
;MINX:11.613
;MINY:16.4
;MINZ:0.306
;MAXX:61.643
;MAXY:76.865
;MAXZ:106.794
;Generated with Cura_SteamEngine 4.2.1
M140 S65
M105
M190 S65
M104 S205
M105
M109 S205
M82 ;absolute extrusion mode
G21;(metric values)
G90;(absolute positioning)
M82;(set extruder to absolute mode)
M107;(start with the fan off)
G28;(Home the printer)
G92 E0;(Reset the extruder to 0)
G0 Z5 E5 F500;(Move up and prime the nozzle)
G0 X-1 Z0;(Move outside the printable area)
G1 Y60 E8 F500;(Draw a priming/wiping line to the rear)
G1 X-1;(Move a little closer to the print area)
G1 Y10 E16 F500;(draw more priming/wiping)
G1 E15 F250;(Small retract)
G92 E0;(Zero the extruder)
M141 S28
G92 E0
G92 E0
G1 F2400 E-2.5
;LAYER_COUNT:349
;LAYER:0
M107
;MESH:LinearRailV-1.stl
G0 F4320 X25.749 Y39.107 Z0.306
;TYPE:WALL-INNER
G1 F2400 E0
G1 F1980 X26.282 Y39.474 E0.02881
G1 X26.888 Y39.704 E0.05768
G1 X27.528 Y39.78 E0.08637
G1 X28.169 Y39.704 E0.11512
G1 X28.775 Y39.474 E0.14398
G1 X29.307 Y39.107 E0.17276
G1 X29.737 Y38.623 E0.20158
G1 X30.035 Y38.05 E0.23034
G1 X30.19 Y37.424 E0.25906
G1 X30.19 Y36.776 E0.28791
G1 X30.035 Y36.15 E0.31663
G1 X29.736 Y35.578 E0.34537
G1 X29.305 Y35.093 E0.37426
G1 X28.766 Y34.722 E0.40339
G1 X28.16 Y34.494 E0.43222
G1 X27.528 Y34.42 E0.46055
G1 X26.888 Y34.496 E0.48925
G1 X26.281 Y34.726 E0.51816
G1 X25.749 Y35.095 E0.54698
G1 X25.318 Y35.584 E0.57601
G1 X25.021 Y36.149 E0.60443
G1 X24.866 Y36.776 E0.63319
G1 X24.866 Y37.424 E0.66204
G1 X25.021 Y38.05 E0.69076
G1 X25.316 Y38.614 E0.7191
G1 X25.355 Y38.659 E0.72175
G0 F1782 X25.749 Y39.107
G1 F2400 E-1.77825
G0 F4320 X27.005 Y38.103
G0 X27.005 Y54.215
G0 X26.203 Y52.778
G0 X25.455 Y54.513
G0 X25.327 Y55.464
G0 X25.749 Y57.307
G1 F2400 E0.74833
G1 F1980 X26.282 Y57.674 E0.77715
G1 X26.888 Y57.904 E0.80601
G1 X27.528 Y57.98 E0.83471
G1 X28.169 Y57.904 E0.86345
G1 X28.775 Y57.674 E0.89231
G1 X29.307 Y57.307 E0.92109
G1 X29.737 Y56.823 E0.94992
G1 X30.035 Y56.25 E0.97867
G1 X30.19 Y55.624 E1.00739
G1 X30.19 Y54.976 E1.03624
G1 X30.035 Y54.35 E1.06496
G1 X29.736 Y53.778 E1.0937
G1 X29.305 Y53.293 E1.12259
G1 X28.766 Y52.922 E1.15172
G1 X28.16 Y52.694 E1.18055
G1 X27.528 Y52.62 E1.20889
G1 X26.888 Y52.696 E1.23759
G1 X26.281 Y52.926 E1.26649
G1 X25.749 Y53.295 E1.29532
G1 X25.318 Y53.784 E1.32434
G1 X25.021 Y54.349 E1.35276
G1 X24.866 Y54.976 E1.38152
G1 X24.866 Y55.624 E1.41038
G1 X25.021 Y56.25 E1.43909
G1 X25.316 Y56.814 E1.46743
G1 X25.355 Y56.859 E1.47008
G0 F1782 X25.749 Y57.307
G1 F2400 E-1.02992
G0 F4320 X27.528 Y57.517
G0 X28.341 Y57.346
G0 X30.191 Y56.309
G0 X28.585 Y55.703
G0 X44.589 Y55.7
G0 X43.065 Y56.309
G0 X43.949 Y57.307
G1 F2400 E1.49667
G1 F1980 X44.482 Y57.674 E1.52548
G1 X45.088 Y57.904 E1.55434
G1 X45.728 Y57.98 E1.58304
G1 X46.369 Y57.904 E1.61178
G1 X46.975 Y57.674 E1.64064
G1 X47.507 Y57.307 E1.66942
G1 X47.937 Y56.823 E1.69825
G1 X48.235 Y56.25 E1.72701
G1 X48.39 Y55.624 E1.75572
G1 X48.39 Y54.976 E1.78458
G1 X48.235 Y54.35 E1.81329
G1 X47.936 Y53.778 E1.84203
G1 X47.505 Y53.293 E1.87092
G1 X46.966 Y52.922 E1.90006
G1 X46.36 Y52.694 E1.92889
G1 X45.728 Y52.62 E1.95722
G1 X45.088 Y52.696 E1.98592
G1 X44.481 Y52.926 E2.01482
G1 X43.949 Y53.295 E2.04365
G1 X43.518 Y53.784 E2.07267
G1 X43.221 Y54.349 E2.1011
G1 X43.066 Y54.976 E2.12986
G1 X43.066 Y55.624 E2.15871
G1 X43.221 Y56.25 E2.18742
G1 X43.516 Y56.814 E2.21577
G1 X43.555 Y56.859 E2.21842
G0 F1782 X43.949 Y57.307
G1 F2400 E-0.28158
G0 F4320 X43.527 Y55.566
G0 X43.599 Y54.74
G0 X44.403 Y52.778
G0 X45.205 Y54.297
G0 X45.205 Y38.184
G0 X44.404 Y39.622
G0 X43.949 Y39.107
G1 F2400 E2.245
G1 F1980 X44.482 Y39.474 E2.27381
G1 X45.088 Y39.704 E2.30268
G1 X45.728 Y39.78 E2.33137
G1 X46.369 Y39.704 E2.36012
G1 X46.975 Y39.474 E2.38898
G1 X47.507 Y39.107 E2.41775
G1 X47.937 Y38.623 E2.44658
G1 X48.235 Y38.05 E2.47534
G1 X48.39 Y37.424 E2.50406
G1 X48.39 Y36.776 E2.53291
G1 X48.235 Y36.15 E2.56163
G1 X47.936 Y35.578 E2.59036
G1 X47.505 Y35.093 E2.61926
G1 X46.966 Y34.722 E2.64839
G1 X46.36 Y34.494 E2.67722
G1 X45.728 Y34.42 E2.70555
G1 X45.088 Y34.496 E2.73425
G1 X44.481 Y34.726 E2.76316
G1 X43.949 Y35.095 E2.79198
G1 X43.518 Y35.584 E2.82101
G1 X43.221 Y36.149 E2.84943
G1 X43.066 Y36.776 E2.87819
G1 X43.066 Y37.424 E2.90704
G1 X43.221 Y38.05 E2.93576
G1 X43.516 Y38.614 E2.9641
G1 X43.555 Y38.659 E2.96675
G0 F1782 X43.949 Y39.107
G1 F2400 E0.46675
G0 F4320 X44.978 Y37.946
G0 X11.691 Y39.228
G0 X13.338 Y39.232
G0 X13.153 Y75.325
G1 F2400 E2.99333
G1 F1980 X13.153 Y17.075 E5.58703
G1 X60.103 Y17.075 E7.67757
G1 X60.103 Y75.325 E10.27127
G1 X13.75 Y75.325 E12.33523
G0 F1782 X13.153 Y75.325
G0 F4320 X12.803 Y75.675
G1 F2400 E12.36182
G1 F1980 X12.803 Y16.725 E14.98668
G1 X60.453 Y16.725 E17.10839
G1 X60.453 Y75.675 E19.73326
G1 X13.4 Y75.675 E21.82839
G0 F1782 X12.803 Y75.675
G1 F2400 E19.32839
G0 F4320 X13.338 Y57.043
G0 X11.613 Y57.043
G0 X26.39 Y55.707
G0 X24.865 Y56.309
G0 X25.983 Y57.043
G1 F2400 E21.85497
G1 F1980 X26.446 Y57.362 E21.88001
G1 X26.972 Y57.562 E21.90507
G1 X27.528 Y57.628 E21.93
G1 X28.085 Y57.562 E21.95497
G1 X28.611 Y57.362 E21.98003
G1 X29.073 Y57.043 E22.00503
G1 X29.446 Y56.623 E22.03004
G1 X29.705 Y56.125 E22.05503
G1 X29.84 Y55.581 E22.07999
G1 X29.84 Y55.019 E22.10501
G1 X29.705 Y54.475 E22.12997
G1 X29.446 Y53.978 E22.15493
G1 X29.072 Y53.557 E22.18
G1 X28.603 Y53.235 E22.20533
G1 X28.077 Y53.037 E22.23036
G1 X27.528 Y52.972 E22.25497
G1 X26.972 Y53.038 E22.2799
G1 X26.445 Y53.238 E22.305
G1 X25.983 Y53.558 E22.33003
G1 X25.608 Y53.984 E22.3553
G1 X25.351 Y54.474 E22.37994
G1 X25.216 Y55.019 E22.40494
G1 X25.216 Y55.581 E22.42996
G1 X25.351 Y56.125 E22.45492
G1 X25.595 Y56.591 E22.47834
G0 F1782 X25.607 Y56.615
G0 X25.983 Y57.043
G1 F2400 E19.97834
G0 F4320 X26.999 Y57.453
G0 X28.058 Y57.453
G0 X30.191 Y56.309
G0 X28.585 Y55.703
G0 X44.589 Y55.7
G0 X43.065 Y56.309
G0 X44.183 Y57.043
G1 F2400 E22.50492
G1 F1980 X44.646 Y57.362 E22.52996
G1 X45.172 Y57.562 E22.55502
G1 X45.728 Y57.628 E22.57995
G1 X46.285 Y57.562 E22.60492
G1 X46.811 Y57.362 E22.62998
G1 X47.273 Y57.043 E22.65498
G1 X47.646 Y56.623 E22.67999
G1 X47.905 Y56.125 E22.70498
G1 X48.04 Y55.581 E22.72994
G1 X48.04 Y55.019 E22.75496
G1 X47.905 Y54.475 E22.77992
G1 X47.646 Y53.978 E22.80488
G1 X47.272 Y53.557 E22.82995
G1 X46.803 Y53.235 E22.85528
G1 X46.277 Y53.037 E22.88031
G1 X45.728 Y52.972 E22.90492
G1 X45.172 Y53.038 E22.92985
G1 X44.645 Y53.238 E22.95495
G1 X44.183 Y53.558 E22.97998
G1 X43.808 Y53.984 E23.00525
G1 X43.551 Y54.474 E23.02989
G1 X43.416 Y55.019 E23.05489
G1 X43.416 Y55.581 E23.07991
G1 X43.551 Y56.125 E23.10487
G1 X43.795 Y56.591 E23.12829
G0 F1782 X43.807 Y56.615
G0 X44.183 Y57.043
G1 F2400 E20.62829
G0 F4320 X43.655 Y56.085
G0 X43.527 Y55.034
G0 X43.793 Y54.25
G0 X45.048 Y52.534
G0 X45.458 Y54.201
G0 X45.458 Y38.278
G0 X45.048 Y39.866
G0 X44.183 Y38.843
G1 F2400 E23.15487
G1 F1980 X44.646 Y39.162 E23.17991
G1 X45.172 Y39.362 E23.20496
G1 X45.728 Y39.428 E23.2299
G1 X46.285 Y39.362 E23.25487
G1 X46.811 Y39.162 E23.27993
G1 X47.273 Y38.843 E23.30493
G1 X47.646 Y38.423 E23.32994
G1 X47.905 Y37.925 E23.35493
G1 X48.04 Y37.381 E23.37989
G1 X48.04 Y36.819 E23.40491
G1 X47.905 Y36.275 E23.42987
G1 X47.646 Y35.778 E23.45483
G1 X47.272 Y35.357 E23.4799
G1 X46.803 Y35.035 E23.50523
G1 X46.277 Y34.837 E23.53026
G1 X45.728 Y34.772 E23.55487
G1 X45.172 Y34.838 E23.5798
G1 X44.645 Y35.038 E23.6049
G1 X44.183 Y35.358 E23.62993
G1 X43.808 Y35.784 E23.6552
G1 X43.551 Y36.274 E23.67984
G1 X43.416 Y36.819 E23.70484
G1 X43.416 Y37.381 E23.72986
G1 X43.551 Y37.925 E23.75482
G1 X43.795 Y38.391 E23.77824
G0 F1782 X43.807 Y38.415
G0 X44.183 Y38.843
G1 F2400 E21.27824
G0 F4320 X43.065 Y38.109
G0 X44.671 Y37.501
G0 X28.664 Y37.502
G0 X30.191 Y38.109
G0 X28.559 Y39.063
G0 X27.528 Y39.317
G0 X25.983 Y38.843
G1 F2400 E23.80482
G1 F1980 X26.446 Y39.162 E23.82986
G1 X26.972 Y39.362 E23.85491
G1 X27.528 Y39.428 E23.87985
G1 X28.085 Y39.362 E23.90482
G1 X28.611 Y39.162 E23.92988
G1 X29.073 Y38.843 E23.95488
G1 X29.446 Y38.423 E23.97989
G1 X29.705 Y37.925 E24.00488
G1 X29.84 Y37.381 E24.02984
G1 X29.84 Y36.819 E24.05486
G1 X29.705 Y36.275 E24.07982
G1 X29.446 Y35.778 E24.10478
G1 X29.072 Y35.357 E24.12985
G1 X28.603 Y35.035 E24.15518
G1 X28.077 Y34.837 E24.18021
G1 X27.528 Y34.772 E24.20482
G1 X26.972 Y34.838 E24.22975
G1 X26.445 Y35.038 E24.25485
G1 X25.983 Y35.358 E24.27988
G1 X25.608 Y35.784 E24.30515
G1 X25.351 Y36.274 E24.32979
G1 X25.216 Y36.819 E24.35479
G1 X25.216 Y37.381 E24.37981
G1 X25.351 Y37.925 E24.40477
G1 X25.595 Y38.391 E24.42819
G0 F1782 X25.607 Y38.415
G0 X25.983 Y38.843
G0 F4320 X26.999 Y39.253
G0 X28.103 Y39.301
G0 X28.007 Y39.044
;TYPE:WALL-OUTER
G1 F2400 E24.45477
G1 F1980 X28.459 Y38.872 E24.47631
G1 X28.856 Y38.598 E24.49778
G1 X29.176 Y38.237 E24.51927
G1 X29.399 Y37.809 E24.54075
G1 X29.515 Y37.341 E24.56222
G1 X29.515 Y36.859 E24.58369
G1 X29.399 Y36.391 E24.60515
G1 X29.176 Y35.964 E24.6266
G1 X28.855 Y35.602 E24.64815
G1 X28.452 Y35.325 E24.66992
G1 X28 Y35.155 E24.69142
G1 X27.528 Y35.099 E24.71259
G1 X27.05 Y35.156 E24.73402
G1 X26.598 Y35.328 E24.75556
G1 X26.201 Y35.603 E24.77706
G1 X25.878 Y35.97 E24.79883
G1 X25.657 Y36.39 E24.81996
G1 X25.541 Y36.859 E24.84148
G1 X25.541 Y37.341 E24.86294
G1 X25.657 Y37.809 E24.88441
G1 X25.877 Y38.23 E24.90556
G1 X26.201 Y38.598 E24.92739
G1 X26.598 Y38.872 E24.94887
G1 X27.05 Y39.044 E24.9704
G1 X27.414 Y39.088 E24.98673
G0 F1782 X27.528 Y39.101
G0 X28.007 Y39.044
G0 F4320 X28.194 Y38.973
G1 F2400 E22.48673
G0 F4320 X28.289 Y39.23
G0 X27.528 Y39.946
G0 X27.524 Y38.23
G0 X27.524 Y54.09
G0 X27.528 Y52.454
G0 X28.998 Y53.641
G0 X29.601 Y54.515
G0 X29.729 Y55.566
G0 X29.353 Y56.559
G0 X28.101 Y57.502
G0 X28.007 Y57.244
G1 F2400 E25.01331
G1 F1980 X28.459 Y57.072 E25.03485
G1 X28.856 Y56.798 E25.05632
G1 X29.176 Y56.437 E25.0778
G1 X29.399 Y56.009 E25.09929
G1 X29.515 Y55.541 E25.12076
G1 X29.515 Y55.059 E25.14222
G1 X29.399 Y54.591 E25.16369
G1 X29.176 Y54.164 E25.18514
G1 X28.855 Y53.802 E25.20669
G1 X28.452 Y53.525 E25.22846
G1 X28 Y53.355 E25.24996
G1 X27.528 Y53.299 E25.27113
G1 X27.05 Y53.356 E25.29256
G1 X26.598 Y53.528 E25.3141
G1 X26.201 Y53.803 E25.3356
G1 X25.878 Y54.17 E25.35737
G1 X25.657 Y54.59 E25.3785
G1 X25.541 Y55.059 E25.40001
G1 X25.541 Y55.541 E25.42148
G1 X25.657 Y56.009 E25.44295
G1 X25.877 Y56.43 E25.4641
G1 X26.201 Y56.798 E25.48593
G1 X26.598 Y57.072 E25.50741
G1 X27.05 Y57.244 E25.52894
G1 X27.414 Y57.288 E25.54527
G0 F1782 X27.528 Y57.301
G0 X28.007 Y57.244
G0 F4320 X28.194 Y57.173
G1 F2400 E23.04527
G0 F4320 X28.289 Y57.43
G0 X29.875 Y56.918
G0 X28.46 Y55.944
G0 X44.589 Y55.701
G0 X43.065 Y56.309
G0 X44.698 Y57.263
G0 X46.301 Y57.502
G0 X46.207 Y57.244
G1 F2400 E25.57185
G1 F1980 X46.659 Y57.072 E25.59338
G1 X47.056 Y56.798 E25.61486
G1 X47.376 Y56.437 E25.63634
G1 X47.599 Y56.009 E25.65783
G1 X47.715 Y55.541 E25.6793
G1 X47.715 Y55.059 E25.70076
G1 X47.599 Y54.591 E25.72223
G1 X47.376 Y54.164 E25.74368
G1 X47.055 Y53.802 E25.76523
G1 X46.652 Y53.525 E25.787
G1 X46.2 Y53.355 E25.8085
G1 X45.728 Y53.299 E25.82967
G1 X45.25 Y53.356 E25.8511
G1 X44.798 Y53.528 E25.87264
G1 X44.401 Y53.803 E25.89414
G1 X44.078 Y54.17 E25.91591
G1 X43.857 Y54.59 E25.93704
G1 X43.741 Y55.059 E25.95855
G1 X43.741 Y55.541 E25.98002
G1 X43.857 Y56.009 E26.00149
G1 X44.077 Y56.43 E26.02264
G1 X44.401 Y56.798 E26.04447
G1 X44.798 Y57.072 E26.06595
G1 X45.25 Y57.244 E26.08748
G1 X45.614 Y57.288 E26.10381
G0 F1782 X45.728 Y57.301
G0 X46.207 Y57.244
G0 F4320 X46.394 Y57.173
G1 F2400 E23.60381
G0 F4320 X46.489 Y57.43
G0 X47.199 Y56.959
G0 X47.801 Y56.085
G0 X47.929 Y55.034
G0 X47.553 Y54.042
G0 X45.728 Y52.454
G0 X45.724 Y54.17
G0 X45.724 Y38.31
G0 X45.728 Y39.946
G0 X46.301 Y39.302
G0 X46.207 Y39.044
G1 F2400 E26.13039
G1 F1980 X46.659 Y38.872 E26.15192
G1 X47.056 Y38.598 E26.1734
G1 X47.376 Y38.237 E26.19488
G1 X47.599 Y37.809 E26.21637
G1 X47.715 Y37.341 E26.23784
G1 X47.715 Y36.859 E26.2593
G1 X47.599 Y36.391 E26.28077
G1 X47.376 Y35.964 E26.30222
G1 X47.055 Y35.602 E26.32377
G1 X46.652 Y35.325 E26.34554
G1 X46.2 Y35.155 E26.36704
G1 X45.728 Y35.099 E26.38821
G1 X45.25 Y35.156 E26.40964
G1 X44.798 Y35.328 E26.43118
G1 X44.401 Y35.603 E26.45268
G1 X44.078 Y35.97 E26.47445
G1 X43.857 Y36.39 E26.49558
G1 X43.741 Y36.859 E26.51709
G1 X43.741 Y37.341 E26.53855
G1 X43.857 Y37.809 E26.56002
G1 X44.077 Y38.23 E26.58118
G1 X44.401 Y38.598 E26.60301
G1 X44.798 Y38.872 E26.62449
G1 X45.25 Y39.044 E26.64602
G1 X45.614 Y39.088 E26.66235
G0 F1782 X45.728 Y39.101
G0 X46.207 Y39.044
G0 F4320 X46.394 Y38.973
G1 F2400 E24.16235
G0 F4320 X46.489 Y39.23
G0 X45.048 Y39.866
G0 X45.458 Y38.199
G0 X11.692 Y39.862
G0 X13.338 Y39.866
G0 X12.753 Y75.755
G0 X12.478 Y76
G1 F2400 E26.68893
G1 F1980 X12.478 Y16.4 E29.34274
G1 X60.778 Y16.4 E31.49339
G1 X60.778 Y76 E34.1472
G1 X13.075 Y76 E36.27127
G0 F1782 X12.478 Y76
G0 F4320 X12.478 Y75.8
G0 X12.753 Y75.8
G0 X13.238 Y74.985
G0 X13.493 Y74.985
;TYPE:SKIN
G1 F2400 E36.29786
G1 F1980 X13.493 Y17.415 E38.86128
G1 X59.763 Y17.415 E40.92154
G1 X59.763 Y74.985 E43.48496
G1 X14.09 Y74.985 E45.51864
G0 F1782 X13.493 Y74.985
G1 F2400 E43.01864
G0 F4320 X13.238 Y74.985
G0 X13.338 Y57.371
G0 X11.613 Y57.371
G0 X26.39 Y55.709
G0 X24.865 Y56.309
G0 X25.693 Y57.371
G0 X25.522 Y57.563
G1 F2400 E45.54522
G1 F1980 X26.123 Y57.977 E45.57772
G1 X26.806 Y58.236 E45.61025
G1 X27.528 Y58.322 E45.64262
G1 X28.251 Y58.236 E45.67504
G1 X28.934 Y57.977 E45.70757
G1 X29.534 Y57.563 E45.74003
G1 X30.019 Y57.017 E45.77254
G1 X30.355 Y56.371 E45.80497
G1 X30.53 Y55.665 E45.83735
G1 X30.53 Y54.935 E45.86986
G1 X30.355 Y54.229 E45.90225
G1 X30.018 Y53.584 E45.93465
G1 X29.532 Y53.036 E45.96726
G1 X28.925 Y52.619 E46.00005
G1 X28.241 Y52.361 E46.03261
G1 X27.528 Y52.278 E46.06457
G1 X26.806 Y52.364 E46.09694
G1 X26.122 Y52.623 E46.12951
G1 X25.521 Y53.039 E46.16206
G1 X25.036 Y53.59 E46.19474
G1 X24.701 Y54.227 E46.22679
G1 X24.526 Y54.935 E46.25926
G1 X24.526 Y55.665 E46.29177
G1 X24.701 Y56.371 E46.32415
G1 X25.034 Y57.008 E46.35616
G1 X25.128 Y57.115 E46.3625
G0 F1782 X25.522 Y57.563
G1 F2400 E43.8625
G0 F4320 X25.693 Y57.371
G0 X27.528 Y57.517
G0 X28.341 Y57.346
G0 X30.191 Y56.309
G0 X28.585 Y55.703
G0 X44.589 Y55.7
G0 X43.065 Y56.309
G0 X43.234 Y57.008
G1 F2400 E46.38908
G1 F1980 X43.722 Y57.563 E46.42199
G1 X44.323 Y57.977 E46.45449
G1 X45.006 Y58.236 E46.48701
G1 X45.728 Y58.322 E46.51939
G1 X46.451 Y58.236 E46.55181
G1 X47.134 Y57.977 E46.58433
G1 X47.734 Y57.563 E46.61679
G1 X48.219 Y57.017 E46.64931
G1 X48.555 Y56.371 E46.68173
G1 X48.73 Y55.665 E46.71412
G1 X48.73 Y54.935 E46.74662
G1 X48.555 Y54.229 E46.77901
G1 X48.218 Y53.584 E46.81142
G1 X47.732 Y53.036 E46.84403
G1 X47.125 Y52.619 E46.87682
G1 X46.441 Y52.361 E46.90937
G1 X45.728 Y52.278 E46.94133
G1 X45.006 Y52.364 E46.97371
G1 X44.322 Y52.623 E47.00628
G1 X43.721 Y53.039 E47.03882
G1 X43.236 Y53.59 E47.07151
G1 X42.901 Y54.227 E47.10355
G1 X42.726 Y54.935 E47.13603
G1 X42.726 Y55.665 E47.16853
G1 X42.901 Y56.371 E47.20092
G1 X42.958 Y56.479 E47.20636
G0 F1782 X43.234 Y57.008
G1 F2400 E44.70636
G0 F4320 X43.445 Y56.864
G0 X43.527 Y55.034
G0 X44.403 Y52.778
G0 X45.205 Y54.297
G0 X45.205 Y38.184
G0 X44.404 Y39.622
G0 X43.722 Y39.363
G1 F2400 E47.23294
G1 F1980 X44.323 Y39.777 E47.26544
G1 X45.006 Y40.036 E47.29796
G1 X45.728 Y40.122 E47.33034
G1 X46.451 Y40.036 E47.36276
G1 X47.134 Y39.777 E47.39528
G1 X47.734 Y39.363 E47.42774
G1 X48.219 Y38.817 E47.46026
G1 X48.555 Y38.171 E47.49268
G1 X48.73 Y37.465 E47.52507
G1 X48.73 Y36.735 E47.55757
G1 X48.555 Y36.029 E47.58996
G1 X48.218 Y35.384 E47.62237
G1 X47.732 Y34.836 E47.65498
G1 X47.125 Y34.419 E47.68777
G1 X46.441 Y34.161 E47.72032
G1 X45.728 Y34.078 E47.75228
G1 X45.006 Y34.164 E47.78466
G1 X44.322 Y34.423 E47.81723
G1 X43.721 Y34.839 E47.84977
G1 X43.236 Y35.39 E47.88246
G1 X42.901 Y36.027 E47.9145
G1 X42.726 Y36.735 E47.94698
G1 X42.726 Y37.465 E47.97948
G1 X42.901 Y38.171 E48.01187
G1 X43.234 Y38.808 E48.04388
G1 X43.328 Y38.915 E48.05022
G0 F1782 X43.722 Y39.363
