;FLAVOR:Marlin
;TIME:11271
;Filament used: 7.52267m
;Layer height: 0.175
;MINX:3.717
;MINY:4.402
;MINZ:0.263
;MAXX:69.554
;MAXY:63.195
;MAXZ:30.013
;Generated with Cura_SteamEngine 4.2.1
M140 S65
M105
M190 S65
M104 S205
M105
M109 S205
M82 ;absolute extrusion mode
G21;(metric values)
G90;(absolute positioning)
M82;(set extruder to absolute mode)
M107;(start with the fan off)
G28;(Home the printer)
G92 E0;(Reset the extruder to 0)
G0 Z5 E5 F500;(Move up and prime the nozzle)
G0 X-1 Z0;(Move outside the printable area)
G1 Y60 E8 F500;(Draw a priming/wiping line to the rear)
G1 X-1;(Move a little closer to the print area)
G1 Y10 E16 F500;(draw more priming/wiping)
G1 E15 F250;(Small retract)
G92 E0;(Zero the extruder)
M141 S28
G92 E0
G92 E0
G1 F2400 E-2.5
;LAYER_COUNT:171
;LAYER:0
M107
;MESH:Gripper-V-5.stl
G0 F4320 X6.309 Y14.194 Z0.263
;TYPE:WALL-INNER
G1 F2400 E0
G1 F1800 X6.309 Y5.944 E0.31573
G1 X68.879 Y5.944 E2.71028
G1 X68.879 Y14.194 E3.026
G1 X7.003 Y14.194 E5.394
G0 F1620 X6.309 Y14.194
G1 F2400 E2.894
G0 F4320 X30.676 Y14.009
G0 X30.851 Y12.57
G0 X29.667 Y11.158
G0 X29.341 Y10.298
G0 X29.452 Y9.39
G0 X30.676 Y7.755
G1 F2400 E5.42055
G1 F1800 X30.137 Y7.96 E5.44262
G1 X29.665 Y8.286 E5.46458
G1 X29.284 Y8.715 E5.48653
G1 X29.018 Y9.225 E5.50855
G1 X28.88 Y9.781 E5.53047
G1 X28.88 Y10.356 E5.55248
G1 X29.018 Y10.912 E5.5744
G1 X29.284 Y11.422 E5.59641
G1 X29.665 Y11.851 E5.61837
G1 X30.137 Y12.177 E5.64032
G1 X30.674 Y12.381 E5.66231
G1 X31.244 Y12.451 E5.68429
G1 X31.814 Y12.381 E5.70626
G1 X32.352 Y12.177 E5.72828
G1 X32.824 Y11.851 E5.75024
G1 X33.205 Y11.422 E5.77219
G1 X33.471 Y10.912 E5.79421
G1 X33.609 Y10.356 E5.81613
G1 X33.609 Y9.781 E5.83814
G1 X33.471 Y9.225 E5.86006
G1 X33.211 Y8.727 E5.88156
G1 X32.826 Y8.289 E5.90388
G1 X32.353 Y7.96 E5.92593
G1 X31.813 Y7.755 E5.94803
G1 X31.366 Y7.703 E5.96525
G0 F1620 X31.244 Y7.689
G0 X30.676 Y7.755
G1 F2400 E3.46525
G0 F4320 X33.349 Y8.633
G0 X31.933 Y9.604
G0 X43.177 Y9.593
G0 X41.847 Y8.62
G0 X43.376 Y7.755
G1 F2400 E5.99181
G1 F1800 X42.837 Y7.96 E6.01388
G1 X42.365 Y8.286 E6.03583
G1 X41.984 Y8.715 E6.05779
G1 X41.718 Y9.225 E6.07981
G1 X41.58 Y9.781 E6.10173
G1 X41.58 Y10.356 E6.12373
G1 X41.718 Y10.912 E6.14566
G1 X41.984 Y11.422 E6.16767
G1 X42.365 Y11.851 E6.18963
G1 X42.837 Y12.177 E6.21158
G1 X43.374 Y12.381 E6.23357
G1 X43.944 Y12.451 E6.25554
G1 X44.514 Y12.381 E6.27752
G1 X45.052 Y12.177 E6.29954
G1 X45.524 Y11.851 E6.32149
G1 X45.905 Y11.422 E6.34345
G1 X46.171 Y10.912 E6.36546
G1 X46.309 Y10.356 E6.38739
G1 X46.309 Y9.781 E6.40939
G1 X46.171 Y9.225 E6.43132
G1 X45.911 Y8.727 E6.45282
G1 X45.526 Y8.289 E6.47513
G1 X45.053 Y7.96 E6.49718
G1 X44.513 Y7.755 E6.51929
G1 X44.066 Y7.703 E6.53651
G0 F1620 X43.944 Y7.689
G0 X43.376 Y7.755
G0 F4320 X42.274 Y8.915
G1 F2400 E6.56307
G1 F1800 X42.048 Y9.35 E6.58183
G1 X41.93 Y9.824 E6.60052
G1 X41.93 Y10.313 E6.61924
G1 X42.048 Y10.787 E6.63793
G1 X42.274 Y11.222 E6.65669
G1 X42.599 Y11.587 E6.67539
G1 X43.001 Y11.865 E6.6941
G1 X43.459 Y12.039 E6.71285
G1 X43.944 Y12.098 E6.73155
G1 X44.43 Y12.039 E6.75028
G1 X44.888 Y11.865 E6.76903
G1 X45.29 Y11.587 E6.78774
G1 X45.615 Y11.222 E6.80644
G1 X45.841 Y10.787 E6.8252
G1 X45.959 Y10.313 E6.8439
G1 X45.959 Y9.824 E6.86261
G1 X45.841 Y9.35 E6.8813
G1 X45.62 Y8.926 E6.8996
G1 X45.291 Y8.552 E6.91866
G1 X44.889 Y8.272 E6.93741
G1 X44.429 Y8.098 E6.95623
G1 X43.944 Y8.041 E6.97492
G1 X43.46 Y8.098 E6.99357
G1 X43.001 Y8.272 E7.01236
G1 X42.768 Y8.433 E7.0232
G0 F1620 X42.599 Y8.55
G0 X42.274 Y8.915
G1 F2400 E4.5232
G0 F4320 X41.562 Y9.166
G0 X43.168 Y9.775
G0 X32.101 Y9.771
G0 X33.627 Y9.166
G0 X32.136 Y8.371
G0 X31.244 Y8.152
G0 X30.436 Y8.339
G0 X29.574 Y8.915
G1 F2400 E7.04976
G1 F1800 X29.348 Y9.35 E7.06852
G1 X29.23 Y9.824 E7.08721
G1 X29.23 Y10.313 E7.10592
G1 X29.348 Y10.787 E7.12462
G1 X29.574 Y11.222 E7.14338
G1 X29.899 Y11.587 E7.16208
G1 X30.301 Y11.865 E7.18079
G1 X30.759 Y12.039 E7.19954
G1 X31.244 Y12.098 E7.21823
G1 X31.73 Y12.039 E7.23697
G1 X32.188 Y11.865 E7.25572
G1 X32.59 Y11.587 E7.27442
G1 X32.915 Y11.222 E7.29313
G1 X33.141 Y10.787 E7.31189
G1 X33.259 Y10.313 E7.33058
G1 X33.259 Y9.824 E7.3493
G1 X33.141 Y9.35 E7.36799
G1 X32.92 Y8.926 E7.38629
G1 X32.591 Y8.552 E7.40535
G1 X32.189 Y8.272 E7.4241
G1 X31.729 Y8.098 E7.44292
G1 X31.244 Y8.041 E7.46161
G1 X30.76 Y8.098 E7.48026
G1 X30.301 Y8.272 E7.49905
G1 X30.068 Y8.433 E7.50988
G0 F1620 X29.899 Y8.55
G0 X29.574 Y8.915
G1 F2400 E5.00988
G0 F4320 X28.714 Y10.377
G0 X30.419 Y10.168
G0 X28.737 Y15.655
G0 X28.714 Y14.009
G0 X5.959 Y14.544
G1 F2400 E7.53644
G1 F1800 X5.959 Y5.594 E7.87896
G1 X69.229 Y5.594 E10.3003
G1 X69.229 Y14.544 E10.64281
G1 X6.653 Y14.544 E13.03759
G0 F1620 X5.959 Y14.544
G0 F4320 X5.634 Y14.869
;TYPE:WALL-OUTER
G1 F2400 E13.06415
G1 F1800 X5.634 Y5.269 E13.43155
G1 X69.554 Y5.269 E15.87776
G1 X69.554 Y14.869 E16.24515
G1 X6.328 Y14.869 E18.66481
G0 F1620 X5.634 Y14.869
G0 F4320 X5.634 Y14.669
G1 F2400 E16.16481
G0 F4320 X5.909 Y14.594
G0 X29.638 Y14.009
G0 X30.059 Y12.325
G0 X29.452 Y10.747
G0 X29.341 Y9.839
G0 X29.638 Y8.92
G0 X29.844 Y9.101
G1 F2400 E18.69137
G1 F1800 X29.654 Y9.466 E18.70711
G1 X29.555 Y9.864 E18.72281
G1 X29.555 Y10.273 E18.73846
G1 X29.654 Y10.671 E18.75416
G1 X29.844 Y11.036 E18.76991
G1 X30.116 Y11.342 E18.78557
G1 X30.453 Y11.575 E18.80125
G1 X30.838 Y11.721 E18.81701
G1 X31.244 Y11.771 E18.83267
G1 X31.651 Y11.721 E18.84836
G1 X32.036 Y11.575 E18.86412
G1 X32.373 Y11.342 E18.8798
G1 X32.645 Y11.036 E18.89546
G1 X32.835 Y10.671 E18.91121
G1 X32.934 Y10.273 E18.92691
G1 X32.934 Y9.864 E18.94256
G1 X32.835 Y9.466 E18.95826
G1 X32.65 Y9.111 E18.97358
G1 X32.373 Y8.796 E18.98963
G1 X32.036 Y8.562 E19.00533
G1 X31.651 Y8.416 E19.02109
G1 X31.244 Y8.368 E19.03677
G1 X30.838 Y8.416 E19.05242
G1 X30.453 Y8.562 E19.06818
G1 X30.35 Y8.633 E19.07296
G0 F1620 X30.116 Y8.795
G0 X29.844 Y9.101
G0 F4320 X29.752 Y9.278
G1 F2400 E16.57296
G0 F4320 X29.509 Y9.151
G0 X30.353 Y8.371
G0 X31.244 Y8.152
G0 X33.627 Y9.166
G0 X32.021 Y9.772
G0 X43.087 Y9.774
G0 X41.562 Y9.166
G0 X42.338 Y8.92
G0 X42.544 Y9.101
G1 F2400 E19.09952
G1 F1800 X42.354 Y9.466 E19.11527
G1 X42.255 Y9.864 E19.13097
G1 X42.255 Y10.273 E19.14662
G1 X42.354 Y10.671 E19.16231
G1 X42.544 Y11.036 E19.17806
G1 X42.816 Y11.342 E19.19373
G1 X43.153 Y11.575 E19.20941
G1 X43.538 Y11.721 E19.22517
G1 X43.944 Y11.771 E19.24082
G1 X44.351 Y11.721 E19.25651
G1 X44.736 Y11.575 E19.27227
G1 X45.073 Y11.342 E19.28795
G1 X45.345 Y11.036 E19.30362
G1 X45.535 Y10.671 E19.31937
G1 X45.634 Y10.273 E19.33506
G1 X45.634 Y9.864 E19.35072
G1 X45.535 Y9.466 E19.36641
G1 X45.35 Y9.111 E19.38173
G1 X45.073 Y8.796 E19.39778
G1 X44.736 Y8.562 E19.41349
G1 X44.351 Y8.416 E19.42924
G1 X43.944 Y8.368 E19.44493
G1 X43.538 Y8.416 E19.46057
G1 X43.153 Y8.562 E19.47633
G1 X43.05 Y8.633 E19.48112
G0 F1620 X42.816 Y8.795
G0 X42.544 Y9.101
G0 F4320 X42.452 Y9.278
G0 X42.209 Y9.151
G0 X41.702 Y8.521
;TYPE:SKIN
G1 F2400 E19.50768
G1 F1800 X41.398 Y9.104 E19.53284
G1 X41.24 Y9.74 E19.55792
G1 X41.24 Y10.397 E19.58306
G1 X41.398 Y11.033 E19.60814
G1 X41.702 Y11.616 E19.6333
G1 X42.138 Y12.107 E19.65843
G1 X42.678 Y12.48 E19.68355
G1 X43.292 Y12.713 E19.70868
G1 X43.944 Y12.793 E19.73382
G1 X44.596 Y12.713 E19.75896
G1 X45.211 Y12.48 E19.78413
G1 X45.751 Y12.107 E19.80925
G1 X46.187 Y11.616 E19.83438
G1 X46.491 Y11.033 E19.85954
G1 X46.649 Y10.397 E19.88462
G1 X46.649 Y9.74 E19.90976
G1 X46.491 Y9.104 E19.93484
G1 X46.193 Y8.533 E19.95949
G1 X45.754 Y8.033 E19.98495
G1 X45.212 Y7.657 E20.0102
G1 X44.594 Y7.422 E20.0355
G1 X43.944 Y7.347 E20.06054
G1 X43.295 Y7.422 E20.08555
G1 X42.678 Y7.657 E20.11081
G1 X42.169 Y8.009 E20.1345
G0 F1620 X42.138 Y8.03
G0 X41.702 Y8.521
G1 F2400 E17.6345
G0 F4320 X41.912 Y8.667
G0 X43.168 Y9.775
G0 X32.147 Y9.966
G0 X33.775 Y9.76
G0 X33.949 Y9.74
G1 F2400 E20.16106
G1 F1800 X33.791 Y9.104 E20.18613
G1 X33.493 Y8.533 E20.21078
G1 X33.054 Y8.033 E20.23625
G1 X32.512 Y7.657 E20.26149
G1 X31.894 Y7.422 E20.2868
G1 X31.244 Y7.347 E20.31184
G1 X30.595 Y7.422 E20.33684
G1 X29.978 Y7.657 E20.36211
G1 X29.438 Y8.03 E20.38722
G1 X29.002 Y8.521 E20.41235
G1 X28.698 Y9.104 E20.43751
G1 X28.54 Y9.74 E20.46259
G1 X28.54 Y10.397 E20.48774
G1 X28.698 Y11.033 E20.51282
G1 X29.002 Y11.616 E20.53798
G1 X29.438 Y12.107 E20.56311
G1 X29.978 Y12.48 E20.58823
G1 X30.592 Y12.713 E20.61336
G1 X31.244 Y12.793 E20.6385
G1 X31.896 Y12.713 E20.66364
G1 X32.511 Y12.48 E20.6888
G1 X33.051 Y12.107 E20.71392
G1 X33.487 Y11.616 E20.73905
G1 X33.791 Y11.033 E20.76421
G1 X33.941 Y10.432 E20.78792
G0 F1620 X33.949 Y10.397
G0 X33.949 Y9.74
G1 F2400 E18.28792
G0 F4320 X33.694 Y9.77
G0 X32.07 Y9.969
G0 X33.75 Y4.482
G0 X33.775 Y6.129
G0 X68.539 Y6.029
G0 X68.539 Y6.284
G1 F2400 E20.81448
G1 F1800 X68.539 Y13.854 E21.10418
G1 X6.649 Y13.854 E23.47271
G1 X6.649 Y6.284 E23.76241
G1 X67.845 Y6.284 E26.10438
G0 F1620 X68.539 Y6.284
G0 F4320 X68.381 Y6.509
G1 F2400 E26.13094
G1 F1800 X68.312 Y6.441 E26.13465
G0 F4320 X67.817 Y6.441
G1 F1800 X68.381 Y7.004 E26.16514
G0 F4320 X68.381 Y7.499
G1 F1800 X67.322 Y6.441 E26.22243
G0 F4320 X66.827 Y6.441
G1 F1800 X68.381 Y7.994 E26.30651
G0 F4320 X68.381 Y8.489
G1 F1800 X66.332 Y6.441 E26.41738
G0 F4320 X65.838 Y6.441
G1 F1800 X68.381 Y8.984 E26.55501
G0 F4320 X68.381 Y9.479
G1 F1800 X65.343 Y6.441 E26.71943
G0 F4320 X64.848 Y6.441
G1 F1800 X68.381 Y9.974 E26.91065
G0 F4320 X68.381 Y10.469
G1 F1800 X64.353 Y6.441 E27.12865
G0 F4320 X63.858 Y6.441
G1 F1800 X68.381 Y10.964 E27.37344
G0 F4320 X68.381 Y11.459
G1 F1800 X63.363 Y6.441 E27.64503
G0 F4320 X62.868 Y6.441
G1 F1800 X68.381 Y11.954 E27.9434
G0 F4320 X68.381 Y12.449
G1 F1800 X62.373 Y6.441 E28.26856
G0 F4320 X61.878 Y6.441
G1 F1800 X68.381 Y12.944 E28.62052
G0 F4320 X68.381 Y13.439
G1 F1800 X61.383 Y6.441 E28.99926
G0 F4320 X60.888 Y6.441
G1 F1800 X68.143 Y13.695 E29.39189
G0 F4320 X67.648 Y13.695
G1 F1800 X60.393 Y6.441 E29.78452
G0 F4320 X59.898 Y6.441
G1 F1800 X67.153 Y13.695 E30.17714
G0 F4320 X66.658 Y13.695
G1 F1800 X59.403 Y6.441 E30.56977
G0 F4320 X58.908 Y6.441
G1 F1800 X66.163 Y13.695 E30.9624
G0 F4320 X65.668 Y13.695
G1 F1800 X58.413 Y6.441 E31.35503
G0 F4320 X57.918 Y6.441
G1 F1800 X65.173 Y13.695 E31.74765
G0 F4320 X64.678 Y13.695
G1 F1800 X57.423 Y6.441 E32.14028
G0 F4320 X56.928 Y6.441
G1 F1800 X64.183 Y13.695 E32.53291
G0 F4320 X63.688 Y13.695
G1 F1800 X56.433 Y6.441 E32.92553
G0 F4320 X55.938 Y6.441
G1 F1800 X63.193 Y13.695 E33.31816
G0 F4320 X62.698 Y13.695
G1 F1800 X55.443 Y6.441 E33.71079
G0 F4320 X54.948 Y6.441
G1 F1800 X62.203 Y13.695 E34.10342
G0 F4320 X61.708 Y13.695
G1 F1800 X54.453 Y6.441 E34.49604
G0 F4320 X53.958 Y6.441
G1 F1800 X61.213 Y13.695 E34.88867
G0 F4320 X60.718 Y13.695
G1 F1800 X53.463 Y6.441 E35.2813
G0 F4320 X52.968 Y6.441
G1 F1800 X60.223 Y13.695 E35.67392
G0 F4320 X59.728 Y13.695
G1 F1800 X52.473 Y6.441 E36.06655
G0 F4320 X51.978 Y6.441
G1 F1800 X59.233 Y13.695 E36.45918
G0 F4320 X58.738 Y13.695
G1 F1800 X51.483 Y6.441 E36.85181
G0 F4320 X50.988 Y6.441
G1 F1800 X58.243 Y13.695 E37.24443
G0 F4320 X57.748 Y13.695
G1 F1800 X50.493 Y6.441 E37.63706
G0 F4320 X49.998 Y6.441
G1 F1800 X57.253 Y13.695 E38.02969
G0 F4320 X56.758 Y13.695
G1 F1800 X49.503 Y6.441 E38.42231
G0 F4320 X49.008 Y6.441
G1 F1800 X56.263 Y13.695 E38.81494
G0 F4320 X55.768 Y13.695
G1 F1800 X48.513 Y6.441 E39.20757
G0 F4320 X48.018 Y6.441
G1 F1800 X55.273 Y13.695 E39.6002
G0 F4320 X54.778 Y13.695
G1 F1800 X47.523 Y6.441 E39.99282
G0 F4320 X47.028 Y6.441
G1 F1800 X54.283 Y13.695 E40.38545
G0 F4320 X53.788 Y13.695
G1 F1800 X46.533 Y6.441 E40.77808
G0 F4320 X46.039 Y6.441
G1 F1800 X53.293 Y13.695 E41.17068
G0 F4320 X52.798 Y13.695
G1 F1800 X45.544 Y6.441 E41.56328
G0 F4320 X45.049 Y6.441
G1 F1800 X52.303 Y13.695 E41.95588
G0 F4320 X51.809 Y13.695
G1 F1800 X44.554 Y6.441 E42.3485
G0 F4320 X44.059 Y6.441
G1 F1800 X45.043 Y7.425 E42.40176
G1 X45.105 Y7.487
G0 F4320 X44.36 Y7.237
G1 F1800 X43.564 Y6.441 E42.44484
G0 F4320 X43.069 Y6.441
G1 F1800 X43.83 Y7.201 E42.486
G0 F4320 X43.386 Y7.253
G1 F1800 X42.574 Y6.441 E42.52995
G0 F4320 X42.079 Y6.441
G1 F1800 X43.002 Y7.364 E42.5799
G0 F4320 X42.644 Y7.5
G1 F1800 X41.584 Y6.441 E42.63724
G0 F4320 X41.089 Y6.441
G1 F1800 X42.343 Y7.695 E42.70511
G0 F4320 X42.05 Y7.897
G1 F1800 X40.594 Y6.441 E42.78391
G0 F4320 X40.099 Y6.441
G1 F1800 X41.814 Y8.156 E42.87673
G0 F4320 X41.582 Y8.419
G1 F1800 X39.604 Y6.441 E42.98379
G0 F4320 X39.109 Y6.441
G1 F1800 X41.409 Y8.741 E43.10827
G0 F4320 X41.243 Y9.07
G1 F1800 X38.614 Y6.441 E43.25055
G0 F4320 X38.119 Y6.441
G1 F1800 X41.145 Y9.466 E43.4143
G0 F4320 X41.082 Y9.898
G1 F1800 X37.624 Y6.441 E43.60143
G0 F4320 X37.129 Y6.441
G1 F1800 X41.082 Y10.393 E43.81534
G0 F4320 X41.237 Y11.044
G1 F1800 X36.634 Y6.441 E44.06447
G0 F4320 X36.139 Y6.441
G1 F1800 X43.394 Y13.695 E44.45709
G0 F4320 X42.899 Y13.695
G1 F1800 X35.644 Y6.441 E44.84972
G0 F4320 X35.149 Y6.441
G1 F1800 X42.404 Y13.695 E45.24235
G0 F4320 X41.909 Y13.695
G1 F1800 X34.654 Y6.441 E45.63497
G0 F4320 X34.159 Y6.441
G1 F1800 X41.414 Y13.695 E46.0276
G0 F4320 X40.919 Y13.695
G1 F1800 X33.664 Y6.441 E46.42023
G0 F4320 X33.169 Y6.441
G1 F1800 X40.424 Y13.695 E46.81286
G0 F4320 X39.929 Y13.695
G1 F1800 X32.674 Y6.441 E47.20548
G0 F4320 X32.179 Y6.441
G1 F1800 X39.434 Y13.695 E47.59811
G0 F4320 X38.939 Y13.695
G1 F1800 X33.156 Y7.912 E47.9111
G1 X31.684 Y6.441 E47.99074
G0 F4320 X31.189 Y6.441
G1 F1800 X32.07 Y7.321 E48.03839
G0 F4320 X31.469 Y7.215
G1 F1800 X30.694 Y6.441 E48.08031
G0 F4320 X30.199 Y6.441
G1 F1800 X30.978 Y7.219 E48.12244
G0 F4320 X30.539 Y7.275
G1 F1800 X29.704 Y6.441 E48.16761
G0 F4320 X29.209 Y6.441
G1 F1800 X30.18 Y7.411 E48.22013
G0 F4320 X29.836 Y7.562
G1 F1800 X28.714 Y6.441 E48.28083
G0 F4320 X28.219 Y6.441
G1 F1800 X29.543 Y7.764 E48.35246
G0 F4320 X29.267 Y7.983
G1 F1800 X27.724 Y6.441 E48.43594
G0 F4320 X27.229 Y6.441
G1 F1800 X29.035 Y8.246 E48.53366
G0 F4320 X28.821 Y8.527
G1 F1800 X26.735 Y6.441 E48.64656
G0 F4320 X26.24 Y6.441
G1 F1800 X28.651 Y8.852 E48.77705
G0 F4320 X28.509 Y9.205
G1 F1800 X25.745 Y6.441 E48.92664
G0 F4320 X25.25 Y6.441
G1 F1800 X28.411 Y9.602 E49.09772
G0 F4320 X28.382 Y10.068
G1 F1800 X24.755 Y6.441 E49.29402
G0 F4320 X24.26 Y6.441
G1 F1800 X28.43 Y10.611 E49.51971
G1 X28.492 Y10.673
G0 F4320 X28.698 Y11.374
G1 F1800 X23.765 Y6.441 E49.78669
G0 F4320 X23.27 Y6.441
G1 F1800 X30.525 Y13.695 E50.17932
G0 F4320 X31.02 Y13.695
G1 F1800 X29.97 Y12.645 E50.23614
G1 X29.908 Y12.583
G0 F4320 X30.703 Y12.884
G1 F1800 X31.515 Y13.695 E50.28006
G0 F4320 X32.01 Y13.695
G1 F1800 X31.262 Y12.948 E50.32052
G0 F4320 X31.703 Y12.894
G1 F1800 X32.504 Y13.695 E50.36387
G0 F4320 X32.999 Y13.695
G1 F1800 X32.105 Y12.801 E50.41226
G0 F4320 X32.464 Y12.665
G1 F1800 X33.494 Y13.695 E50.468
G0 F4320 X33.989 Y13.695
G1 F1800 X32.779 Y12.485 E50.53349
G0 F4320 X33.072 Y12.283
G1 F1800 X34.484 Y13.695 E50.60991
G0 F4320 X34.979 Y13.695
G1 F1800 X33.321 Y12.037 E50.69964
G0 F4320 X33.554 Y11.775
G1 F1800 X35.474 Y13.695 E50.80356
G0 F4320 X35.969 Y13.695
G1 F1800 X33.74 Y11.466 E50.9242
G0 F4320 X33.91 Y11.141
G1 F1800 X36.464 Y13.695 E51.06242
G0 F4320 X36.959 Y13.695
G1 F1800 X34.02 Y10.756 E51.22149
G0 F4320 X34.105 Y10.346
G1 F1800 X37.454 Y13.695 E51.40274
G0 F4320 X37.949 Y13.695
G1 F1800 X34.105 Y9.851 E51.61079
G0 F4320 X33.984 Y9.236
G1 F1800 X38.444 Y13.695 E51.85214
G1 X38.506 Y13.757
G1 F2400 E49.35214
G0 F4320 X38.506 Y14.109
G0 X43.03 Y14.009
G0 X43.333 Y12.543
G0 X42.941 Y12.748
G1 F2400 E51.85214
G1 F1800 X43.889 Y13.695 E51.90342
G0 F4320 X44.384 Y13.695
G1 F1800 X43.596 Y12.908 E51.94604
G0 F4320 X44.113 Y12.93
G1 F1800 X44.879 Y13.695 E51.98747
G0 F4320 X45.374 Y13.695
G1 F1800 X44.554 Y12.875 E52.03185
G0 F4320 X44.928 Y12.754
G1 F1800 X45.869 Y13.695 E52.08278
G0 F4320 X46.364 Y13.695
G1 F1800 X45.287 Y12.619 E52.14105
G0 F4320 X45.58 Y12.416
G1 F1800 X46.859 Y13.695 E52.21027
G0 F4320 X47.354 Y13.695
G1 F1800 X45.868 Y12.21 E52.29067
G0 F4320 X46.101 Y11.947
G1 F1800 X47.849 Y13.695 E52.38527
G0 F4320 X48.344 Y13.695
G1 F1800 X46.328 Y11.68 E52.49435
