;FLAVOR:Marlin
;TIME:3283
;Filament used: 2.04216m
;Layer height: 0.175
;Generated with Cura_SteamEngine 4.0.0
M140 S65
M105
M190 S65
M104 S205
M105
M109 S205
M82 ;absolute extrusion mode
G21;(metric values)
G90;(absolute positioning)
M82;(set extruder to absolute mode)
M107;(start with the fan off)
G28;(Home the printer)
G92 E0;(Reset the extruder to 0)
G0 Z5 E5 F500;(Move up and prime the nozzle)
G0 X-1 Z0;(Move outside the printable area)
G1 Y60 E8 F500;(Draw a priming/wiping line to the rear)
G1 X-1;(Move a little closer to the print area)
G1 Y10 E16 F500;(draw more priming/wiping)
G1 E15 F250;(Small retract)
G92 E0;(Zero the extruder)
G92 E0
G1 F2400 E-2.5
;LAYER_COUNT:114
;LAYER:0
M107
;MESH:Gripper Secure.stl
G0 F4320 X54.762 Y16.941 Z0.263
;TYPE:WALL-INNER
G1 F2400 E0
G1 F1800 X54.219 Y16.735 E0.02223
G1 X53.65 Y16.667 E0.04416
G1 X53.081 Y16.735 E0.06609
G1 X52.544 Y16.939 E0.08807
G1 X52.07 Y17.264 E0.11007
G1 X51.691 Y17.695 E0.13203
G1 X51.423 Y18.202 E0.15398
G1 X51.286 Y18.761 E0.176
G1 X51.286 Y19.333 E0.19789
G1 X51.423 Y19.892 E0.21992
G1 X51.691 Y20.399 E0.24187
G1 X52.07 Y20.83 E0.26383
G1 X52.544 Y21.155 E0.28582
G1 X53.081 Y21.359 E0.30781
G1 X53.65 Y21.427 E0.32974
G1 X54.219 Y21.359 E0.35167
G1 X54.756 Y21.155 E0.37365
G1 X55.23 Y20.83 E0.39565
G1 X55.609 Y20.399 E0.41761
G1 X55.877 Y19.892 E0.43956
G1 X56.014 Y19.333 E0.46159
G1 X56.014 Y18.761 E0.48348
G1 X55.877 Y18.202 E0.5055
G1 X55.618 Y17.711 E0.52675
G1 X55.313 Y17.359 E0.54457
G0 F1620 X55.248 Y17.284
G0 X54.762 Y16.941
G1 F2400 E-1.95543
G0 F4320 X56.18 Y19.353
G0 X54.475 Y19.148
G0 X54.503 Y19.177
G0 X54.534 Y19.208
G0 X59.742 Y24.531
G0 X59.773 Y24.562
G0 X59.8 Y24.59
G0 X59.391 Y22.923
G0 X61.112 Y23.291
G1 F2400 E0.57113
G1 F1800 X60.569 Y23.085 E0.59336
G1 X60 Y23.017 E0.61529
G1 X59.431 Y23.085 E0.63722
G1 X58.894 Y23.289 E0.6592
G1 X58.42 Y23.614 E0.6812
G1 X58.041 Y24.045 E0.70316
G1 X57.773 Y24.552 E0.72511
G1 X57.636 Y25.111 E0.74713
G1 X57.636 Y25.683 E0.76902
G1 X57.773 Y26.242 E0.79105
G1 X58.041 Y26.749 E0.813
G1 X58.42 Y27.18 E0.83496
G1 X58.894 Y27.505 E0.85695
G1 X59.431 Y27.709 E0.87894
G1 X60 Y27.777 E0.90087
G1 X60.569 Y27.709 E0.9228
G1 X61.106 Y27.505 E0.94478
G1 X61.58 Y27.18 E0.96678
G1 X61.959 Y26.749 E0.98874
G1 X62.227 Y26.242 E1.01069
G1 X62.364 Y25.683 E1.03272
G1 X62.364 Y25.111 E1.05461
G1 X62.227 Y24.552 E1.07663
G1 X61.968 Y24.061 E1.09788
G1 X61.663 Y23.709 E1.1157
G0 F1620 X61.598 Y23.634
G0 X61.112 Y23.291
G1 F2400 E-1.3843
G0 F4320 X61.71 Y23.51
G0 X60.556 Y24.782
G0 X60.58 Y24.758
G0 X60.611 Y24.727
G0 X65.742 Y19.724
G0 X65.774 Y19.693
G0 X65.799 Y19.67
G0 X64.629 Y20.95
G0 X64.447 Y19.277
G0 X64.447 Y18.817
G0 X64.557 Y18.366
G0 X64.773 Y17.959
G0 X65.078 Y17.612
G0 X65.46 Y17.35
G0 X65.704 Y17.258
G0 X67.462 Y16.941
G1 F2400 E1.14226
G1 F1800 X66.919 Y16.735 E1.16449
G1 X66.35 Y16.667 E1.18642
G1 X65.781 Y16.735 E1.20835
G1 X65.244 Y16.939 E1.23033
G1 X64.77 Y17.264 E1.25233
G1 X64.391 Y17.695 E1.27429
G1 X64.123 Y18.202 E1.29624
G1 X63.986 Y18.761 E1.31826
G1 X63.986 Y19.333 E1.34015
G1 X64.123 Y19.892 E1.36218
G1 X64.391 Y20.399 E1.38413
G1 X64.77 Y20.83 E1.40609
G1 X65.244 Y21.155 E1.42808
G1 X65.781 Y21.359 E1.45007
G1 X66.35 Y21.427 E1.472
G1 X66.919 Y21.359 E1.49393
G1 X67.456 Y21.155 E1.51591
G1 X67.93 Y20.83 E1.53791
G1 X68.309 Y20.399 E1.55987
G1 X68.577 Y19.892 E1.58182
G1 X68.714 Y19.333 E1.60385
G1 X68.714 Y18.761 E1.62574
G1 X68.577 Y18.202 E1.64776
G1 X68.318 Y17.711 E1.66901
G1 X68.013 Y17.359 E1.68683
G0 F1620 X67.948 Y17.284
G0 X67.462 Y16.941
G1 F2400 E-0.81317
G0 F4320 X66.35 Y16.501
G0 X66.35 Y18.216
G0 X66.314 Y18.183
G0 X66.282 Y18.153
G0 X60.836 Y13.045
G0 X60.778 Y12.99
G0 X62.383 Y13.601
G0 X61.906 Y12.318
G0 X61.112 Y10.591
G1 F2400 E1.71339
G1 F1800 X60.569 Y10.385 E1.73562
G1 X60 Y10.317 E1.75755
G1 X59.431 Y10.385 E1.77948
G1 X58.894 Y10.589 E1.80146
G1 X58.42 Y10.914 E1.82346
G1 X58.041 Y11.345 E1.84542
G1 X57.773 Y11.852 E1.86737
G1 X57.636 Y12.411 E1.88939
G1 X57.636 Y12.983 E1.91128
G1 X57.773 Y13.542 E1.93331
G1 X58.041 Y14.049 E1.95526
G1 X58.42 Y14.48 E1.97722
G1 X58.894 Y14.805 E1.99921
G1 X59.431 Y15.009 E2.0212
G1 X60 Y15.077 E2.04313
G1 X60.569 Y15.009 E2.06506
G1 X61.106 Y14.805 E2.08704
G1 X61.58 Y14.48 E2.10904
G1 X61.959 Y14.049 E2.131
G1 X62.227 Y13.542 E2.15295
G1 X62.364 Y12.983 E2.17498
G1 X62.364 Y12.411 E2.19687
G1 X62.227 Y11.852 E2.21889
G1 X61.968 Y11.361 E2.24014
G1 X61.663 Y11.009 E2.25796
G0 F1620 X61.598 Y10.934
G0 X61.112 Y10.591
G1 F2400 E-0.24204
G0 F4320 X62.53 Y12.391
G0 X60.825 Y12.596
G0 X60.85 Y12.853
G0 X60.854 Y12.897
G0 X62.521 Y29.632
G0 X62.525 Y29.676
G0 X62.53 Y29.712
G0 X62.53 Y27.987
G0 X62.594 Y27.986
G0 X92.125 Y28.172
G1 F2400 E2.28452
G1 F1800 X27.875 Y28.172 E4.74336
G1 X27.875 Y9.922 E5.44179
G1 X92.125 Y9.922 E7.90063
G1 X92.125 Y27.478 E8.5725
G0 F1620 X92.125 Y28.172
G0 F4320 X92.475 Y28.522
G1 F2400 E8.59906
G1 F1800 X27.525 Y28.522 E11.08469
G1 X27.525 Y9.572 E11.80991
G1 X92.475 Y9.572 E14.29554
G1 X92.475 Y27.828 E14.9942
G0 F1620 X92.475 Y28.522
G1 F2400 E12.4942
G0 F4320 X67.296 Y27.987
G0 X67.296 Y29.712
G0 X67.291 Y29.675
G0 X67.289 Y29.631
G0 X66.555 Y19.932
G0 X66.553 Y19.888
G0 X66.55 Y19.854
G0 X66.959 Y21.521
G0 X67.927 Y20.135
G0 X68.143 Y19.728
G0 X68.253 Y19.277
G0 X68.253 Y18.817
G0 X68.143 Y18.366
G0 X68.026 Y18.145
G0 X67.296 Y17.252
G1 F2400 E15.02076
G1 F1800 X66.835 Y17.077 E15.03963
G1 X66.35 Y17.019 E15.05832
G1 X65.865 Y17.077 E15.07701
G1 X65.408 Y17.251 E15.09573
G1 X65.004 Y17.528 E15.11447
G1 X64.681 Y17.895 E15.13318
G1 X64.453 Y18.327 E15.15188
G1 X64.336 Y18.803 E15.17064
G1 X64.336 Y19.291 E15.18931
G1 X64.453 Y19.767 E15.20807
G1 X64.681 Y20.199 E15.22677
G1 X65.004 Y20.566 E15.24548
G1 X65.408 Y20.843 E15.26422
G1 X65.865 Y21.017 E15.28294
G1 X66.35 Y21.075 E15.30163
G1 X66.835 Y21.017 E15.32032
G1 X67.292 Y20.843 E15.33904
G1 X67.696 Y20.566 E15.35778
G1 X68.019 Y20.199 E15.37649
G1 X68.247 Y19.767 E15.39519
G1 X68.364 Y19.291 E15.41395
G1 X68.364 Y18.803 E15.43262
G1 X68.247 Y18.327 E15.45138
G1 X68.027 Y17.91 E15.46942
G1 X67.832 Y17.685 E15.48082
G0 F1620 X67.711 Y17.545
G0 X67.296 Y17.252
G1 F2400 E12.98082
G0 F4320 X66.35 Y17.13
G0 X65.892 Y17.186
G0 X65.46 Y17.35
G0 X65.078 Y17.612
G0 X64.773 Y17.959
G0 X64.557 Y18.366
G0 X64.495 Y18.62
G0 X64.356 Y20.61
G0 X65.667 Y19.521
G0 X65.642 Y19.545
G0 X65.611 Y19.577
G0 X60.609 Y24.726
G0 X60.578 Y24.757
G0 X60.556 Y24.782
G0 X61.71 Y23.51
G0 X60.946 Y23.602
G1 F2400 E15.50738
G1 F1800 X60.485 Y23.427 E15.52625
G1 X60 Y23.369 E15.54494
G1 X59.515 Y23.427 E15.56363
G1 X59.058 Y23.601 E15.58235
G1 X58.654 Y23.878 E15.60109
G1 X58.331 Y24.245 E15.6198
G1 X58.103 Y24.677 E15.6385
G1 X57.986 Y25.153 E15.65726
G1 X57.986 Y25.641 E15.67593
G1 X58.103 Y26.117 E15.69469
G1 X58.331 Y26.549 E15.71339
G1 X58.654 Y26.916 E15.7321
G1 X59.058 Y27.193 E15.75084
G1 X59.515 Y27.367 E15.76956
G1 X60 Y27.425 E15.78825
G1 X60.485 Y27.367 E15.80694
G1 X60.942 Y27.193 E15.82566
G1 X61.346 Y26.916 E15.8444
G1 X61.669 Y26.549 E15.86311
G1 X61.897 Y26.117 E15.88181
G1 X62.014 Y25.641 E15.90057
G1 X62.014 Y25.153 E15.91924
G1 X61.897 Y24.677 E15.938
G1 X61.677 Y24.26 E15.95604
G1 X61.482 Y24.035 E15.96744
G0 F1620 X61.361 Y23.895
G0 X60.946 Y23.602
G1 F2400 E13.46744
G0 F4320 X59.391 Y22.923
G0 X59.8 Y24.59
G0 X59.769 Y24.563
G0 X59.737 Y24.533
G0 X54.39 Y19.575
G0 X54.358 Y19.545
G0 X54.333 Y19.521
G0 X55.746 Y20.494
G0 X55.553 Y18.817
G0 X55.443 Y18.366
G0 X55.326 Y18.145
G0 X54.596 Y17.252
G1 F2400 E15.994
G1 F1800 X54.135 Y17.077 E16.01287
G1 X53.65 Y17.019 E16.03156
G1 X53.165 Y17.077 E16.05025
G1 X52.708 Y17.251 E16.06897
G1 X52.304 Y17.528 E16.08771
G1 X51.981 Y17.895 E16.10642
G1 X51.753 Y18.327 E16.12512
G1 X51.636 Y18.803 E16.14388
G1 X51.636 Y19.291 E16.16255
G1 X51.753 Y19.767 E16.18131
G1 X51.981 Y20.199 E16.20001
G1 X52.304 Y20.566 E16.21872
G1 X52.708 Y20.843 E16.23746
G1 X53.165 Y21.017 E16.25618
G1 X53.65 Y21.075 E16.27487
G1 X54.135 Y21.017 E16.29356
G1 X54.592 Y20.843 E16.31228
G1 X54.996 Y20.566 E16.33102
G1 X55.319 Y20.199 E16.34973
G1 X55.547 Y19.767 E16.36843
G1 X55.664 Y19.291 E16.38719
G1 X55.664 Y18.803 E16.40586
G1 X55.547 Y18.327 E16.42462
G1 X55.327 Y17.91 E16.44266
G1 X55.132 Y17.685 E16.45406
G0 F1620 X55.011 Y17.545
G0 X54.596 Y17.252
G1 F2400 E13.95406
G0 F4320 X55.36 Y17.16
G0 X54.206 Y18.432
G0 X54.229 Y18.408
G0 X54.26 Y18.377
G0 X59.392 Y13.374
G0 X59.423 Y13.343
G0 X59.449 Y13.32
G0 X58.279 Y14.6
G0 X58.097 Y12.927
G0 X58.097 Y12.467
G0 X58.207 Y12.016
G0 X58.423 Y11.609
G0 X58.728 Y11.262
G0 X59.11 Y11
G0 X59.542 Y10.836
G0 X59.912 Y10.791
G0 X60.946 Y10.902
G1 F2400 E16.48062
G1 F1800 X60.485 Y10.727 E16.49949
G1 X60 Y10.669 E16.51818
G1 X59.515 Y10.727 E16.53687
G1 X59.058 Y10.901 E16.55559
G1 X58.654 Y11.178 E16.57433
G1 X58.331 Y11.545 E16.59304
G1 X58.103 Y11.977 E16.61174
G1 X57.986 Y12.453 E16.6305
G1 X57.986 Y12.941 E16.64917
G1 X58.103 Y13.417 E16.66793
G1 X58.331 Y13.849 E16.68663
G1 X58.654 Y14.216 E16.70534
G1 X59.058 Y14.493 E16.72408
G1 X59.515 Y14.667 E16.7428
G1 X60 Y14.725 E16.76149
G1 X60.485 Y14.667 E16.78018
G1 X60.942 Y14.493 E16.7989
G1 X61.346 Y14.216 E16.81764
G1 X61.669 Y13.849 E16.83635
G1 X61.897 Y13.417 E16.85505
G1 X62.014 Y12.941 E16.87381
G1 X62.014 Y12.453 E16.89248
G1 X61.897 Y11.977 E16.91124
G1 X61.677 Y11.56 E16.92928
G1 X61.482 Y11.335 E16.94068
G0 F1620 X61.361 Y11.195
G0 X60.946 Y10.902
G0 F4320 X60.792 Y11.191
;TYPE:WALL-OUTER
G1 F2400 E16.96724
G1 F1800 X60.407 Y11.045 E16.98299
G1 X60 Y10.996 E16.99868
G1 X59.593 Y11.045 E17.01437
G1 X59.21 Y11.191 E17.03006
G1 X58.871 Y11.423 E17.04578
G1 X58.6 Y11.731 E17.06148
G1 X58.409 Y12.093 E17.07714
G1 X58.311 Y12.492 E17.09287
G1 X58.311 Y12.902 E17.10856
G1 X58.409 Y13.301 E17.12428
G1 X58.6 Y13.663 E17.13994
G1 X58.871 Y13.971 E17.15564
G1 X59.21 Y14.203 E17.17137
G1 X59.593 Y14.349 E17.18705
G1 X60 Y14.398 E17.20274
G1 X60.407 Y14.349 E17.21843
G1 X60.79 Y14.203 E17.23411
G1 X61.129 Y13.971 E17.24983
G1 X61.4 Y13.663 E17.26554
G1 X61.591 Y13.301 E17.2812
G1 X61.689 Y12.902 E17.29692
G1 X61.689 Y12.492 E17.31261
G1 X61.591 Y12.093 E17.32834
G1 X61.407 Y11.745 E17.3434
G1 X61.315 Y11.639 E17.34877
G0 F1620 X61.141 Y11.438
G0 X60.792 Y11.191
G0 F4320 X60.605 Y11.12
G1 F2400 E14.84877
G0 F4320 X60.704 Y10.864
G0 X60 Y10.78
G0 X59.542 Y10.836
G0 X59.11 Y11
G0 X58.728 Y11.262
G0 X58.423 Y11.609
G0 X58.207 Y12.016
G0 X58.145 Y12.27
G0 X57.999 Y14.252
G0 X59.317 Y13.171
G0 X59.292 Y13.195
G0 X59.262 Y13.227
G0 X54.259 Y18.376
G0 X54.228 Y18.407
G0 X54.206 Y18.432
G0 X55.36 Y17.16
G0 X54.541 Y17.285
G0 X54.442 Y17.541
G1 F2400 E17.37533
G1 F1800 X54.057 Y17.395 E17.39109
G1 X53.65 Y17.346 E17.40678
G1 X53.243 Y17.395 E17.42247
G1 X52.86 Y17.541 E17.43815
G1 X52.521 Y17.773 E17.45387
G1 X52.25 Y18.081 E17.46957
G1 X52.059 Y18.443 E17.48524
G1 X51.961 Y18.842 E17.50096
G1 X51.961 Y19.252 E17.51665
G1 X52.059 Y19.651 E17.53238
G1 X52.25 Y20.013 E17.54804
G1 X52.521 Y20.321 E17.56374
G1 X52.86 Y20.553 E17.57946
G1 X53.243 Y20.699 E17.59515
G1 X53.65 Y20.748 E17.61084
G1 X54.057 Y20.699 E17.62652
G1 X54.44 Y20.553 E17.64221
G1 X54.779 Y20.321 E17.65793
G1 X55.05 Y20.013 E17.67363
G1 X55.241 Y19.651 E17.68929
G1 X55.339 Y19.252 E17.70502
G1 X55.339 Y18.842 E17.72071
G1 X55.241 Y18.443 E17.73643
G1 X55.057 Y18.095 E17.7515
G1 X54.965 Y17.989 E17.75687
G0 F1620 X54.791 Y17.788
G0 X54.442 Y17.541
G0 F4320 X54.255 Y17.47
G1 F2400 E15.25687
G0 F4320 X54.354 Y17.214
G0 X54.935 Y17.628
G0 X55.235 Y17.974
G0 X55.293 Y18.084
G0 X56.033 Y19.951
G0 X54.428 Y19.34
G0 X54.453 Y19.367
G0 X54.484 Y19.398
G0 X59.559 Y24.603
G0 X59.615 Y24.66
G0 X58.817 Y23.141
G0 X60.891 Y23.635
G0 X60.792 Y23.891
G1 F2400 E17.78343
G1 F1800 X60.407 Y23.745 E17.79919
G1 X60 Y23.696 E17.81487
G1 X59.593 Y23.745 E17.83056
G1 X59.21 Y23.891 E17.84625
G1 X58.871 Y24.123 E17.86197
G1 X58.6 Y24.431 E17.87767
G1 X58.409 Y24.793 E17.89333
G1 X58.311 Y25.192 E17.90906
G1 X58.311 Y25.602 E17.92475
G1 X58.409 Y26.001 E17.94047
G1 X58.6 Y26.363 E17.95614
G1 X58.871 Y26.671 E17.97184
G1 X59.21 Y26.903 E17.98756
G1 X59.593 Y27.049 E18.00324
G1 X60 Y27.098 E18.01893
G1 X60.407 Y27.049 E18.03462
G1 X60.79 Y26.903 E18.05031
G1 X61.129 Y26.671 E18.06603
G1 X61.4 Y26.363 E18.08173
G1 X61.591 Y26.001 E18.09739
G1 X61.689 Y25.602 E18.11311
G1 X61.689 Y25.192 E18.1288
G1 X61.591 Y24.793 E18.14453
G1 X61.407 Y24.445 E18.15959
G1 X61.315 Y24.339 E18.16496
G0 F1620 X61.141 Y24.138
G0 X60.792 Y23.891
G0 F4320 X60.605 Y23.82
G1 F2400 E15.66496
G0 F4320 X60.704 Y23.564
G0 X61.71 Y23.51
G0 X60.556 Y24.782
G0 X60.58 Y24.758
G0 X60.611 Y24.727
G0 X65.742 Y19.724
G0 X65.774 Y19.693
G0 X65.799 Y19.67
G0 X64.629 Y20.95
G0 X64.447 Y19.277
G0 X64.447 Y18.817
G0 X64.557 Y18.366
G0 X64.773 Y17.959
G0 X65.078 Y17.612
G0 X65.46 Y17.35
G0 X65.892 Y17.186
G0 X66.262 Y17.141
G0 X67.241 Y17.285
G0 X67.142 Y17.541
G1 F2400 E18.19152
G1 F1800 X66.757 Y17.395 E18.20728
G1 X66.35 Y17.346 E18.22297
G1 X65.943 Y17.395 E18.23866
G1 X65.56 Y17.541 E18.25434
G1 X65.221 Y17.773 E18.27007
G1 X64.95 Y18.081 E18.28577
G1 X64.759 Y18.443 E18.30143
G1 X64.661 Y18.842 E18.31715
G1 X64.661 Y19.252 E18.33284
G1 X64.759 Y19.651 E18.34857
G1 X64.95 Y20.013 E18.36423
G1 X65.221 Y20.321 E18.37993
G1 X65.56 Y20.553 E18.39565
G1 X65.943 Y20.699 E18.41134
G1 X66.35 Y20.748 E18.42703
G1 X66.757 Y20.699 E18.44271
G1 X67.14 Y20.553 E18.4584
G1 X67.479 Y20.321 E18.47412
G1 X67.75 Y20.013 E18.48982
G1 X67.941 Y19.651 E18.50549
G1 X68.039 Y19.252 E18.52121
G1 X68.039 Y18.842 E18.5369
G1 X67.941 Y18.443 E18.55262
G1 X67.757 Y18.095 E18.56769
G1 X67.665 Y17.989 E18.57306
G0 F1620 X67.491 Y17.788
G0 X67.142 Y17.541
G0 F4320 X66.955 Y17.47
G1 F2400 E16.07306
G0 F4320 X67.054 Y17.214
G0 X67.635 Y17.628
G0 X67.72 Y17.725
G0 X68.88 Y19.353
G0 X67.175 Y19.148
G0 X67.19 Y19.243
G0 X67.196 Y19.287
G0 X68.866 Y29.632
G0 X68.872 Y29.676
G0 X68.88 Y29.712
G0 X68.88 Y27.987
G0 X68.848 Y27.985
G0 X68.928 Y27.987
G0 X92.525 Y28.602
G0 X92.8 Y28.847
G1 F2400 E18.59962
G1 F1800 X27.2 Y28.847 E21.11013
G1 X27.2 Y9.247 E21.86022
G1 X92.8 Y9.247 E24.37073
G1 X92.8 Y28.153 E25.09426
G0 F1620 X92.8 Y28.847
G0 F4320 X92.6 Y28.847
G0 X92.6 Y28.572
G0 X92.04 Y27.832
G0 X91.785 Y27.832
;TYPE:SKIN
G1 F2400 E25.12082
G1 F1800 X61.202 Y27.832 E26.29123
G1 X61.265 Y27.808 E26.29381
G1 X61.807 Y27.436 E26.31897
G1 X62.241 Y26.943 E26.3441
G1 X62.547 Y26.364 E26.36916
G1 X62.704 Y25.724 E26.39438
G1 X62.704 Y25.07 E26.41941
G1 X62.547 Y24.43 E26.44463
G1 X62.25 Y23.868 E26.46896
G1 X61.828 Y23.38 E26.49365
G1 X61.273 Y22.988 E26.51965
G1 X60.651 Y22.753 E26.5451
G1 X60 Y22.675 E26.57019
G1 X59.349 Y22.753 E26.59528
G1 X58.735 Y22.986 E26.62041
G1 X58.193 Y23.358 E26.64557
G1 X57.759 Y23.851 E26.67071
G1 X57.453 Y24.43 E26.69577
G1 X57.296 Y25.07 E26.72099
G1 X57.296 Y25.724 E26.74602
G1 X57.453 Y26.364 E26.77124
G1 X57.759 Y26.943 E26.7963
G1 X58.193 Y27.436 E26.82143
G1 X58.735 Y27.808 E26.84659
G1 X58.798 Y27.832 E26.84917
G1 X28.215 Y27.832 E28.01958
G1 X28.215 Y10.262 E28.69199
G1 X58.798 Y10.262 E29.8624
G1 X58.735 Y10.286 E29.86498
G1 X58.193 Y10.658 E29.89013
G1 X57.759 Y11.151 E29.91527
G1 X57.453 Y11.73 E29.94033
G1 X57.296 Y12.37 E29.96555
G1 X57.296 Y13.024 E29.99058
G1 X57.453 Y13.664 E30.0158
G1 X57.759 Y14.243 E30.04086
G1 X58.193 Y14.736 E30.066
G1 X58.735 Y15.108 E30.09115
G1 X59.349 Y15.341 E30.11629
G1 X60 Y15.419 E30.14138
G1 X60.651 Y15.341 E30.16647
G1 X61.265 Y15.108 E30.1916
G1 X61.807 Y14.736 E30.21676
G1 X62.241 Y14.243 E30.2419
G1 X62.547 Y13.664 E30.26696
G1 X62.704 Y13.024 E30.29218
G1 X62.704 Y12.37 E30.31721
G1 X62.547 Y11.73 E30.34243
G1 X62.25 Y11.168 E30.36675
G1 X61.828 Y10.68 E30.39144
G1 X61.273 Y10.288 E30.41745
G1 X61.204 Y10.262 E30.42027
G1 X91.785 Y10.262 E31.5906
G1 X91.785 Y27.138 E32.23645
G0 F1620 X91.785 Y27.832
G1 F2400 E29.73645
G0 F4320 X92.04 Y27.832
G0 X91.968 Y28.015
G0 X68.642 Y27.986
G0 X68.658 Y29.712
G0 X68.65 Y29.676
G0 X68.644 Y29.632
G0 X67.046 Y19.61
G0 X67.04 Y19.566
G0 X67.033 Y19.521
