;FLAVOR:Marlin
;TIME:4455
;Filament used: 4.39265m
;Layer height: 0.30625
;MINX:6.742
;MINY:4.841
;MINZ:0.306
;MAXX:70.06
;MAXY:103.836
;MAXZ:19.89
;Generated with Cura_SteamEngine 4.2.1
M140 S65
M105
M190 S65
M104 S205
M105
M109 S205
M82 ;absolute extrusion mode
G21;(metric values)
G90;(absolute positioning)
M82;(set extruder to absolute mode)
M107;(start with the fan off)
G28;(Home the printer)
G92 E0;(Reset the extruder to 0)
G0 Z5 E5 F500;(Move up and prime the nozzle)
G0 X-1 Z0;(Move outside the printable area)
G1 Y60 E8 F500;(Draw a priming/wiping line to the rear)
G1 X-1;(Move a little closer to the print area)
G1 Y10 E16 F500;(draw more priming/wiping)
G1 E15 F250;(Small retract)
G92 E0;(Zero the extruder)
M141 S28
G92 E0
G92 E0
G1 F2400 E-2.5
;LAYER_COUNT:65
;LAYER:0
M107
;MESH:Gripper-V-2-1.stl
G0 F4320 X34.095 Y13.727 Z0.306
;TYPE:WALL-INNER
G1 F2400 E0
G1 F1980 X33.618 Y13.398 E0.0258
G1 X33.08 Y13.194 E0.05142
G1 X32.511 Y13.126 E0.07694
G1 X31.942 Y13.194 E0.10245
G1 X31.404 Y13.398 E0.12807
G1 X30.932 Y13.724 E0.15362
G1 X30.55 Y14.153 E0.17919
G1 X30.284 Y14.664 E0.20484
G1 X30.147 Y15.221 E0.23039
G1 X30.147 Y15.792 E0.25581
G1 X30.284 Y16.349 E0.28135
G1 X30.55 Y16.86 E0.307
G1 X30.932 Y17.289 E0.33258
G1 X31.404 Y17.615 E0.35812
G1 X31.942 Y17.82 E0.38376
G1 X32.511 Y17.886 E0.40926
G1 X33.08 Y17.82 E0.43477
G1 X33.618 Y17.615 E0.46041
G1 X34.091 Y17.289 E0.48598
G1 X34.472 Y16.858 E0.5116
G1 X34.737 Y16.35 E0.53711
G1 X34.875 Y15.794 E0.56262
G1 X34.875 Y15.219 E0.58822
G1 X34.737 Y14.665 E0.61364
G1 X34.486 Y14.178 E0.63804
G0 F1782 X34.485 Y14.176
G0 X34.095 Y13.727
G1 F2400 E-1.86196
G0 F4320 X35.041 Y15.815
G0 X33.336 Y15.606
G0 X38.385 Y21.086
G0 X38.252 Y19.382
G0 X40.445 Y20.077
G1 F2400 E0.66462
G1 F1980 X39.968 Y19.748 E0.69042
G1 X39.43 Y19.544 E0.71604
G1 X38.861 Y19.476 E0.74156
G1 X38.292 Y19.544 E0.76708
G1 X37.754 Y19.748 E0.7927
G1 X37.282 Y20.074 E0.81824
G1 X36.9 Y20.503 E0.84382
G1 X36.634 Y21.014 E0.86947
G1 X36.497 Y21.571 E0.89501
G1 X36.497 Y22.142 E0.92043
G1 X36.634 Y22.699 E0.94597
G1 X36.9 Y23.21 E0.97162
G1 X37.282 Y23.639 E0.9972
G1 X37.754 Y23.965 E1.02274
G1 X38.292 Y24.17 E1.04838
G1 X38.861 Y24.236 E1.07389
G1 X39.43 Y24.17 E1.09939
G1 X39.968 Y23.965 E1.12503
G1 X40.441 Y23.639 E1.15061
G1 X40.822 Y23.208 E1.17622
G1 X41.087 Y22.7 E1.20173
G1 X41.225 Y22.144 E1.22724
G1 X41.225 Y21.569 E1.25284
G1 X41.087 Y21.015 E1.27827
G1 X40.836 Y20.528 E1.30266
G0 F1782 X40.835 Y20.526
G0 X40.445 Y20.077
G1 F2400 E-1.19734
G0 F4320 X39.551 Y21.397
G0 X50.446 Y21.16
G0 X48.801 Y20.432
G0 X48.986 Y19.631
G1 F2400 E1.32924
G1 F1980 X48.986 Y24.631 E1.55188
G1 X28.736 Y24.631 E2.45355
G1 X28.736 Y19.631 E2.67619
G1 X8.736 Y19.631 E3.56673
G1 X8.736 Y11.381 E3.93407
G1 X28.736 Y11.381 E4.82461
G1 X28.736 Y6.381 E5.04725
G1 X48.986 Y6.381 E5.94892
G1 X48.986 Y11.381 E6.17156
G1 X68.986 Y11.381 E7.0621
G1 X68.986 Y19.631 E7.42944
G1 X49.583 Y19.631 E8.2934
G0 F1782 X48.986 Y19.631
G1 F2400 E5.7934
G0 F4320 X50.788 Y19.486
G0 X50.788 Y21.171
G0 X45.946 Y16.038
G0 X47.31 Y16.953
G0 X47.152 Y15.596
G0 X46.795 Y13.727
G1 F2400 E8.31998
G1 F1980 X46.318 Y13.398 E8.34579
G1 X45.78 Y13.194 E8.37141
G1 X45.211 Y13.126 E8.39692
G1 X44.642 Y13.194 E8.42244
G1 X44.104 Y13.398 E8.44806
G1 X43.632 Y13.724 E8.4736
G1 X43.25 Y14.153 E8.49918
G1 X42.984 Y14.664 E8.52483
G1 X42.847 Y15.221 E8.55037
G1 X42.847 Y15.792 E8.57579
G1 X42.984 Y16.349 E8.60134
G1 X43.25 Y16.86 E8.62699
G1 X43.632 Y17.289 E8.65256
G1 X44.104 Y17.615 E8.67811
G1 X44.642 Y17.82 E8.70374
G1 X45.211 Y17.886 E8.72925
G1 X45.78 Y17.82 E8.75475
G1 X46.318 Y17.615 E8.78039
G1 X46.791 Y17.289 E8.80597
G1 X47.172 Y16.858 E8.83158
G1 X47.437 Y16.35 E8.8571
G1 X47.575 Y15.794 E8.8826
G1 X47.575 Y15.219 E8.90821
G1 X47.437 Y14.665 E8.93363
G1 X47.186 Y14.178 E8.95802
G0 F1782 X47.185 Y14.176
G0 X46.795 Y13.727
G1 F2400 E6.45802
G0 F4320 X45.211 Y12.96
G0 X45.253 Y14.679
G0 X39.696 Y9.505
G0 X41.243 Y10.059
G0 X40.445 Y7.377
G1 F2400 E8.98461
G1 F1980 X39.968 Y7.048 E9.01041
G1 X39.43 Y6.844 E9.03603
G1 X38.861 Y6.776 E9.06154
G1 X38.292 Y6.844 E9.08706
G1 X37.754 Y7.048 E9.11268
G1 X37.282 Y7.374 E9.13822
G1 X36.9 Y7.803 E9.1638
G1 X36.634 Y8.314 E9.18945
G1 X36.497 Y8.871 E9.21499
G1 X36.497 Y9.442 E9.24042
G1 X36.634 Y9.999 E9.26596
G1 X36.9 Y10.51 E9.29161
G1 X37.282 Y10.939 E9.31719
G1 X37.754 Y11.265 E9.34273
G1 X38.292 Y11.47 E9.36836
G1 X38.861 Y11.536 E9.39387
G1 X39.43 Y11.47 E9.41938
G1 X39.968 Y11.265 E9.44501
G1 X40.441 Y10.939 E9.47059
G1 X40.822 Y10.508 E9.49621
G1 X41.087 Y10 E9.52172
G1 X41.225 Y9.444 E9.54723
G1 X41.225 Y8.869 E9.57283
G1 X41.087 Y8.315 E9.59825
G1 X40.836 Y7.828 E9.62265
G0 F1782 X40.835 Y7.826
G0 X40.445 Y7.377
G0 F4320 X40.21 Y7.64
G1 F2400 E9.64923
G1 F1980 X39.804 Y7.36 E9.67119
G1 X39.346 Y7.186 E9.693
G1 X38.861 Y7.128 E9.71475
G1 X38.376 Y7.186 E9.7365
G1 X37.918 Y7.36 E9.75832
G1 X37.515 Y7.638 E9.78012
G1 X37.19 Y8.003 E9.80188
G1 X36.964 Y8.438 E9.82371
G1 X36.847 Y8.913 E9.84549
G1 X36.847 Y9.4 E9.86717
G1 X36.964 Y9.875 E9.88896
G1 X37.19 Y10.31 E9.91078
G1 X37.515 Y10.675 E9.93255
G1 X37.918 Y10.953 E9.95435
G1 X38.376 Y11.127 E9.97616
G1 X38.861 Y11.184 E9.99791
G1 X39.346 Y11.127 E10.01965
G1 X39.804 Y10.953 E10.04146
G1 X40.207 Y10.675 E10.06326
G1 X40.531 Y10.308 E10.08506
G1 X40.757 Y9.875 E10.10681
G1 X40.875 Y9.401 E10.12856
G1 X40.875 Y8.912 E10.15034
G1 X40.757 Y8.439 E10.17204
G1 X40.583 Y8.103 E10.18889
G0 F1782 X40.543 Y8.024
G0 X40.21 Y7.64
G1 F2400 E7.68889
G0 F4320 X40.653 Y8.478
G0 X40.764 Y9.386
G0 X40.438 Y10.245
G0 X39.752 Y10.854
G0 X37.172 Y11.065
G0 X38.309 Y9.779
G0 X33.113 Y14.826
G0 X34.224 Y13.624
G0 X33.86 Y13.99
G1 F2400 E10.21547
G1 F1980 X33.454 Y13.71 E10.23743
G1 X32.996 Y13.536 E10.25925
G1 X32.511 Y13.478 E10.281
G1 X32.026 Y13.536 E10.30275
G1 X31.568 Y13.71 E10.32456
G1 X31.165 Y13.988 E10.34636
G1 X30.84 Y14.353 E10.36812
G1 X30.614 Y14.788 E10.38995
G1 X30.497 Y15.263 E10.41173
G1 X30.497 Y15.75 E10.43342
G1 X30.614 Y16.225 E10.4552
G1 X30.84 Y16.66 E10.47703
G1 X31.165 Y17.025 E10.49879
G1 X31.568 Y17.303 E10.52059
G1 X32.026 Y17.477 E10.54241
G1 X32.511 Y17.534 E10.56415
G1 X32.996 Y17.477 E10.58589
G1 X33.454 Y17.303 E10.60771
G1 X33.857 Y17.025 E10.62951
G1 X34.181 Y16.658 E10.65131
G1 X34.407 Y16.225 E10.67306
G1 X34.525 Y15.751 E10.69481
G1 X34.525 Y15.262 E10.71658
G1 X34.407 Y14.789 E10.73829
G1 X34.233 Y14.453 E10.75513
G0 F1782 X34.193 Y14.374
G0 X33.86 Y13.99
G1 F2400 E8.25513
G0 F4320 X34.218 Y14.668
G0 X34.893 Y16.409
G0 X33.287 Y15.8
G0 X38.384 Y21.086
G0 X37.676 Y19.6
G0 X39.006 Y19.919
G0 X40.21 Y20.34
G1 F2400 E10.78172
G1 F1980 X39.804 Y20.06 E10.80368
G1 X39.346 Y19.886 E10.82549
G1 X38.861 Y19.828 E10.84724
G1 X38.376 Y19.886 E10.86899
G1 X37.918 Y20.06 E10.89081
G1 X37.515 Y20.338 E10.91261
G1 X37.19 Y20.703 E10.93437
G1 X36.964 Y21.138 E10.9562
G1 X36.847 Y21.613 E10.97798
G1 X36.847 Y22.1 E10.99966
G1 X36.964 Y22.575 E11.02145
G1 X37.19 Y23.01 E11.04327
G1 X37.515 Y23.375 E11.06503
G1 X37.918 Y23.653 E11.08683
G1 X38.376 Y23.827 E11.10865
G1 X38.861 Y23.884 E11.13039
G1 X39.346 Y23.827 E11.15214
G1 X39.804 Y23.653 E11.17395
G1 X40.207 Y23.375 E11.19575
G1 X40.531 Y23.008 E11.21755
G1 X40.757 Y22.575 E11.2393
G1 X40.875 Y22.101 E11.26105
G1 X40.875 Y21.612 E11.28282
G1 X40.757 Y21.139 E11.30453
G1 X40.583 Y20.803 E11.32138
G0 F1782 X40.543 Y20.724
G0 X40.21 Y20.34
G1 F2400 E8.82138
G0 F4320 X39.408 Y21.231
G0 X44.602 Y16.182
G0 X43.458 Y17.371
G0 X43.308 Y15.277
G0 X43.633 Y14.417
G0 X44.32 Y13.809
G0 X45.211 Y13.589
G0 X46.56 Y13.99
G1 F2400 E11.34796
G1 F1980 X46.154 Y13.71 E11.36992
G1 X45.696 Y13.536 E11.39174
G1 X45.211 Y13.478 E11.41349
G1 X44.726 Y13.536 E11.43524
G1 X44.268 Y13.71 E11.45705
G1 X43.865 Y13.988 E11.47885
G1 X43.54 Y14.353 E11.50061
G1 X43.314 Y14.788 E11.52244
G1 X43.197 Y15.263 E11.54422
G1 X43.197 Y15.75 E11.56591
G1 X43.314 Y16.225 E11.58769
G1 X43.54 Y16.66 E11.60952
G1 X43.865 Y17.025 E11.63128
G1 X44.268 Y17.303 E11.65308
G1 X44.726 Y17.477 E11.67489
G1 X45.211 Y17.534 E11.69664
G1 X45.696 Y17.477 E11.71838
G1 X46.154 Y17.303 E11.7402
G1 X46.557 Y17.025 E11.762
G1 X46.881 Y16.658 E11.7838
G1 X47.107 Y16.225 E11.80554
G1 X47.225 Y15.751 E11.82729
G1 X47.225 Y15.262 E11.84907
G1 X47.107 Y14.789 E11.87077
G1 X46.933 Y14.453 E11.88762
G0 F1782 X46.893 Y14.374
G0 X46.56 Y13.99
G1 F2400 E9.38762
G0 F4320 X47.003 Y14.828
G0 X47.31 Y16.953
G0 X45.893 Y15.981
G0 X50.723 Y21.103
G0 X50.788 Y19.486
G0 X49.336 Y19.981
G1 F2400 E11.9142
G1 F1980 X49.336 Y24.981 E12.13684
G1 X28.386 Y24.981 E13.06968
G1 X28.386 Y19.981 E13.29232
G1 X8.386 Y19.981 E14.18286
G1 X8.386 Y11.031 E14.58137
G1 X28.386 Y11.031 E15.47191
G1 X28.386 Y6.031 E15.69455
G1 X49.336 Y6.031 E16.62739
G1 X49.336 Y11.031 E16.85002
G1 X69.336 Y11.031 E17.74056
G1 X69.336 Y19.981 E18.13908
G1 X49.933 Y19.981 E19.00304
G0 F1782 X49.336 Y19.981
G0 F4320 X49.661 Y20.306
;TYPE:WALL-OUTER
G1 F2400 E19.02962
G1 F1980 X49.661 Y25.306 E19.25226
G1 X28.061 Y25.306 E20.21404
G1 X28.061 Y20.306 E20.43667
G1 X8.061 Y20.306 E21.32721
G1 X8.061 Y10.706 E21.75467
G1 X28.061 Y10.706 E22.64521
G1 X28.061 Y5.706 E22.86785
G1 X49.661 Y5.706 E23.82963
G1 X49.661 Y10.706 E24.05227
G1 X69.661 Y10.706 E24.94281
G1 X69.661 Y20.306 E25.37027
G1 X50.258 Y20.306 E26.23422
G0 F1782 X49.661 Y20.306
G0 F4320 X49.661 Y20.506
G1 F2400 E23.73422
G0 F4320 X49.386 Y20.506
G0 X50.788 Y19.486
G0 X50.788 Y21.171
G0 X45.946 Y16.038
G0 X47.31 Y16.953
G0 X47.114 Y15.277
G0 X46.497 Y14.009
G0 X46.341 Y14.234
G1 F2400 E26.26081
G1 F1980 X46.002 Y14 E26.27915
G1 X45.618 Y13.854 E26.29744
G1 X45.211 Y13.805 E26.31569
G1 X44.804 Y13.854 E26.33395
G1 X44.42 Y14 E26.35224
G1 X44.082 Y14.233 E26.37052
G1 X43.81 Y14.539 E26.38875
G1 X43.62 Y14.904 E26.40707
G1 X43.522 Y15.302 E26.42532
G1 X43.522 Y15.711 E26.44353
G1 X43.62 Y16.109 E26.46179
G1 X43.81 Y16.474 E26.48011
G1 X44.082 Y16.78 E26.49834
G1 X44.42 Y17.013 E26.51662
G1 X44.804 Y17.159 E26.53491
G1 X45.211 Y17.207 E26.55316
G1 X45.618 Y17.159 E26.57141
G1 X46.002 Y17.013 E26.5897
G1 X46.34 Y16.78 E26.60798
G1 X46.611 Y16.473 E26.62621
G1 X46.801 Y16.109 E26.64449
G1 X46.9 Y15.711 E26.66276
G1 X46.9 Y15.302 E26.68097
G1 X46.801 Y14.904 E26.69923
G1 X46.699 Y14.708 E26.70907
G0 F1782 X46.622 Y14.558
G0 X46.341 Y14.234
G0 F4320 X46.177 Y14.121
G1 F2400 E24.20907
G0 F4320 X46.333 Y13.895
G0 X45.669 Y13.645
G0 X44.753 Y13.645
G0 X43.939 Y14.072
G0 X43.418 Y14.828
G0 X43.479 Y17.395
G0 X44.659 Y16.129
G0 X39.462 Y21.176
G0 X40.556 Y19.952
G0 X39.991 Y20.584
G1 F2400 E26.73565
G1 F1980 X39.652 Y20.35 E26.75399
G1 X39.268 Y20.204 E26.77228
G1 X38.861 Y20.155 E26.79054
G1 X38.454 Y20.204 E26.80879
G1 X38.07 Y20.35 E26.82708
G1 X37.732 Y20.583 E26.84536
G1 X37.46 Y20.889 E26.86359
G1 X37.27 Y21.254 E26.88192
G1 X37.172 Y21.652 E26.90017
G1 X37.172 Y22.061 E26.91838
G1 X37.27 Y22.459 E26.93663
G1 X37.46 Y22.824 E26.95495
G1 X37.732 Y23.13 E26.97318
G1 X38.07 Y23.363 E26.99146
G1 X38.454 Y23.509 E27.00975
G1 X38.861 Y23.557 E27.028
G1 X39.268 Y23.509 E27.04625
G1 X39.652 Y23.363 E27.06454
G1 X39.99 Y23.13 E27.08282
G1 X40.261 Y22.823 E27.10106
G1 X40.451 Y22.459 E27.11934
G1 X40.55 Y22.061 E27.1376
G1 X40.55 Y21.652 E27.15581
G1 X40.451 Y21.254 E27.17407
G1 X40.349 Y21.058 E27.18391
G0 F1782 X40.272 Y20.908
G0 X39.991 Y20.584
G0 F4320 X39.827 Y20.471
G1 F2400 E24.68391
G0 F4320 X39.983 Y20.245
G0 X38.252 Y19.382
G0 X38.44 Y21.144
G0 X33.342 Y15.858
G0 X34.893 Y16.409
G0 X34.303 Y14.828
G0 X33.797 Y14.009
G0 X33.641 Y14.234
G1 F2400 E27.2105
G1 F1980 X33.302 Y14 E27.22884
G1 X32.918 Y13.854 E27.24713
G1 X32.511 Y13.805 E27.26538
G1 X32.104 Y13.854 E27.28364
G1 X31.72 Y14 E27.30193
G1 X31.382 Y14.233 E27.32021
G1 X31.11 Y14.539 E27.33844
G1 X30.92 Y14.904 E27.35676
G1 X30.822 Y15.302 E27.37501
G1 X30.822 Y15.711 E27.39322
G1 X30.92 Y16.109 E27.41147
G1 X31.11 Y16.474 E27.4298
G1 X31.382 Y16.78 E27.44803
G1 X31.72 Y17.013 E27.46631
G1 X32.104 Y17.159 E27.4846
G1 X32.511 Y17.207 E27.50285
G1 X32.918 Y17.159 E27.5211
G1 X33.302 Y17.013 E27.53939
G1 X33.64 Y16.78 E27.55767
G1 X33.911 Y16.473 E27.5759
G1 X34.101 Y16.109 E27.59418
G1 X34.2 Y15.711 E27.61245
G1 X34.2 Y15.302 E27.63066
G1 X34.101 Y14.904 E27.64892
G1 X33.999 Y14.708 E27.65876
G0 F1782 X33.922 Y14.558
G0 X33.641 Y14.234
G0 F4320 X33.477 Y14.121
G1 F2400 E25.15876
G0 F4320 X33.633 Y13.895
G0 X33.058 Y14.881
G0 X38.252 Y9.832
G0 X37.108 Y11.021
G0 X37.068 Y9.835
G0 X36.958 Y8.927
G0 X37.283 Y8.067
G0 X37.97 Y7.459
G0 X38.861 Y7.239
G0 X40.147 Y7.659
G0 X39.991 Y7.884
G1 F2400 E27.68534
G1 F1980 X39.652 Y7.65 E27.70368
G1 X39.268 Y7.504 E27.72197
G1 X38.861 Y7.455 E27.74023
G1 X38.454 Y7.504 E27.75848
G1 X38.07 Y7.65 E27.77677
G1 X37.732 Y7.883 E27.79505
G1 X37.46 Y8.189 E27.81328
G1 X37.27 Y8.554 E27.83161
G1 X37.172 Y8.952 E27.84986
G1 X37.172 Y9.361 E27.86807
G1 X37.27 Y9.759 E27.88632
G1 X37.46 Y10.124 E27.90464
G1 X37.732 Y10.43 E27.92287
G1 X38.07 Y10.663 E27.94115
G1 X38.454 Y10.809 E27.95944
G1 X38.861 Y10.857 E27.97769
G1 X39.268 Y10.809 E27.99594
G1 X39.652 Y10.663 E28.01423
G1 X39.99 Y10.43 E28.03251
G1 X40.261 Y10.123 E28.05075
G1 X40.451 Y9.759 E28.06903
G1 X40.55 Y9.361 E28.08729
G1 X40.55 Y8.952 E28.1055
G1 X40.451 Y8.554 E28.12376
G1 X40.349 Y8.358 E28.1336
G0 F1782 X40.272 Y8.208
G0 X39.991 Y7.884
G0 F4320 X39.827 Y7.771
G0 X39.983 Y7.545
G0 X40.674 Y7.122
;TYPE:SKIN
G1 F2400 E28.16018
G1 F1980 X40.127 Y6.745 E28.18977
G1 X40.064 Y6.721 E28.19277
G1 X48.646 Y6.721 E28.5749
G1 X48.646 Y11.721 E28.79753
G1 X68.646 Y11.721 E29.68807
G1 X68.646 Y19.291 E30.02514
G1 X48.646 Y19.291 E30.91568
G1 X48.646 Y24.291 E31.13832
G1 X40.067 Y24.291 E31.52032
G1 X40.127 Y24.268 E31.52318
G1 X40.668 Y23.895 E31.55244
G1 X41.104 Y23.402 E31.58174
G1 X41.407 Y22.821 E31.61092
G1 X41.565 Y22.185 E31.6401
G1 X41.565 Y21.528 E31.66935
G1 X41.407 Y20.895 E31.6984
G1 X41.119 Y20.334 E31.72648
G1 X40.674 Y19.822 E31.75669
G1 X40.127 Y19.445 E31.78627
G1 X39.512 Y19.212 E31.81555
G1 X38.861 Y19.134 E31.84475
G1 X38.21 Y19.212 E31.87394
G1 X37.595 Y19.445 E31.90322
G1 X37.055 Y19.818 E31.93245
G1 X36.618 Y20.309 E31.96171
G1 X36.314 Y20.893 E31.99103
G1 X36.157 Y21.53 E32.02024
G1 X36.157 Y22.183 E32.04932
G1 X36.314 Y22.82 E32.07853
G1 X36.618 Y23.404 E32.10785
G1 X37.055 Y23.895 E32.13711
G1 X37.595 Y24.268 E32.16634
G1 X37.655 Y24.291 E32.1692
G1 X29.076 Y24.291 E32.5512
G1 X29.076 Y19.291 E32.77383
G1 X9.076 Y19.291 E33.66437
G1 X9.076 Y11.721 E34.00144
G1 X29.076 Y11.721 E34.89198
G1 X29.076 Y6.721 E35.11462
G1 X37.658 Y6.721 E35.49675
G1 X37.595 Y6.745 E35.49975
G1 X37.055 Y7.118 E35.52897
G1 X36.618 Y7.609 E35.55824
G1 X36.314 Y8.193 E35.58756
G1 X36.157 Y8.83 E35.61677
G1 X36.157 Y9.483 E35.64584
G1 X36.314 Y10.12 E35.67506
G1 X36.618 Y10.704 E35.70437
G1 X37.055 Y11.195 E35.73364
G1 X37.595 Y11.568 E35.76286
G1 X38.211 Y11.803 E35.79222
G1 X38.861 Y11.878 E35.82135
G1 X39.511 Y11.803 E35.85049
G1 X40.127 Y11.568 E35.87985
G1 X40.668 Y11.195 E35.90911
G1 X41.104 Y10.702 E35.93841
G1 X41.407 Y10.121 E35.96759
G1 X41.565 Y9.485 E35.99677
G1 X41.565 Y8.828 E36.02602
G1 X41.407 Y8.195 E36.05507
G1 X41.119 Y7.634 E36.08315
G1 X41.065 Y7.572 E36.08681
G0 F1782 X40.674 Y7.122
G1 F2400 E33.58681
G0 F4320 X40.501 Y7.312
G0 X41.243 Y10.059
G0 X39.637 Y9.45
G0 X44.604 Y14.825
G0 X43.633 Y13.522
G0 X43.405 Y13.468
G1 F2400 E36.1134
G1 F1980 X42.968 Y13.959 E36.14266
G1 X42.664 Y14.543 E36.17198
G1 X42.507 Y15.18 E36.20119
G1 X42.507 Y15.833 E36.23027
G1 X42.664 Y16.47 E36.25948
G1 X42.968 Y17.054 E36.2888
G1 X43.405 Y17.545 E36.31806
G1 X43.945 Y17.918 E36.34729
G1 X44.561 Y18.153 E36.37664
G1 X45.211 Y18.228 E36.40578
G1 X45.861 Y18.153 E36.43491
G1 X46.477 Y17.918 E36.46427
G1 X47.018 Y17.545 E36.49353
G1 X47.454 Y17.052 E36.52283
G1 X47.757 Y16.471 E36.55201
G1 X47.915 Y15.835 E36.58119
G1 X47.915 Y15.178 E36.61045
G1 X47.757 Y14.545 E36.6395
G1 X47.469 Y13.984 E36.66757
G1 X47.024 Y13.472 E36.69778
G1 X46.477 Y13.095 E36.72736
G1 X45.862 Y12.862 E36.75664
G1 X45.211 Y12.784 E36.78584
