;FLAVOR:Marlin
;TIME:5857
;Filament used: 7.17141m
;Layer height: 0.30625
;MINX:2.917
;MINY:4.033
;MINZ:0.306
;MAXX:66.492
;MAXY:64.082
;MAXZ:29.988
;Generated with Cura_SteamEngine 4.2.1
M140 S65
M105
M190 S65
M104 S205
M105
M109 S205
M82 ;absolute extrusion mode
G21;(metric values)
G90;(absolute positioning)
M82;(set extruder to absolute mode)
M107;(start with the fan off)
G28;(Home the printer)
G92 E0;(Reset the extruder to 0)
G0 Z5 E5 F500;(Move up and prime the nozzle)
G0 X-1 Z0;(Move outside the printable area)
G1 Y60 E8 F500;(Draw a priming/wiping line to the rear)
G1 X-1;(Move a little closer to the print area)
G1 Y10 E16 F500;(draw more priming/wiping)
G1 E15 F250;(Small retract)
G92 E0;(Zero the extruder)
M141 S28
G92 E0
G92 E0
G1 F2400 E-2.5
;LAYER_COUNT:98
;LAYER:0
M107
;MESH:Gripper-V-4-1.stl
G0 F4320 X4.883 Y13.823 Z0.306
;TYPE:WALL-INNER
G1 F2400 E0
G1 F1980 X4.708 Y13.823 E0.00779
G1 X4.708 Y13.648 E0.01283
G1 X4.709 Y5.573 E0.37239
G1 X65.278 Y5.573 E3.06935
G1 X65.278 Y13.823 E3.43669
G1 X5.48 Y13.823 E6.09932
G0 F1782 X4.883 Y13.823
G1 F2400 E3.59932
G0 F4320 X24.553 Y13.673
G0 X29.212 Y13.638
G0 X29.044 Y12.216
G0 X29.534 Y11.395
G0 X30.224 Y10.781
G0 X30.546 Y9.927
G0 X30.437 Y9.019
G0 X29.212 Y7.384
G1 F2400 E6.1259
G1 F1980 X28.643 Y7.318 E6.15141
G1 X28.074 Y7.384 E6.17691
G1 X27.536 Y7.589 E6.20255
G1 X27.064 Y7.915 E6.22809
G1 X26.683 Y8.344 E6.25364
G1 X26.417 Y8.854 E6.27925
G1 X26.279 Y9.41 E6.30476
G1 X26.279 Y9.985 E6.33036
G1 X26.417 Y10.541 E6.35587
G1 X26.683 Y11.051 E6.38148
G1 X27.066 Y11.48 E6.40709
G1 X27.543 Y11.809 E6.43289
G1 X28.08 Y12.012 E6.45845
G1 X28.643 Y12.078 E6.4837
G1 X29.212 Y12.01 E6.50921
G1 X29.75 Y11.806 E6.53483
G1 X30.223 Y11.48 E6.56041
G1 X30.608 Y11.044 E6.58631
G1 X30.87 Y10.54 E6.6116
G1 X31.007 Y9.983 E6.63714
G1 X31.007 Y9.412 E6.66257
G1 X30.871 Y8.856 E6.68805
G1 X30.609 Y8.352 E6.71335
G1 X30.223 Y7.915 E6.73931
G1 X29.768 Y7.601 E6.76393
G0 F1782 X29.75 Y7.589
G0 X29.212 Y7.384
G1 F2400 E4.26393
G0 F4320 X30.334 Y7.79
G0 X29.194 Y9.074
G0 X40.699 Y9.075
G0 X39.653 Y7.789
G0 X41.912 Y7.384
G1 F2400 E6.79051
G1 F1980 X41.343 Y7.318 E6.81601
G1 X40.774 Y7.384 E6.84152
G1 X40.236 Y7.589 E6.86716
G1 X39.764 Y7.915 E6.8927
G1 X39.383 Y8.344 E6.91825
G1 X39.117 Y8.854 E6.94386
G1 X38.979 Y9.41 E6.96937
G1 X38.979 Y9.985 E6.99497
G1 X39.117 Y10.541 E7.02048
G1 X39.383 Y11.051 E7.04609
G1 X39.766 Y11.48 E7.0717
G1 X40.243 Y11.809 E7.0975
G1 X40.78 Y12.012 E7.12306
G1 X41.343 Y12.078 E7.1483
G1 X41.912 Y12.01 E7.17382
G1 X42.45 Y11.806 E7.19944
G1 X42.923 Y11.48 E7.22502
G1 X43.308 Y11.044 E7.25091
G1 X43.57 Y10.54 E7.27621
G1 X43.707 Y9.983 E7.30175
G1 X43.707 Y9.412 E7.32717
G1 X43.571 Y8.856 E7.35266
G1 X43.309 Y8.352 E7.37795
G1 X42.923 Y7.915 E7.40391
G1 X42.468 Y7.601 E7.42853
G0 F1782 X42.45 Y7.589
G0 X41.912 Y7.384
G0 F4320 X40.452 Y8
G0 X39.766 Y8.608
G0 X39.44 Y9.468
G0 X39.673 Y10.851
G1 F2400 E7.45511
G1 F1980 X39.999 Y11.216 E7.4769
G1 X40.406 Y11.497 E7.49893
G1 X40.863 Y11.669 E7.52067
G1 X41.343 Y11.726 E7.54219
G1 X41.828 Y11.668 E7.56394
G1 X42.286 Y11.494 E7.58576
G1 X42.689 Y11.216 E7.60756
G1 X43.017 Y10.844 E7.62964
G1 X43.24 Y10.416 E7.65113
G1 X43.357 Y9.941 E7.67291
G1 X43.357 Y9.454 E7.6946
G1 X43.241 Y8.98 E7.71632
G1 X43.018 Y8.552 E7.73781
G1 X42.689 Y8.179 E7.75996
G1 X42.286 Y7.901 E7.78176
G1 X41.828 Y7.727 E7.80358
G1 X41.343 Y7.67 E7.82532
G1 X40.858 Y7.727 E7.84706
G1 X40.4 Y7.901 E7.86888
G1 X39.998 Y8.179 E7.89064
G1 X39.673 Y8.544 E7.9124
G1 X39.447 Y8.979 E7.93423
G1 X39.329 Y9.453 E7.95598
G1 X39.329 Y9.942 E7.97775
G1 X39.422 Y10.313 E7.99479
G0 F1782 X39.447 Y10.416
G0 X39.673 Y10.851
G1 F2400 E5.49479
G0 F4320 X38.813 Y10.006
G0 X40.518 Y9.797
G0 X29.546 Y9.797
G0 X31.173 Y10.003
G0 X29.915 Y11.132
G0 X29.101 Y11.559
G0 X28.19 Y11.56
G0 X26.973 Y10.851
G1 F2400 E8.02137
G1 F1980 X27.299 Y11.216 E8.04316
G1 X27.706 Y11.497 E8.06518
G1 X28.163 Y11.669 E8.08692
G1 X28.643 Y11.726 E8.10845
G1 X29.128 Y11.668 E8.1302
G1 X29.586 Y11.494 E8.15201
G1 X29.989 Y11.216 E8.17381
G1 X30.317 Y10.844 E8.19589
G1 X30.54 Y10.416 E8.21738
G1 X30.657 Y9.941 E8.23917
G1 X30.657 Y9.454 E8.26085
G1 X30.541 Y8.98 E8.28258
G1 X30.318 Y8.552 E8.30407
G1 X29.989 Y8.179 E8.32622
G1 X29.586 Y7.901 E8.34801
G1 X29.128 Y7.727 E8.36983
G1 X28.643 Y7.67 E8.39157
G1 X28.158 Y7.727 E8.41332
G1 X27.7 Y7.901 E8.43513
G1 X27.298 Y8.179 E8.4569
G1 X26.973 Y8.544 E8.47866
G1 X26.747 Y8.979 E8.50049
G1 X26.629 Y9.453 E8.52224
G1 X26.629 Y9.942 E8.54401
G1 X26.722 Y10.313 E8.56104
G0 F1782 X26.747 Y10.416
G0 X26.973 Y10.851
G1 F2400 E6.06104
G0 F4320 X26.113 Y10.006
G0 X27.818 Y9.797
G0 X26.136 Y15.284
G0 X26.113 Y13.638
G0 X4.533 Y14.173
G1 F2400 E8.58762
G1 F1980 X4.358 Y14.173 E8.59542
G1 X4.358 Y13.998 E8.60046
G1 X4.359 Y5.223 E8.99118
G1 X65.628 Y5.223 E11.71931
G1 X65.628 Y14.173 E12.11782
G1 X5.13 Y14.173 E14.81162
G0 F1782 X4.533 Y14.173
G0 F4320 X4.208 Y14.498
;TYPE:WALL-OUTER
G1 F2400 E14.8382
G1 F1980 X4.033 Y14.498 E14.84599
G1 X4.033 Y14.323 E14.85104
G1 X4.034 Y4.898 E15.2707
G1 X65.953 Y4.898 E18.02777
G1 X65.953 Y14.498 E18.45523
G1 X4.805 Y14.498 E21.17797
G0 F1782 X4.208 Y14.498
G0 F4320 X4.033 Y14.498
G0 X4.033 Y14.473
G1 F2400 E18.67797
G0 F4320 X4.308 Y14.253
G0 X27 Y13.638
G0 X27.466 Y11.957
G0 X27 Y10.792
G0 X27.243 Y10.665
G1 F2400 E21.20455
G1 F1980 X27.516 Y10.971 E21.22281
G1 X27.858 Y11.207 E21.24131
G1 X28.241 Y11.351 E21.25953
G1 X28.643 Y11.399 E21.27756
G1 X29.05 Y11.35 E21.29581
G1 X29.434 Y11.204 E21.3141
G1 X29.772 Y10.971 E21.33238
G1 X30.047 Y10.659 E21.3509
G1 X30.234 Y10.3 E21.36893
G1 X30.332 Y9.902 E21.38718
G1 X30.332 Y9.493 E21.40539
G1 X30.235 Y9.095 E21.42363
G1 X30.048 Y8.737 E21.44161
G1 X29.772 Y8.424 E21.4602
G1 X29.434 Y8.191 E21.47847
G1 X29.05 Y8.045 E21.49677
G1 X28.643 Y7.997 E21.51502
G1 X28.236 Y8.045 E21.53326
G1 X27.852 Y8.191 E21.55156
G1 X27.515 Y8.424 E21.5698
G1 X27.243 Y8.73 E21.58803
G1 X27.053 Y9.095 E21.60635
G1 X26.954 Y9.493 E21.62461
G1 X26.954 Y9.902 E21.64282
G1 X27.009 Y10.12 E21.65284
G0 F1782 X27.053 Y10.3
G0 X27.243 Y10.665
G0 F4320 X27.376 Y10.814
G1 F2400 E19.15284
G0 F4320 X27.171 Y10.996
G0 X27.758 Y11.398
G0 X28.643 Y11.615
G0 X29.534 Y11.395
G0 X31.173 Y10.003
G0 X29.468 Y9.798
G0 X40.438 Y9.796
G0 X38.813 Y10.006
G0 X39.7 Y10.792
G0 X39.943 Y10.665
G1 F2400 E21.67942
G1 F1980 X40.216 Y10.971 E21.69768
G1 X40.558 Y11.207 E21.71618
G1 X40.941 Y11.351 E21.7344
G1 X41.343 Y11.399 E21.75243
G1 X41.75 Y11.35 E21.77068
G1 X42.134 Y11.204 E21.78897
G1 X42.472 Y10.971 E21.80725
G1 X42.747 Y10.659 E21.82577
G1 X42.934 Y10.3 E21.84379
G1 X43.032 Y9.902 E21.86205
G1 X43.032 Y9.493 E21.88026
G1 X42.935 Y9.095 E21.8985
G1 X42.748 Y8.737 E21.91648
G1 X42.472 Y8.424 E21.93506
G1 X42.134 Y8.191 E21.95334
G1 X41.75 Y8.045 E21.97164
G1 X41.343 Y7.997 E21.98988
G1 X40.936 Y8.045 E22.00813
G1 X40.552 Y8.191 E22.02642
G1 X40.215 Y8.424 E22.04467
G1 X39.943 Y8.73 E22.0629
G1 X39.753 Y9.095 E22.08122
G1 X39.654 Y9.493 E22.09948
G1 X39.654 Y9.902 E22.11769
G1 X39.709 Y10.12 E22.1277
G0 F1782 X39.753 Y10.3
G0 X39.943 Y10.665
G0 F4320 X40.076 Y10.814
G0 X39.871 Y10.996
G0 X39.101 Y11.246
;TYPE:SKIN
G1 F2400 E22.15429
G1 F1980 X39.539 Y11.737 E22.18358
G1 X40.084 Y12.112 E22.21304
G1 X40.699 Y12.345 E22.24232
G1 X41.343 Y12.42 E22.27119
G1 X41.994 Y12.342 E22.30039
G1 X42.609 Y12.109 E22.32967
G1 X43.15 Y11.736 E22.35893
G1 X43.59 Y11.238 E22.38852
G1 X43.891 Y10.661 E22.4175
G1 X44.047 Y10.024 E22.4467
G1 X44.047 Y9.371 E22.47578
G1 X43.892 Y8.735 E22.50492
G1 X43.591 Y8.158 E22.5339
G1 X43.15 Y7.659 E22.56356
G1 X42.609 Y7.286 E22.59281
G1 X41.993 Y7.051 E22.62217
G1 X41.343 Y6.976 E22.65131
G1 X40.693 Y7.051 E22.68044
G1 X40.077 Y7.286 E22.7098
G1 X39.537 Y7.659 E22.73902
G1 X39.101 Y8.15 E22.76826
G1 X38.797 Y8.733 E22.79754
G1 X38.639 Y9.369 E22.82672
G1 X38.639 Y10.026 E22.85597
G1 X38.797 Y10.662 E22.88515
G1 X38.826 Y10.717 E22.88792
G0 F1782 X39.101 Y11.246
G1 F2400 E20.38792
G0 F4320 X39.312 Y11.1
G0 X38.813 Y10.006
G0 X40.518 Y9.797
G0 X29.546 Y9.797
G0 X31.173 Y10.003
G0 X31.347 Y10.024
G1 F2400 E22.9145
G1 F1980 X31.347 Y9.371 E22.94358
G1 X31.192 Y8.735 E22.97272
G1 X30.891 Y8.158 E23.0017
G1 X30.45 Y7.659 E23.03136
G1 X29.909 Y7.286 E23.06061
G1 X29.293 Y7.051 E23.08997
G1 X28.643 Y6.976 E23.11911
G1 X27.993 Y7.051 E23.14824
G1 X27.377 Y7.286 E23.1776
G1 X26.837 Y7.659 E23.20682
G1 X26.401 Y8.15 E23.23606
G1 X26.097 Y8.733 E23.26534
G1 X25.939 Y9.369 E23.29452
G1 X25.939 Y10.026 E23.32377
G1 X26.097 Y10.662 E23.35295
G1 X26.401 Y11.246 E23.38227
G1 X26.839 Y11.737 E23.41156
G1 X27.384 Y12.112 E23.44102
G1 X27.999 Y12.345 E23.4703
G1 X28.643 Y12.42 E23.49917
G1 X29.294 Y12.342 E23.52837
G1 X29.909 Y12.109 E23.55765
G1 X30.45 Y11.736 E23.58691
G1 X30.89 Y11.238 E23.6165
G1 X31.191 Y10.661 E23.64548
G1 X31.205 Y10.604 E23.64809
G0 F1782 X31.347 Y10.024
G1 F2400 E21.14809
G0 F4320 X31.092 Y9.993
G0 X29.468 Y9.798
G0 X31.148 Y15.284
G0 X31.173 Y13.638
G0 X65.052 Y13.482
G0 X64.938 Y13.483
G1 F2400 E23.67467
G1 F1980 X5.048 Y13.483 E26.3414
G1 X5.049 Y5.913 E26.67847
G1 X64.938 Y5.913 E29.34514
G1 X64.938 Y12.886 E29.65563
G0 F1782 X64.938 Y13.483
G0 F4320 X65.193 Y13.483
G0 X65.193 Y6.373
G0 X64.78 Y6.373
G1 F2400 E29.68221
G1 F1980 X64.477 Y6.07 E29.70129
G0 F4320 X63.982 Y6.07
G1 F1980 X64.78 Y6.868 E29.75154
G0 F4320 X64.78 Y7.363
G1 F1980 X63.487 Y6.07 E29.83296
G0 F4320 X62.992 Y6.07
G1 F1980 X64.78 Y7.858 E29.94556
G0 F4320 X64.78 Y8.353
G1 F1980 X62.497 Y6.07 E30.08932
G0 F4320 X62.002 Y6.07
G1 F1980 X64.78 Y8.848 E30.26425
G0 F4320 X64.78 Y9.343
G1 F1980 X61.507 Y6.07 E30.47035
G0 F4320 X61.012 Y6.07
G1 F1980 X64.78 Y9.837 E30.7076
G0 F4320 X64.78 Y10.332
G1 F1980 X60.517 Y6.07 E30.97601
G0 F4320 X60.022 Y6.07
G1 F1980 X64.78 Y10.827 E31.27559
G0 F4320 X64.78 Y11.322
G1 F1980 X59.527 Y6.07 E31.60635
G0 F4320 X59.032 Y6.07
G1 F1980 X64.78 Y11.817 E31.96827
G0 F4320 X64.78 Y12.312
G1 F1980 X58.537 Y6.07 E32.36136
G0 F4320 X58.042 Y6.07
G1 F1980 X64.78 Y12.807 E32.78563
G0 F4320 X64.78 Y13.302
G1 F1980 X57.547 Y6.07 E33.24106
G0 F4320 X57.052 Y6.07
G1 F1980 X64.307 Y13.325 E33.69792
G0 F4320 X63.812 Y13.325
G1 F1980 X56.557 Y6.07 E34.15477
G0 F4320 X56.062 Y6.07
G1 F1980 X63.317 Y13.325 E34.61162
G0 F4320 X62.822 Y13.325
G1 F1980 X55.567 Y6.07 E35.06847
G0 F4320 X55.073 Y6.07
G1 F1980 X62.327 Y13.325 E35.5253
G0 F4320 X61.832 Y13.325
G1 F1980 X54.578 Y6.07 E35.98212
G0 F4320 X54.083 Y6.07
G1 F1980 X61.337 Y13.325 E36.43894
G0 F4320 X60.843 Y13.325
G1 F1980 X53.588 Y6.07 E36.89579
G0 F4320 X53.093 Y6.07
G1 F1980 X60.348 Y13.325 E37.35264
G0 F4320 X59.853 Y13.325
G1 F1980 X52.598 Y6.07 E37.80949
G0 F4320 X52.103 Y6.07
G1 F1980 X59.358 Y13.325 E38.26635
G0 F4320 X58.863 Y13.325
G1 F1980 X51.608 Y6.07 E38.7232
G0 F4320 X51.113 Y6.07
G1 F1980 X58.368 Y13.325 E39.18005
G0 F4320 X57.873 Y13.325
G1 F1980 X50.618 Y6.07 E39.6369
G0 F4320 X50.123 Y6.07
G1 F1980 X57.378 Y13.325 E40.09376
G0 F4320 X56.883 Y13.325
G1 F1980 X49.628 Y6.07 E40.55061
G0 F4320 X49.133 Y6.07
G1 F1980 X56.388 Y13.325 E41.00746
G0 F4320 X55.893 Y13.325
G1 F1980 X48.638 Y6.07 E41.46431
G0 F4320 X48.143 Y6.07
G1 F1980 X55.398 Y13.325 E41.92117
G0 F4320 X54.903 Y13.325
G1 F1980 X47.648 Y6.07 E42.37802
G0 F4320 X47.153 Y6.07
G1 F1980 X54.408 Y13.325 E42.83487
G0 F4320 X53.913 Y13.325
G1 F1980 X46.658 Y6.07 E43.29172
G0 F4320 X46.163 Y6.07
G1 F1980 X53.418 Y13.325 E43.74858
G0 F4320 X52.923 Y13.325
G1 F1980 X45.668 Y6.07 E44.20543
G0 F4320 X45.173 Y6.07
G1 F1980 X52.428 Y13.325 E44.66228
G0 F4320 X51.933 Y13.325
G1 F1980 X44.678 Y6.07 E45.11913
G0 F4320 X44.183 Y6.07
G1 F1980 X51.438 Y13.325 E45.57598
G0 F4320 X50.943 Y13.325
G1 F1980 X43.688 Y6.07 E46.03284
G0 F4320 X43.193 Y6.07
G1 F1980 X50.448 Y13.325 E46.48969
G0 F4320 X49.953 Y13.325
G1 F1980 X42.698 Y6.07 E46.94654
G0 F4320 X42.203 Y6.07
G1 F1980 X49.458 Y13.325 E47.40339
G0 F4320 X48.963 Y13.325
G1 F1980 X43.736 Y8.098 E47.73254
G1 X43.674 Y8.036
G0 F4320 X43.376 Y8.299
G0 X43.709 Y9.063
G0 X44.11 Y8.966
G1 F1980 X48.468 Y13.325 E48.007
G0 F4320 X47.973 Y13.325
G1 F1980 X44.203 Y9.555 E48.2444
G0 F4320 X44.201 Y10.048
G1 F1980 X47.478 Y13.325 E48.45075
G0 F4320 X46.983 Y13.325
G1 F1980 X44.104 Y10.446 E48.63205
G0 F4320 X43.983 Y10.82
G1 F1980 X46.488 Y13.325 E48.78979
G0 F4320 X45.993 Y13.325
G1 F1980 X43.814 Y11.146 E48.927
G0 F4320 X43.617 Y11.443
G1 F1980 X45.498 Y13.325 E49.04548
G0 F4320 X45.003 Y13.325
G1 F1980 X43.384 Y11.706 E49.14743
G0 F4320 X43.126 Y11.943
G1 F1980 X44.508 Y13.325 E49.23446
G0 F4320 X44.013 Y13.325
G1 F1980 X42.833 Y12.145 E49.30876
G0 F4320 X42.508 Y12.314
G1 F1980 X43.518 Y13.325 E49.37239
G0 F4320 X43.023 Y13.325
G1 F1980 X42.149 Y12.45 E49.42746
G0 F4320 X41.734 Y12.531
G1 F1980 X42.528 Y13.325 E49.47746
G0 F4320 X42.033 Y13.325
G1 F1980 X41.279 Y12.57 E49.52497
G0 F4320 X40.718 Y12.505
G1 F1980 X41.538 Y13.325 E49.57661
G0 F4320 X41.044 Y13.325
G1 F1980 X39.886 Y12.167 E49.64953
G1 X39.824 Y12.105
G1 F2400 E47.14953
G0 F4320 X40.05 Y11.78
G0 X40.659 Y12.144
G0 X40.659 Y13.638
G0 X40.054 Y13.325
G1 F2400 E49.64953
G1 F1980 X32.798 Y6.069 E50.10644
G0 F4320 X33.293 Y6.069
G1 F1980 X40.549 Y13.325 E50.56336
G1 X40.611 Y13.387
G0 F4320 X40.611 Y13.738
G0 X39.559 Y13.738
G0 X39.559 Y13.325
G1 F1980 X32.303 Y6.069 E51.02027
G0 F4320 X31.808 Y6.069
G1 F1980 X39.064 Y13.325 E51.47719
G0 F4320 X38.569 Y13.325
G1 F1980 X31.313 Y6.069 E51.9341
G0 F4320 X30.818 Y6.069
G1 F1980 X38.074 Y13.325 E52.39102
G0 F4320 X37.579 Y13.325
G1 F1980 X30.323 Y6.069 E52.84794
G0 F4320 X29.828 Y6.069
G1 F1980 X37.084 Y13.325 E53.30485
G0 F4320 X36.589 Y13.325
G1 F1980 X29.333 Y6.069 E53.76177
G0 F4320 X28.838 Y6.069
G1 F1980 X29.873 Y7.104 E53.82694
G1 X29.935 Y7.166
G0 F4320 X29.15 Y6.876
G1 F1980 X28.343 Y6.069 E53.87776
G0 F4320 X27.848 Y6.069
G1 F1980 X28.601 Y6.822 E53.92518
G0 F4320 X28.157 Y6.873
G1 F1980 X27.353 Y6.069 E53.9758
G0 F4320 X26.858 Y6.069
G1 F1980 X27.76 Y6.971 E54.0326
G0 F4320 X27.401 Y7.107
G1 F1980 X26.363 Y6.069 E54.09797
G0 F4320 X25.868 Y6.069
G1 F1980 X27.09 Y7.291 E54.17492
G0 F4320 X26.797 Y7.493
G1 F1980 X25.373 Y6.069 E54.26459
G0 F4320 X24.878 Y6.069
G1 F1980 X26.551 Y7.742 E54.36994
G0 F4320 X26.319 Y8.005
G1 F1980 X24.383 Y6.069 E54.49185
G0 F4320 X23.888 Y6.069
G1 F1980 X26.136 Y8.316 E54.63337
G0 F4320 X25.966 Y8.642
G1 F1980 X23.393 Y6.069 E54.7954
G0 F4320 X22.898 Y6.069
G1 F1980 X25.86 Y9.031 E54.98192
G0 F4320 X25.781 Y9.446
G1 F1980 X22.403 Y6.069 E55.1946
G0 F4320 X21.908 Y6.069
G1 F1980 X25.781 Y9.941 E55.43846
G0 F4320 X25.91 Y10.566
G1 F1980 X21.414 Y6.069 E55.7216
G0 F4320 X20.919 Y6.069
G1 F1980 X28.174 Y13.325 E56.17849
G0 F4320 X28.669 Y13.325
G1 F1980 X27.771 Y12.427 E56.23503
G0 F4320 X28.387 Y12.548
G1 F1980 X29.164 Y13.325 E56.28396
G0 F4320 X29.659 Y13.325
G1 F1980 X28.883 Y12.549 E56.33283
G0 F4320 X29.325 Y12.496
G1 F1980 X30.154 Y13.325 E56.38503
G0 F4320 X30.649 Y13.325
G1 F1980 X29.685 Y12.361 E56.44573
G0 F4320 X30.033 Y12.214
G1 F1980 X31.144 Y13.325 E56.5157
G0 F4320 X31.639 Y13.325
G1 F1980 X30.326 Y12.012 E56.59838
G0 F4320 X30.605 Y11.796
G1 F1980 X32.134 Y13.325 E56.69466
G0 F4320 X32.629 Y13.325
G1 F1980 X30.837 Y11.533 E56.8075
G0 F4320 X31.056 Y11.257
G1 F1980 X33.124 Y13.325 E56.93772
G0 F4320 X33.619 Y13.325
G1 F1980 X31.225 Y10.931 E57.08848
G0 F4320 X31.371 Y10.582
G1 F1980 X34.114 Y13.325 E57.26121
G0 F4320 X34.609 Y13.325
G1 F1980 X31.468 Y10.184 E57.459
G0 F4320 X31.503 Y9.724
G1 F1980 X35.104 Y13.325 E57.68575
G0 F4320 X35.599 Y13.325
G1 F1980 X31.464 Y9.19 E57.94614
G1 X31.402 Y9.128
G0 F4320 X31.22 Y8.452
G1 F1980 X36.094 Y13.325 E58.25303
G1 X36.156 Y13.387
G1 F2400 E55.75303
G0 F4320 X36.156 Y13.738
G0 X39.244 Y13.638
G0 X40.166 Y11.957
G0 X39.244 Y10.97
G0 X38.878 Y11.159
G1 F2400 E58.25303
G1 F1980 X33.788 Y6.069 E58.57355
G0 F4320 X34.283 Y6.069
G1 F1980 X38.554 Y10.34 E58.84249
G0 F4320 X38.481 Y9.772
G1 F1980 X34.778 Y6.069 E59.07567
G0 F4320 X35.274 Y6.07
G1 F1980 X38.494 Y9.291 E59.27847
G0 F4320 X38.593 Y8.895
G1 F1980 X35.768 Y6.07 E59.45636
