;FLAVOR:Marlin
;TIME:5890
;Filament used: 6.64832m
;Layer height: 0.30625
;MINX:5.42
;MINY:6.696
;MINZ:0.306
;MAXX:67.856
;MAXY:66.732
;MAXZ:29.988
;Generated with Cura_SteamEngine 4.2.1
M140 S65
M105
M190 S65
M104 S205
M105
M109 S205
M82 ;absolute extrusion mode
G21;(metric values)
G90;(absolute positioning)
M82;(set extruder to absolute mode)
M107;(start with the fan off)
G28;(Home the printer)
G92 E0;(Reset the extruder to 0)
G0 Z5 E5 F500;(Move up and prime the nozzle)
G0 X-1 Z0;(Move outside the printable area)
G1 Y60 E8 F500;(Draw a priming/wiping line to the rear)
G1 X-1;(Move a little closer to the print area)
G1 Y10 E16 F500;(draw more priming/wiping)
G1 E15 F250;(Small retract)
G92 E0;(Zero the extruder)
M141 S28
G92 E0
G92 E0
G1 F2400 E-2.5
;LAYER_COUNT:98
;LAYER:0
M107
G0 F4320 X6.256 Y7.537 Z0.306
;TYPE:SUPPORT
G1 F2400 E0
G1 F1980 X25.206 Y7.539 E0.84379
G1 X25.206 Y17.136 E1.27111
G1 X6.257 Y17.136 E2.11485
G1 X6.256 Y8.134 E2.51569
G0 F1782 X6.256 Y7.537
G0 F4320 X6.999 Y7.678
G1 F2400 E2.54227
G1 F1980 X6.999 Y16.996 E2.95717
G0 F4320 X6.395 Y16.331
G1 F1980 X25.066 Y16.331 E3.78854
G0 F4320 X23.33 Y16.996
G1 F1980 X23.33 Y7.679 E4.20339
G0 F4320 X20.997 Y7.679
G1 F1980 X20.997 Y16.996 E4.61825
G0 F4320 X18.664 Y16.996
G1 F1980 X18.664 Y7.679 E5.03311
G0 F4320 X16.331 Y7.679
G1 F1980 X16.331 Y16.996 E5.44797
G0 F4320 X13.998 Y16.996
G1 F1980 X13.998 Y7.678 E5.86287
G0 F4320 X11.665 Y7.678
G1 F1980 X11.665 Y16.996 E6.27777
G0 F4320 X9.332 Y16.996
G1 F1980 X9.332 Y7.678 E6.69268
G0 F4320 X6.395 Y9.332
G1 F1980 X25.066 Y9.332 E7.52404
G0 F4320 X25.066 Y11.665
G1 F1980 X6.395 Y11.665 E8.3554
G0 F4320 X6.395 Y13.998
G1 F1980 X25.066 Y13.998 E9.18677
G0 F4320 X25.206 Y24.295
G1 F1980 X25.206 Y33.892 E9.61409
G1 X6.257 Y33.892 E10.45784
G1 X6.256 Y24.293 E10.88525
G1 X24.609 Y24.295 E11.70245
G0 F1782 X25.206 Y24.295
G0 F4320 X25.066 Y25.663
G1 F2400 E11.72904
G1 F1980 X6.395 Y25.663 E12.5604
G0 F4320 X6.999 Y24.434
G1 F1980 X6.999 Y33.752 E12.9753
G0 F4320 X6.395 Y32.662
G1 F1980 X25.065 Y32.662 E13.80662
G0 F4320 X23.33 Y33.752
G1 F1980 X23.33 Y24.435 E14.22148
G0 F4320 X20.997 Y24.435
G1 F1980 X20.997 Y33.752 E14.63634
G0 F4320 X18.664 Y33.752
G1 F1980 X18.664 Y24.435 E15.0512
G0 F4320 X16.331 Y24.435
G1 F1980 X16.331 Y33.752 E15.46605
G0 F4320 X13.998 Y33.752
G1 F1980 X13.998 Y24.434 E15.88096
G0 F4320 X11.665 Y24.434
G1 F1980 X11.665 Y33.752 E16.29586
G0 F4320 X9.332 Y33.752
G1 F1980 X9.332 Y24.434 E16.71076
G0 F4320 X6.395 Y27.996
G1 F1980 X25.066 Y27.996 E17.54213
G0 F4320 X25.065 Y30.329
G1 F1980 X6.395 Y30.329 E18.37345
G0 F4320 X6.256 Y40.293
G1 F1980 X25.206 Y40.295 E19.21723
G1 X25.206 Y49.892 E19.64456
G1 X6.257 Y49.892 E20.4883
G1 X6.256 Y40.89 E20.88913
G0 F1782 X6.256 Y40.293
G0 F4320 X6.999 Y40.434
G1 F2400 E20.91571
G1 F1980 X6.999 Y49.752 E21.33062
G0 F4320 X6.395 Y48.993
G1 F1980 X25.065 Y48.993 E22.16194
G0 F4320 X23.33 Y49.752
G1 F1980 X23.33 Y40.435 E22.57679
G0 F4320 X25.065 Y41.994
G1 F1980 X6.395 Y41.994 E23.40811
G0 F4320 X6.395 Y44.327
G1 F1980 X25.065 Y44.327 E24.23943
G0 F4320 X25.065 Y46.66
G1 F1980 X6.395 Y46.66 E25.07075
G0 F4320 X9.332 Y49.752
G1 F1980 X9.332 Y40.434 E25.48566
G0 F4320 X11.665 Y40.434
G1 F1980 X11.665 Y49.752 E25.90056
G0 F4320 X13.998 Y49.752
G1 F1980 X13.998 Y40.434 E26.31546
G0 F4320 X16.331 Y40.435
G1 F1980 X16.331 Y49.752 E26.73032
G0 F4320 X18.664 Y49.752
G1 F1980 X18.664 Y40.435 E27.14518
G0 F4320 X20.997 Y40.435
G1 F1980 X20.997 Y49.752 E27.56003
G0 F4320 X25.206 Y56.295
G1 F1980 X25.206 Y65.892 E27.98736
G1 X6.257 Y65.892 E28.8311
G1 X6.256 Y56.293 E29.25852
G1 X24.609 Y56.295 E30.07572
G0 F1782 X25.206 Y56.295
G0 F4320 X23.33 Y56.435
G1 F2400 E30.1023
G1 F1980 X23.33 Y65.752 E30.51716
G0 F4320 X25.065 Y65.324
G1 F1980 X6.395 Y65.324 E31.34848
G0 F4320 X6.999 Y65.752
G1 F1980 X6.999 Y56.434 E31.76338
G0 F4320 X6.395 Y58.325
G1 F1980 X25.065 Y58.325 E32.5947
G0 F4320 X25.065 Y60.658
G1 F1980 X6.395 Y60.658 E33.42602
G0 F4320 X6.395 Y62.991
G1 F1980 X25.065 Y62.991 E34.25734
G0 F4320 X20.997 Y65.752
G1 F1980 X20.997 Y56.435 E34.6722
G0 F4320 X18.664 Y56.435
G1 F1980 X18.664 Y65.752 E35.08706
G0 F4320 X16.331 Y65.752
G1 F1980 X16.331 Y56.435 E35.50192
G0 F4320 X13.998 Y56.434
G1 F1980 X13.998 Y65.752 E35.91682
G0 F4320 X11.665 Y65.752
G1 F1980 X11.665 Y56.434 E36.33172
G0 F4320 X9.332 Y56.434
G1 F1980 X9.332 Y65.752 E36.74662
G1 F2400 E34.24662
G0 F4320 X25.91 Y66.728
G0 X48.202 Y66.728
G0 X48.906 Y65.889
G1 F2400 E36.74662
G1 F1980 X48.906 Y56.292 E37.17395
G1 X67.855 Y56.292 E38.01769
G1 X67.856 Y65.891 E38.44511
G1 X49.503 Y65.889 E39.26231
G0 F1782 X48.906 Y65.889
G0 F4320 X49.045 Y65.324
G1 F2400 E39.28889
G1 F1980 X67.716 Y65.324 E40.12026
G0 F4320 X67.657 Y65.75
G1 F1980 X67.657 Y56.432 E40.53516
G0 F4320 X67.716 Y58.325
G1 F1980 X49.046 Y58.325 E41.36648
G0 F4320 X49.045 Y60.658
G1 F1980 X67.716 Y60.658 E42.19784
G0 F4320 X67.716 Y62.991
G1 F1980 X49.045 Y62.991 E43.02921
G0 F4320 X51.326 Y65.749
G1 F1980 X51.326 Y56.432 E43.44406
G0 F4320 X53.659 Y56.432
G1 F1980 X53.659 Y65.749 E43.85892
G0 F4320 X55.992 Y65.749
G1 F1980 X55.992 Y56.432 E44.27378
G0 F4320 X58.325 Y56.432
G1 F1980 X58.325 Y65.749 E44.68864
G0 F4320 X60.658 Y65.75
G1 F1980 X60.658 Y56.432 E45.10354
G0 F4320 X62.991 Y56.432
G1 F1980 X62.991 Y65.75 E45.51844
G0 F4320 X65.324 Y65.75
G1 F1980 X65.324 Y56.432 E45.93335
G0 F4320 X67.856 Y49.891
G1 F1980 X48.906 Y49.889 E46.77713
G1 X48.906 Y40.292 E47.20446
G1 X67.855 Y40.292 E48.0482
G1 X67.856 Y49.294 E48.44903
G0 F1782 X67.856 Y49.891
G0 F4320 X67.657 Y49.75
G1 F2400 E48.47562
G1 F1980 X67.657 Y40.432 E48.89052
G0 F4320 X67.716 Y41.994
G1 F1980 X49.046 Y41.994 E49.72184
G0 F4320 X49.046 Y44.327
G1 F1980 X67.716 Y44.327 E50.55316
G0 F4320 X67.716 Y46.66
G1 F1980 X49.046 Y46.66 E51.38448
G0 F4320 X49.046 Y48.993
G1 F1980 X67.716 Y48.993 E52.2158
G0 F4320 X65.324 Y49.75
G1 F1980 X65.324 Y40.432 E52.6307
G0 F4320 X62.991 Y40.432
G1 F1980 X62.991 Y49.75 E53.0456
G0 F4320 X60.658 Y49.75
G1 F1980 X60.658 Y40.432 E53.4605
G0 F4320 X58.325 Y40.432
G1 F1980 X58.325 Y49.749 E53.87536
G0 F4320 X55.992 Y49.749
G1 F1980 X55.992 Y40.432 E54.29022
G0 F4320 X53.659 Y40.432
G1 F1980 X53.659 Y49.749 E54.70508
G0 F4320 X51.326 Y49.749
G1 F1980 X51.326 Y40.432 E55.11994
G0 F4320 X48.906 Y33.889
G1 F1980 X48.906 Y24.292 E55.54726
G1 X67.855 Y24.292 E56.391
G1 X67.856 Y33.891 E56.81842
G1 X49.503 Y33.889 E57.63562
G0 F1782 X48.906 Y33.889
G0 F4320 X49.046 Y32.662
G1 F2400 E57.66221
G1 F1980 X67.716 Y32.662 E58.49352
G0 F4320 X67.657 Y33.75
G1 F1980 X67.657 Y24.432 E58.90843
G0 F4320 X67.716 Y25.663
G1 F1980 X49.046 Y25.663 E59.73975
G0 F4320 X49.046 Y27.996
G1 F1980 X67.716 Y27.996 E60.57107
G0 F4320 X67.716 Y30.329
G1 F1980 X49.046 Y30.329 E61.40238
G0 F4320 X51.326 Y33.749
G1 F1980 X51.326 Y24.432 E61.81724
G0 F4320 X53.659 Y24.432
G1 F1980 X53.659 Y33.749 E62.2321
G0 F4320 X55.992 Y33.749
G1 F1980 X55.992 Y24.432 E62.64696
G0 F4320 X58.325 Y24.432
G1 F1980 X58.325 Y33.749 E63.06182
G0 F4320 X60.658 Y33.75
G1 F1980 X60.658 Y24.432 E63.47672
G0 F4320 X62.991 Y24.432
G1 F1980 X62.991 Y33.75 E63.89162
G0 F4320 X65.324 Y33.75
G1 F1980 X65.324 Y24.432 E64.30653
G0 F4320 X67.856 Y17.135
G1 F1980 X48.906 Y17.133 E65.15031
G1 X48.906 Y7.536 E65.57764
G1 X67.855 Y7.536 E66.42138
G1 X67.856 Y16.538 E66.82221
G0 F1782 X67.856 Y17.135
G0 F4320 X67.657 Y16.994
G1 F2400 E66.84879
G1 F1980 X67.657 Y7.676 E67.2637
G0 F4320 X67.716 Y9.332
G1 F1980 X49.046 Y9.332 E68.09502
G0 F4320 X49.046 Y11.665
G1 F1980 X67.716 Y11.665 E68.92634
G0 F4320 X67.716 Y13.998
G1 F1980 X49.046 Y13.998 E69.75765
G0 F4320 X49.046 Y16.331
G1 F1980 X67.716 Y16.331 E70.58897
G0 F4320 X65.324 Y16.994
G1 F1980 X65.324 Y7.676 E71.00388
G0 F4320 X62.991 Y7.676
G1 F1980 X62.991 Y16.994 E71.41878
G0 F4320 X60.658 Y16.994
G1 F1980 X60.658 Y7.676 E71.83368
G0 F4320 X58.325 Y7.676
G1 F1980 X58.325 Y16.993 E72.24854
G0 F4320 X55.992 Y16.993
G1 F1980 X55.992 Y7.676 E72.6634
G0 F4320 X53.659 Y7.676
G1 F1980 X53.659 Y16.993 E73.07826
G0 F4320 X51.326 Y16.993
G1 F1980 X51.326 Y7.676 E73.49311
G1 F2400 E70.99311
;MESH:Gripper-V-3-3.stl
G0 F4320 X48.659 Y9.394
G0 X44.322 Y12.189
G0 X45.936 Y12.03
G0 X44.986 Y14.119
;TYPE:WALL-INNER
G1 F2400 E73.49311
G1 F1980 X45.371 Y13.681 E73.51908
G1 X45.633 Y13.18 E73.54425
G1 X45.77 Y12.622 E73.56984
G1 X45.77 Y12.05 E73.59531
G1 X45.633 Y11.493 E73.62085
G1 X45.372 Y10.992 E73.646
G1 X44.986 Y10.553 E73.67203
G1 X44.512 Y10.228 E73.69762
G1 X43.975 Y10.024 E73.7232
G1 X43.406 Y9.956 E73.74872
G1 X42.837 Y10.024 E73.77423
G1 X42.3 Y10.228 E73.79981
G1 X41.826 Y10.553 E73.8254
G1 X41.446 Y10.985 E73.85102
G1 X41.18 Y11.491 E73.87647
G1 X41.042 Y12.048 E73.90203
G1 X41.042 Y12.624 E73.92767
G1 X41.18 Y13.181 E73.95322
G1 X41.446 Y13.688 E73.97872
G1 X41.828 Y14.119 E74.00436
G1 X42.307 Y14.448 E74.03024
G1 X42.842 Y14.65 E74.0557
G1 X43.406 Y14.716 E74.08098
G1 X43.975 Y14.648 E74.1065
G1 X44.491 Y14.452 E74.13108
G0 F1782 X44.512 Y14.444
G0 X44.986 Y14.119
G1 F2400 E71.63108
G0 F4320 X43.406 Y14.253
G0 X41.309 Y13.783
G0 X42.7 Y12.822
G0 X31.495 Y12.819
G0 X32.809 Y13.775
G0 X32.286 Y14.119
G1 F2400 E74.15766
G1 F1980 X32.671 Y13.681 E74.18363
G1 X32.933 Y13.18 E74.2088
G1 X33.07 Y12.622 E74.23439
G1 X33.07 Y12.05 E74.25986
G1 X32.933 Y11.493 E74.2854
G1 X32.672 Y10.992 E74.31055
G1 X32.286 Y10.553 E74.33658
G1 X31.812 Y10.228 E74.36217
G1 X31.275 Y10.024 E74.38775
G1 X30.706 Y9.956 E74.41326
G1 X30.137 Y10.024 E74.43878
G1 X29.6 Y10.228 E74.46436
G1 X29.126 Y10.553 E74.48995
G1 X28.746 Y10.985 E74.51557
G1 X28.48 Y11.491 E74.54102
G1 X28.342 Y12.048 E74.56657
G1 X28.342 Y12.624 E74.59222
G1 X28.48 Y13.181 E74.61777
G1 X28.746 Y13.688 E74.64326
G1 X29.128 Y14.119 E74.66891
G1 X29.607 Y14.448 E74.69478
G1 X30.142 Y14.65 E74.72025
G1 X30.706 Y14.716 E74.74553
G1 X31.275 Y14.648 E74.77105
G1 X31.791 Y14.452 E74.79563
G0 F1782 X31.812 Y14.444
G0 X32.286 Y14.119
G1 F2400 E72.29563
G0 F4320 X29.53 Y14.596
G0 X29.53 Y16.276
G0 X26.931 Y16.461
G1 F2400 E74.82221
G1 F1980 X26.931 Y8.211 E75.18956
G1 X47.181 Y8.211 E76.09123
G1 X47.181 Y16.461 E76.45858
G1 X27.528 Y16.461 E77.33366
G0 F1782 X26.931 Y16.461
G0 F4320 X26.581 Y16.811
G1 F2400 E77.36025
G1 F1980 X26.581 Y7.861 E77.75876
G1 X47.531 Y7.861 E78.6916
G1 X47.531 Y16.811 E79.09012
G1 X27.178 Y16.811 E79.99638
G0 F1782 X26.581 Y16.811
G1 F2400 E77.49638
G0 F4320 X32.052 Y16.276
G0 X31.479 Y14.768
G0 X32.052 Y13.855
G1 F2400 E80.02296
G1 F1980 X32.38 Y13.482 E80.04508
G1 X32.603 Y13.055 E80.06653
G1 X32.72 Y12.58 E80.08831
G1 X32.72 Y12.092 E80.11004
G1 X32.603 Y11.617 E80.13182
G1 X32.381 Y11.191 E80.15321
G1 X32.052 Y10.817 E80.17539
G1 X31.648 Y10.54 E80.1972
G1 X31.191 Y10.366 E80.21898
G1 X30.706 Y10.308 E80.24073
G1 X30.221 Y10.366 E80.26248
G1 X29.764 Y10.54 E80.28425
G1 X29.36 Y10.817 E80.30606
G1 X29.036 Y11.185 E80.32789
G1 X28.81 Y11.616 E80.34956
G1 X28.692 Y12.091 E80.37136
G1 X28.692 Y12.581 E80.39317
G1 X28.81 Y13.056 E80.41497
G1 X29.036 Y13.488 E80.43668
G1 X29.361 Y13.855 E80.4585
G1 X29.77 Y14.135 E80.48057
G1 X30.226 Y14.307 E80.50228
G1 X30.706 Y14.364 E80.5238
G1 X31.191 Y14.306 E80.54555
G1 X31.548 Y14.17 E80.56256
G0 F1782 X31.648 Y14.132
G0 X32.052 Y13.855
G1 F2400 E78.06256
G0 F4320 X33.089 Y13.239
G0 X31.506 Y12.64
G0 X42.526 Y12.643
G0 X41.024 Y13.24
G0 X42.522 Y14.036
G0 X43.406 Y14.253
G0 X44.752 Y13.855
G1 F2400 E80.58914
G1 F1980 X45.08 Y13.482 E80.61126
G1 X45.303 Y13.055 E80.63271
G1 X45.42 Y12.58 E80.65449
G1 X45.42 Y12.092 E80.67622
G1 X45.303 Y11.617 E80.698
G1 X45.081 Y11.191 E80.71939
G1 X44.752 Y10.817 E80.74157
G1 X44.348 Y10.54 E80.76338
G1 X43.891 Y10.366 E80.78516
G1 X43.406 Y10.308 E80.80691
G1 X42.921 Y10.366 E80.82865
G1 X42.464 Y10.54 E80.85043
G1 X42.06 Y10.817 E80.87224
G1 X41.736 Y11.185 E80.89407
G1 X41.51 Y11.616 E80.91574
G1 X41.392 Y12.091 E80.93753
G1 X41.392 Y12.581 E80.95935
G1 X41.51 Y13.056 E80.98115
G1 X41.736 Y13.488 E81.00285
G1 X42.061 Y13.855 E81.02468
G1 X42.47 Y14.135 E81.04675
G1 X42.926 Y14.307 E81.06845
G1 X43.406 Y14.364 E81.08998
G1 X43.891 Y14.306 E81.11173
G1 X44.248 Y14.17 E81.12874
G0 F1782 X44.348 Y14.132
G0 X44.752 Y13.855
G0 F4320 X44.535 Y13.61
;TYPE:WALL-OUTER
G1 F2400 E81.15532
G1 F1980 X44.81 Y13.297 E81.17387
G1 X44.997 Y12.939 E81.19186
G1 X45.095 Y12.541 E81.21011
G1 X45.095 Y12.131 E81.22836
G1 X44.997 Y11.733 E81.24661
G1 X44.811 Y11.376 E81.26454
G1 X44.535 Y11.062 E81.28315
G1 X44.196 Y10.83 E81.30144
G1 X43.813 Y10.684 E81.31969
G1 X43.406 Y10.635 E81.33795
G1 X42.999 Y10.684 E81.3562
G1 X42.616 Y10.83 E81.37445
G1 X42.277 Y11.062 E81.39274
G1 X42.006 Y11.37 E81.41101
G1 X41.816 Y11.732 E81.42921
G1 X41.717 Y12.131 E81.44752
G1 X41.717 Y12.541 E81.46578
G1 X41.816 Y12.94 E81.48408
G1 X42.006 Y13.302 E81.50228
G1 X42.278 Y13.61 E81.52058
G1 X42.621 Y13.845 E81.5391
G1 X43.004 Y13.989 E81.55731
G1 X43.406 Y14.037 E81.57534
G1 X43.813 Y13.988 E81.59359
G1 X44.021 Y13.908 E81.60352
G0 F1782 X44.196 Y13.842
G0 X44.535 Y13.61
G0 F4320 X44.667 Y13.46
G1 F2400 E79.10352
G0 F4320 X44.872 Y13.643
G0 X43.864 Y14.197
G0 X42.953 Y14.198
G0 X41.024 Y13.24
G0 X42.608 Y12.644
G0 X31.585 Y12.639
G0 X33.089 Y13.239
G0 X32.04 Y13.793
G0 X31.835 Y13.61
G1 F2400 E81.6301
G1 F1980 X32.11 Y13.297 E81.64865
G1 X32.297 Y12.939 E81.66664
G1 X32.395 Y12.541 E81.68489
G1 X32.395 Y12.131 E81.70314
G1 X32.297 Y11.733 E81.7214
G1 X32.111 Y11.376 E81.73932
G1 X31.835 Y11.062 E81.75793
G1 X31.496 Y10.83 E81.77623
G1 X31.113 Y10.684 E81.79448
G1 X30.706 Y10.635 E81.81273
G1 X30.299 Y10.684 E81.83098
G1 X29.916 Y10.83 E81.84923
G1 X29.577 Y11.062 E81.86752
G1 X29.306 Y11.37 E81.88579
G1 X29.116 Y11.732 E81.904
G1 X29.017 Y12.131 E81.9223
G1 X29.017 Y12.541 E81.94056
G1 X29.116 Y12.94 E81.95886
G1 X29.306 Y13.302 E81.97707
G1 X29.578 Y13.61 E81.99536
G1 X29.921 Y13.845 E82.01388
G1 X30.304 Y13.989 E82.0321
G1 X30.706 Y14.037 E82.05012
G1 X31.113 Y13.988 E82.06838
G1 X31.321 Y13.908 E82.0783
G0 F1782 X31.496 Y13.842
G0 X31.835 Y13.61
G0 F4320 X31.967 Y13.46
G1 F2400 E79.5783
G0 F4320 X32.172 Y13.643
G0 X31.474 Y14.079
G0 X29.53 Y14.596
G0 X29.53 Y16.276
G0 X26.531 Y16.891
G0 X26.256 Y17.136
G1 F2400 E82.10488
G1 F1980 X26.256 Y7.536 E82.53234
G1 X47.856 Y7.536 E83.49412
G1 X47.856 Y17.136 E83.92158
G1 X26.853 Y17.136 E84.85678
G0 F1782 X26.256 Y17.136
G0 F4320 X26.256 Y16.936
G0 X26.531 Y16.936
G0 X27.016 Y16.121
G0 X27.271 Y16.121
;TYPE:SKIN
G1 F2400 E84.88337
G1 F1980 X27.271 Y8.551 E85.22044
G1 X46.841 Y8.551 E86.09183
G1 X46.841 Y16.121 E86.4289
G1 X27.868 Y16.121 E87.27371
G0 F1782 X27.271 Y16.121
G1 F2400 E84.77371
G0 F4320 X27.016 Y16.121
G0 X27.116 Y14.185
G0 X28.609 Y13.783
G0 X28.901 Y14.376
G1 F2400 E87.30029
G1 F1980 X29.448 Y14.751 E87.32982
G1 X30.061 Y14.983 E87.35901
G1 X30.706 Y15.058 E87.38792
G1 X31.357 Y14.98 E87.41712
G1 X31.971 Y14.747 E87.44636
G1 X32.513 Y14.375 E87.47563
G1 X32.953 Y13.875 E87.50528
G1 X33.253 Y13.301 E87.53412
G1 X33.41 Y12.663 E87.56338
G1 X33.41 Y12.009 E87.5925
G1 X33.253 Y11.372 E87.62171
G1 X32.954 Y10.798 E87.65053
G1 X32.513 Y10.297 E87.68025
G1 X31.971 Y9.925 E87.70952
G1 X31.357 Y9.692 E87.73876
G1 X30.706 Y9.614 E87.76796
G1 X30.055 Y9.692 E87.79715
G1 X29.441 Y9.925 E87.82639
G1 X28.899 Y10.297 E87.85567
G1 X28.464 Y10.791 E87.88497
G1 X28.16 Y11.369 E87.91405
G1 X28.002 Y12.007 E87.94332
G1 X28.002 Y12.665 E87.97262
G1 X28.16 Y13.303 E88.00188
G1 X28.464 Y13.882 E88.031
G1 X28.506 Y13.929 E88.03381
G0 F1782 X28.901 Y14.376
G1 F2400 E85.53381
G0 F4320 X29.072 Y14.185
G0 X30.706 Y14.253
G0 X33.089 Y13.239
G0 X31.506 Y12.64
G0 X42.477 Y12.438
G0 X40.876 Y12.645
G0 X40.86 Y13.303
G1 F2400 E88.06039
G1 F1980 X41.164 Y13.882 E88.08951
G1 X41.601 Y14.376 E88.11888
G1 X42.148 Y14.751 E88.14841
G1 X42.761 Y14.983 E88.17759
G1 X43.406 Y15.058 E88.20651
G1 X44.057 Y14.98 E88.2357
G1 X44.671 Y14.747 E88.26494
G1 X45.213 Y14.375 E88.29421
G1 X45.653 Y13.875 E88.32387
G1 X45.953 Y13.301 E88.35271
G1 X46.11 Y12.663 E88.38197
G1 X46.11 Y12.009 E88.41109
G1 X45.953 Y11.372 E88.4403
