;FLAVOR:Marlin
;TIME:5840
;Filament used: 7.16489m
;Layer height: 0.30625
;MINX:5.287
;MINY:3.93
;MINZ:0.306
;MAXX:68.536
;MAXY:64.853
;MAXZ:29.988
;Generated with Cura_SteamEngine 4.2.1
M140 S65
M105
M190 S65
M104 S205
M105
M109 S205
M82 ;absolute extrusion mode
G21;(metric values)
G90;(absolute positioning)
M82;(set extruder to absolute mode)
M107;(start with the fan off)
G28;(Home the printer)
G92 E0;(Reset the extruder to 0)
G0 Z5 E5 F500;(Move up and prime the nozzle)
G0 X-1 Z0;(Move outside the printable area)
G1 Y60 E8 F500;(Draw a priming/wiping line to the rear)
G1 X-1;(Move a little closer to the print area)
G1 Y10 E16 F500;(draw more priming/wiping)
G1 E15 F250;(Small retract)
G92 E0;(Zero the extruder)
M141 S28
G92 E0
G92 E0
G1 F2400 E-2.5
;LAYER_COUNT:98
;LAYER:0
M107
;MESH:Gripper-V-4.stl
G0 F4320 X7.129 Y13.668 Z0.306
;TYPE:WALL-INNER
G1 F2400 E0
G1 F1980 X7.129 Y5.418 E0.36735
G1 X67.379 Y5.418 E3.0501
G1 X67.379 Y13.668 E3.41745
G1 X7.726 Y13.668 E6.07362
G0 F1782 X7.129 Y13.668
G1 F2400 E3.57362
G0 F4320 X30.335 Y13.483
G0 X30.508 Y12.043
G0 X29.322 Y10.625
G0 X29.001 Y9.773
G0 X29.111 Y8.864
G0 X30.335 Y7.229
G1 F2400 E6.1002
G1 F1980 X29.797 Y7.435 E6.12585
G1 X29.324 Y7.76 E6.15141
G1 X28.939 Y8.198 E6.17737
G1 X28.677 Y8.699 E6.20255
G1 X28.54 Y9.257 E6.22813
G1 X28.54 Y9.829 E6.2536
G1 X28.677 Y10.386 E6.27914
G1 X28.938 Y10.887 E6.30429
G1 X29.324 Y11.326 E6.33032
G1 X29.798 Y11.651 E6.35591
G1 X30.335 Y11.855 E6.38149
G1 X30.904 Y11.923 E6.40701
G1 X31.473 Y11.855 E6.43252
G1 X32.01 Y11.651 E6.4581
G1 X32.484 Y11.326 E6.48369
G1 X32.864 Y10.894 E6.50931
G1 X33.13 Y10.388 E6.53476
G1 X33.268 Y9.831 E6.56032
G1 X33.268 Y9.255 E6.58596
G1 X33.13 Y8.698 E6.61152
G1 X32.864 Y8.191 E6.63701
G1 X32.483 Y7.76 E6.66262
G1 X32.004 Y7.432 E6.68847
G1 X31.467 Y7.228 E6.71405
G1 X30.928 Y7.165 E6.73821
G0 F1782 X30.904 Y7.163
G0 X30.335 Y7.229
G1 F2400 E4.23821
G0 F4320 X33.001 Y8.096
G0 X31.588 Y9.07
G0 X42.834 Y9.072
G0 X41.501 Y8.104
G0 X43.035 Y7.229
G1 F2400 E6.7648
G1 F1980 X42.497 Y7.435 E6.79045
G1 X42.024 Y7.76 E6.816
G1 X41.639 Y8.198 E6.84197
G1 X41.377 Y8.699 E6.86714
G1 X41.24 Y9.257 E6.89273
G1 X41.24 Y9.829 E6.9182
G1 X41.377 Y10.386 E6.94374
G1 X41.638 Y10.887 E6.96889
G1 X42.024 Y11.326 E6.99492
G1 X42.498 Y11.651 E7.02051
G1 X43.035 Y11.855 E7.04609
G1 X43.604 Y11.923 E7.0716
G1 X44.173 Y11.855 E7.09712
G1 X44.71 Y11.651 E7.1227
G1 X45.184 Y11.326 E7.14829
G1 X45.564 Y10.894 E7.17391
G1 X45.83 Y10.388 E7.19936
G1 X45.968 Y9.831 E7.22491
G1 X45.968 Y9.255 E7.25056
G1 X45.83 Y8.698 E7.27611
G1 X45.564 Y8.191 E7.30161
G1 X45.183 Y7.76 E7.32722
G1 X44.704 Y7.432 E7.35307
G1 X44.167 Y7.228 E7.37865
G1 X43.628 Y7.165 E7.40281
G0 F1782 X43.604 Y7.163
G0 X43.035 Y7.229
G0 F4320 X42.023 Y8.46
G0 X41.701 Y9.313
G0 X41.79 Y10.136
G0 X42.258 Y11.062
G1 F2400 E7.42939
G1 F1980 X42.662 Y11.339 E7.45121
G1 X43.119 Y11.513 E7.47298
G1 X43.604 Y11.571 E7.49473
G1 X44.089 Y11.513 E7.51648
G1 X44.546 Y11.339 E7.53825
G1 X44.95 Y11.062 E7.56006
G1 X45.274 Y10.694 E7.5819
G1 X45.5 Y10.263 E7.60357
G1 X45.618 Y9.788 E7.62536
G1 X45.618 Y9.298 E7.64718
G1 X45.5 Y8.823 E7.66897
G1 X45.274 Y8.391 E7.69068
G1 X44.949 Y8.024 E7.71251
G1 X44.541 Y7.744 E7.73454
G1 X44.084 Y7.571 E7.7563
G1 X43.604 Y7.515 E7.77782
G1 X43.119 Y7.572 E7.79956
G1 X42.661 Y7.747 E7.82139
G1 X42.258 Y8.024 E7.84317
G1 X41.93 Y8.397 E7.86528
G1 X41.707 Y8.824 E7.88673
G1 X41.59 Y9.299 E7.90852
G1 X41.59 Y9.787 E7.93024
G1 X41.707 Y10.262 E7.95203
G1 X41.884 Y10.601 E7.96906
G0 F1782 X41.929 Y10.688
G0 X42.258 Y11.062
G1 F2400 E5.46906
G0 F4320 X41.221 Y10.445
G0 X42.827 Y9.839
G0 X31.76 Y9.839
G0 X33.286 Y10.447
G0 X31.794 Y11.24
G0 X30.904 Y11.46
G0 X29.558 Y11.062
G1 F2400 E7.99564
G1 F1980 X29.962 Y11.339 E8.01745
G1 X30.419 Y11.513 E8.03922
G1 X30.904 Y11.571 E8.06097
G1 X31.389 Y11.513 E8.08272
G1 X31.846 Y11.339 E8.1045
G1 X32.25 Y11.062 E8.12631
G1 X32.574 Y10.694 E8.14814
G1 X32.8 Y10.263 E8.16981
G1 X32.918 Y9.788 E8.1916
G1 X32.918 Y9.298 E8.21342
G1 X32.8 Y8.823 E8.23521
G1 X32.574 Y8.391 E8.25692
G1 X32.249 Y8.024 E8.27875
G1 X31.841 Y7.744 E8.30078
G1 X31.384 Y7.571 E8.32254
G1 X30.904 Y7.515 E8.34406
G1 X30.419 Y7.572 E8.3658
G1 X29.961 Y7.747 E8.38763
G1 X29.558 Y8.024 E8.40941
G1 X29.23 Y8.397 E8.43153
G1 X29.007 Y8.824 E8.45298
G1 X28.89 Y9.299 E8.47476
G1 X28.89 Y9.787 E8.49649
G1 X29.007 Y10.262 E8.51827
G1 X29.184 Y10.601 E8.5353
G0 F1782 X29.229 Y10.688
G0 X29.558 Y11.062
G1 F2400 E6.0353
G0 F4320 X28.521 Y10.445
G0 X28.521 Y13.483
G0 X6.779 Y14.018
G1 F2400 E8.56188
G1 F1980 X6.779 Y5.068 E8.9604
G1 X67.729 Y5.068 E11.67432
G1 X67.729 Y14.018 E12.07284
G1 X7.376 Y14.018 E14.76017
G0 F1782 X6.779 Y14.018
G0 F4320 X6.454 Y14.343
;TYPE:WALL-OUTER
G1 F2400 E14.78676
G1 F1980 X6.454 Y4.743 E15.21422
G1 X68.054 Y4.743 E17.95708
G1 X68.054 Y14.343 E18.38454
G1 X7.051 Y14.343 E21.10082
G0 F1782 X6.454 Y14.343
G0 F4320 X6.454 Y14.143
G1 F2400 E18.60082
G0 F4320 X6.729 Y14.068
G0 X29.619 Y13.483
G0 X30.193 Y11.978
G0 X29.619 Y11.042
G0 X29.775 Y10.817
G1 F2400 E21.1274
G1 F1980 X30.114 Y11.049 E21.14569
G1 X30.497 Y11.195 E21.16394
G1 X30.904 Y11.244 E21.1822
G1 X31.311 Y11.195 E21.20045
G1 X31.694 Y11.049 E21.2187
G1 X32.033 Y10.817 E21.23699
G1 X32.304 Y10.509 E21.25526
G1 X32.494 Y10.147 E21.27346
G1 X32.593 Y9.748 E21.29177
G1 X32.593 Y9.338 E21.31002
G1 X32.494 Y8.939 E21.32833
G1 X32.304 Y8.577 E21.34653
G1 X32.032 Y8.269 E21.36483
G1 X31.689 Y8.034 E21.38334
G1 X31.306 Y7.889 E21.40158
G1 X30.904 Y7.842 E21.4196
G1 X30.497 Y7.89 E21.43785
G1 X30.113 Y8.037 E21.45616
G1 X29.775 Y8.269 E21.47441
G1 X29.5 Y8.582 E21.49296
G1 X29.313 Y8.94 E21.51095
G1 X29.215 Y9.338 E21.5292
G1 X29.215 Y9.748 E21.54746
G1 X29.313 Y10.146 E21.56571
G1 X29.417 Y10.345 E21.5757
G0 F1782 X29.499 Y10.503
G0 X29.775 Y10.817
G0 F4320 X29.94 Y10.93
G1 F2400 E19.0757
G0 F4320 X29.784 Y11.155
G0 X30.446 Y11.404
G0 X31.362 Y11.404
G0 X33.286 Y10.447
G0 X31.68 Y9.839
G0 X42.746 Y9.839
G0 X41.221 Y10.445
G0 X42.319 Y11.042
G0 X42.475 Y10.817
G1 F2400 E21.60229
G1 F1980 X42.814 Y11.049 E21.62058
G1 X43.197 Y11.195 E21.63883
G1 X43.604 Y11.244 E21.65708
G1 X44.011 Y11.195 E21.67534
G1 X44.394 Y11.049 E21.69359
G1 X44.733 Y10.817 E21.71188
G1 X45.004 Y10.509 E21.73014
G1 X45.194 Y10.147 E21.74835
G1 X45.293 Y9.748 E21.76665
G1 X45.293 Y9.338 E21.78491
G1 X45.194 Y8.939 E21.80321
G1 X45.004 Y8.577 E21.82142
G1 X44.732 Y8.269 E21.83972
G1 X44.389 Y8.034 E21.85823
G1 X44.006 Y7.889 E21.87646
G1 X43.604 Y7.842 E21.89449
G1 X43.197 Y7.89 E21.91273
G1 X42.813 Y8.037 E21.93104
G1 X42.475 Y8.269 E21.9493
G1 X42.2 Y8.582 E21.96785
G1 X42.013 Y8.94 E21.98583
G1 X41.915 Y9.338 E22.00408
G1 X41.915 Y9.748 E22.02234
G1 X42.013 Y10.146 E22.04059
G1 X42.117 Y10.345 E22.05059
G0 F1782 X42.199 Y10.503
G0 X42.475 Y10.817
G0 F4320 X42.64 Y10.93
G0 X42.485 Y11.156
G0 X41.797 Y11.582
;TYPE:SKIN
G1 F2400 E22.07717
G1 F1980 X42.339 Y11.954 E22.10644
G1 X42.953 Y12.187 E22.13568
G1 X43.604 Y12.265 E22.16488
G1 X44.255 Y12.187 E22.19407
G1 X44.869 Y11.954 E22.22332
G1 X45.411 Y11.582 E22.25259
G1 X45.846 Y11.088 E22.2819
G1 X46.15 Y10.51 E22.31097
G1 X46.308 Y9.872 E22.34024
G1 X46.308 Y9.214 E22.36954
G1 X46.15 Y8.576 E22.39881
G1 X45.846 Y7.997 E22.42793
G1 X45.41 Y7.503 E22.45726
G1 X44.863 Y7.129 E22.48677
G1 X44.248 Y6.895 E22.51607
G1 X43.604 Y6.821 E22.54493
G1 X42.953 Y6.896 E22.57411
G1 X42.338 Y7.132 E22.60344
G1 X41.797 Y7.504 E22.63268
G1 X41.357 Y8.004 E22.66233
G1 X41.057 Y8.578 E22.69117
G1 X40.9 Y9.216 E22.72043
G1 X40.9 Y9.87 E22.74955
G1 X41.057 Y10.507 E22.77876
G1 X41.356 Y11.081 E22.80758
G1 X41.403 Y11.134 E22.81073
G0 F1782 X41.797 Y11.582
G1 F2400 E20.31073
G0 F4320 X41.968 Y11.391
G0 X41.221 Y10.445
G0 X42.827 Y9.839
G0 X31.807 Y9.644
G0 X33.434 Y9.852
G0 X33.608 Y9.872
G1 F2400 E22.83732
G1 F1980 X33.608 Y9.214 E22.86661
G1 X33.45 Y8.576 E22.89588
G1 X33.146 Y7.997 E22.925
G1 X32.71 Y7.503 E22.95434
G1 X32.163 Y7.129 E22.98384
G1 X31.548 Y6.895 E23.01314
G1 X30.904 Y6.821 E23.04201
G1 X30.253 Y6.896 E23.07118
G1 X29.638 Y7.132 E23.10052
G1 X29.097 Y7.504 E23.12975
G1 X28.657 Y8.004 E23.15941
G1 X28.357 Y8.578 E23.18825
G1 X28.2 Y9.216 E23.2175
G1 X28.2 Y9.87 E23.24662
G1 X28.357 Y10.507 E23.27583
G1 X28.656 Y11.081 E23.30465
G1 X29.097 Y11.582 E23.33437
G1 X29.639 Y11.954 E23.36364
G1 X30.253 Y12.187 E23.39289
G1 X30.904 Y12.265 E23.42208
G1 X31.555 Y12.187 E23.45127
G1 X32.169 Y11.954 E23.48052
G1 X32.711 Y11.582 E23.50979
G1 X33.146 Y11.088 E23.5391
G1 X33.45 Y10.51 E23.56818
G1 X33.465 Y10.451 E23.57089
G0 F1782 X33.608 Y9.872
G1 F2400 E21.07089
G0 F4320 X33.353 Y9.842
G0 X31.729 Y9.643
G0 X33.409 Y15.129
G0 X33.434 Y13.483
G0 X67.152 Y13.327
G0 X67.039 Y13.328
G1 F2400 E23.59747
G1 F1980 X7.469 Y13.328 E26.24994
G1 X7.469 Y5.758 E26.58701
G1 X67.039 Y5.758 E29.23949
G1 X67.039 Y12.731 E29.54997
G0 F1782 X67.039 Y13.328
G0 F4320 X67.294 Y13.328
G0 X67.294 Y5.999
G0 X66.881 Y5.999
G1 F2400 E29.57655
G1 F1980 X66.796 Y5.914 E29.58191
G0 F4320 X66.301 Y5.914
G1 F1980 X66.881 Y6.494 E29.61843
G0 F4320 X66.881 Y6.989
G1 F1980 X65.806 Y5.914 E29.68612
G0 F4320 X65.311 Y5.914
G1 F1980 X66.881 Y7.484 E29.78499
G0 F4320 X66.881 Y7.979
G1 F1980 X64.816 Y5.914 E29.91502
G0 F4320 X64.321 Y5.914
G1 F1980 X66.881 Y8.474 E30.07623
G0 F4320 X66.881 Y8.969
G1 F1980 X63.826 Y5.914 E30.2686
G0 F4320 X63.332 Y5.914
G1 F1980 X66.881 Y9.464 E30.49212
G0 F4320 X66.881 Y9.959
G1 F1980 X62.837 Y5.914 E30.7468
G0 F4320 X62.342 Y5.914
G1 F1980 X66.881 Y10.454 E31.03266
G0 F4320 X66.881 Y10.949
G1 F1980 X61.847 Y5.914 E31.34968
G0 F4320 X61.352 Y5.914
G1 F1980 X66.881 Y11.444 E31.69788
G0 F4320 X66.881 Y11.939
G1 F1980 X60.857 Y5.914 E32.07725
G0 F4320 X60.362 Y5.914
G1 F1980 X66.881 Y12.434 E32.48778
G0 F4320 X66.881 Y12.929
G1 F1980 X59.867 Y5.914 E32.92949
G0 F4320 X59.372 Y5.914
G1 F1980 X66.627 Y13.17 E33.38638
G0 F4320 X66.132 Y13.17
G1 F1980 X58.877 Y5.914 E33.84326
G0 F4320 X58.382 Y5.914
G1 F1980 X65.637 Y13.17 E34.30014
G0 F4320 X65.142 Y13.17
G1 F1980 X57.887 Y5.914 E34.75703
G0 F4320 X57.392 Y5.914
G1 F1980 X64.647 Y13.17 E35.21391
G0 F4320 X64.152 Y13.17
G1 F1980 X56.897 Y5.914 E35.6708
G0 F4320 X56.402 Y5.914
G1 F1980 X63.657 Y13.17 E36.12768
G0 F4320 X63.163 Y13.17
G1 F1980 X55.907 Y5.914 E36.5846
G0 F4320 X55.412 Y5.914
G1 F1980 X62.668 Y13.17 E37.04151
G0 F4320 X62.173 Y13.17
G1 F1980 X54.917 Y5.914 E37.49843
G0 F4320 X54.422 Y5.914
G1 F1980 X61.678 Y13.17 E37.95534
G0 F4320 X61.183 Y13.17
G1 F1980 X53.927 Y5.914 E38.41226
G0 F4320 X53.432 Y5.914
G1 F1980 X60.688 Y13.17 E38.86917
G0 F4320 X60.193 Y13.17
G1 F1980 X52.937 Y5.914 E39.32609
G0 F4320 X52.442 Y5.914
G1 F1980 X59.698 Y13.17 E39.783
G0 F4320 X59.203 Y13.17
G1 F1980 X51.947 Y5.914 E40.23992
G0 F4320 X51.452 Y5.914
G1 F1980 X58.708 Y13.17 E40.69683
G0 F4320 X58.213 Y13.17
G1 F1980 X50.957 Y5.914 E41.15375
G0 F4320 X50.462 Y5.914
G1 F1980 X57.718 Y13.17 E41.61066
G0 F4320 X57.223 Y13.17
G1 F1980 X49.967 Y5.914 E42.06758
G0 F4320 X49.472 Y5.914
G1 F1980 X56.728 Y13.17 E42.52449
G0 F4320 X56.233 Y13.17
G1 F1980 X48.977 Y5.914 E42.98141
G0 F4320 X48.482 Y5.914
G1 F1980 X55.738 Y13.17 E43.43833
G0 F4320 X55.243 Y13.17
G1 F1980 X47.987 Y5.914 E43.89524
G0 F4320 X47.492 Y5.914
G1 F1980 X54.748 Y13.17 E44.35216
G0 F4320 X54.253 Y13.17
G1 F1980 X46.997 Y5.914 E44.80907
G0 F4320 X46.502 Y5.914
G1 F1980 X53.758 Y13.17 E45.26599
G0 F4320 X53.263 Y13.17
G1 F1980 X46.007 Y5.914 E45.7229
G0 F4320 X45.512 Y5.914
G1 F1980 X52.768 Y13.17 E46.17982
G0 F4320 X52.273 Y13.17
G1 F1980 X45.017 Y5.914 E46.63673
G0 F4320 X44.522 Y5.914
G1 F1980 X51.778 Y13.17 E47.09365
G0 F4320 X51.283 Y13.17
G1 F1980 X45.644 Y7.531 E47.44874
G0 F4320 X45.462 Y7.348
G1 F1980 X44.028 Y5.914 E47.53904
G0 F4320 X43.533 Y5.914
G1 F1980 X44.405 Y6.787 E47.59398
G0 F4320 X43.809 Y6.686
G1 F1980 X43.038 Y5.914 E47.64256
G0 F4320 X42.543 Y5.914
G1 F1980 X43.323 Y6.694 E47.69168
G0 F4320 X42.886 Y6.752
G1 F1980 X42.048 Y5.914 E47.74445
G0 F4320 X41.553 Y5.914
G1 F1980 X42.528 Y6.89 E47.80588
G0 F4320 X42.187 Y7.044
G1 F1980 X41.058 Y5.914 E47.877
G0 F4320 X40.563 Y5.914
G1 F1980 X41.893 Y7.245 E47.96079
G0 F4320 X41.621 Y7.467
G1 F1980 X40.068 Y5.914 E48.05858
G0 F4320 X39.573 Y5.914
G1 F1980 X41.389 Y7.73 E48.17293
G0 F4320 X41.175 Y8.012
G1 F1980 X39.078 Y5.914 E48.30502
G0 F4320 X38.583 Y5.914
G1 F1980 X41.005 Y8.336 E48.45753
G0 F4320 X40.865 Y8.692
G1 F1980 X38.088 Y5.914 E48.63243
G0 F4320 X37.593 Y5.914
G1 F1980 X40.768 Y9.089 E48.83236
G0 F4320 X40.742 Y9.558
G1 F1980 X37.098 Y5.914 E49.06183
G0 F4320 X36.603 Y5.914
G1 F1980 X40.795 Y10.107 E49.32583
G1 X40.857 Y10.169
G0 F4320 X41.073 Y10.88
G1 F1980 X36.108 Y5.914 E49.63851
G0 F4320 X35.613 Y5.914
G1 F1980 X42.869 Y13.17 E50.09543
G0 F4320 X43.364 Y13.17
G1 F1980 X42.301 Y12.107 E50.16237
G1 X42.239 Y12.045
G0 F4320 X43.045 Y12.356
G1 F1980 X43.859 Y13.17 E50.21363
G0 F4320 X44.353 Y13.17
G1 F1980 X43.606 Y12.423 E50.26067
G0 F4320 X44.047 Y12.369
G1 F1980 X44.848 Y13.17 E50.3111
G0 F4320 X45.343 Y13.17
G1 F1980 X44.452 Y12.279 E50.36721
G0 F4320 X44.812 Y12.143
G1 F1980 X45.838 Y13.17 E50.43185
G0 F4320 X46.333 Y13.17
G1 F1980 X45.129 Y11.966 E50.50767
G0 F4320 X45.422 Y11.764
G1 F1980 X46.828 Y13.17 E50.5962
G0 F4320 X47.323 Y13.17
G1 F1980 X45.672 Y11.519 E50.70017
G0 F4320 X45.904 Y11.256
G1 F1980 X47.818 Y13.17 E50.8207
G0 F4320 X48.313 Y13.17
G1 F1980 X46.094 Y10.95 E50.96046
G0 F4320 X46.264 Y10.626
G1 F1980 X48.808 Y13.17 E51.12066
G0 F4320 X49.303 Y13.17
G1 F1980 X46.377 Y10.243 E51.30494
G0 F4320 X46.464 Y9.836
G1 F1980 X49.798 Y13.17 E51.51488
G0 F4320 X50.293 Y13.17
G1 F1980 X46.464 Y9.341 E51.756
G0 F4320 X46.35 Y8.732
G1 F1980 X50.788 Y13.17 E52.03546
G1 X50.85 Y13.232
G0 F4320 X50.85 Y13.583
G0 X42.374 Y13.583
G0 X42.374 Y13.17
G1 F1980 X35.118 Y5.914 E52.49238
G0 F4320 X34.623 Y5.914
G1 F1980 X41.879 Y13.17 E52.94929
G0 F4320 X41.384 Y13.17
G1 F1980 X34.128 Y5.914 E53.40621
G0 F4320 X33.633 Y5.914
G1 F1980 X40.889 Y13.17 E53.86312
G0 F4320 X40.394 Y13.17
G1 F1980 X33.138 Y5.914 E54.32004
G0 F4320 X32.643 Y5.914
G1 F1980 X39.899 Y13.17 E54.77695
G0 F4320 X39.404 Y13.17
G1 F1980 X32.148 Y5.914 E55.23387
G0 F4320 X31.653 Y5.914
G1 F1980 X38.909 Y13.17 E55.69079
G0 F4320 X38.414 Y13.17
G1 F1980 X33.414 Y8.17 E56.00564
G1 X33.352 Y8.108
G0 F4320 X33.705 Y8.956
G1 F1980 X37.919 Y13.17 E56.271
G0 F4320 X37.424 Y13.17
G1 F1980 X33.764 Y9.51 E56.50147
G0 F4320 X33.741 Y9.982
G1 F1980 X36.928 Y13.169 E56.70216
G0 F4320 X36.433 Y13.169
G1 F1980 X33.643 Y10.379 E56.87785
G0 F4320 X33.506 Y10.738
G1 F1980 X35.938 Y13.169 E57.03096
G0 F4320 X35.443 Y13.169
G1 F1980 X33.335 Y11.061 E57.1637
G0 F4320 X33.125 Y11.346
G1 F1980 X34.948 Y13.169 E57.2785
G0 F4320 X34.453 Y13.169
G1 F1980 X32.893 Y11.609 E57.37673
G0 F4320 X32.622 Y11.833
G1 F1980 X33.958 Y13.169 E57.46086
G0 F4320 X33.463 Y13.169
G1 F1980 X32.328 Y12.034 E57.53233
G0 F4320 X31.988 Y12.189
G1 F1980 X32.968 Y13.169 E57.59404
G0 F4320 X32.473 Y13.169
G1 F1980 X31.63 Y12.326 E57.64713
G0 F4320 X31.196 Y12.387
G1 F1980 X31.978 Y13.169 E57.69637
G0 F4320 X31.483 Y13.169
G1 F1980 X30.713 Y12.399 E57.74486
G0 F4320 X30.125 Y12.306
G1 F1980 X30.988 Y13.169 E57.7992
G0 F4320 X30.493 Y13.169
G1 F1980 X29.097 Y11.773 E57.88711
G0 F4320 X28.753 Y11.429
G1 F1980 X23.239 Y5.914 E58.23436
G0 F4320 X23.734 Y5.914
G1 F1980 X28.151 Y10.332 E58.51253
G0 F4320 X28.042 Y9.728
G1 F1980 X24.229 Y5.914 E58.75267
G0 F4320 X24.723 Y5.914
G1 F1980 X28.042 Y9.233 E58.96167
G0 F4320 X28.132 Y8.828
G1 F1980 X25.218 Y5.914 E59.14517
G0 F4320 X25.713 Y5.914
G1 F1980 X28.247 Y8.448 E59.30474
G0 F4320 X28.417 Y8.123
G1 F1980 X26.208 Y5.914 E59.44384
G0 F4320 X26.703 Y5.914
G1 F1980 X28.609 Y7.82 E59.56386
G0 F4320 X28.841 Y7.557
G1 F1980 X27.198 Y5.914 E59.66732
G0 F4320 X27.693 Y5.914
G1 F1980 X29.093 Y7.315 E59.75551
G0 F4320 X29.386 Y7.112
G1 F1980 X28.188 Y5.914 E59.83095
G0 F4320 X28.683 Y5.914
G1 F1980 X29.705 Y6.936 E59.89531
G0 F4320 X30.064 Y6.8
G1 F1980 X29.178 Y5.914 E59.9511
G0 F4320 X29.673 Y5.914
