;FLAVOR:Marlin
;TIME:4588
;Filament used: 4.54182m
;Layer height: 0.30625
;MINX:4.503
;MINY:2.856
;MINZ:0.306
;MAXX:72.232
;MAXY:104.478
;MAXZ:19.89
;Generated with Cura_SteamEngine 4.2.1
M140 S65
M105
M190 S65
M104 S205
M105
M109 S205
M82 ;absolute extrusion mode
G21;(metric values)
G90;(absolute positioning)
M82;(set extruder to absolute mode)
M107;(start with the fan off)
G28;(Home the printer)
G92 E0;(Reset the extruder to 0)
G0 Z5 E5 F500;(Move up and prime the nozzle)
G0 X-1 Z0;(Move outside the printable area)
G1 Y60 E8 F500;(Draw a priming/wiping line to the rear)
G1 X-1;(Move a little closer to the print area)
G1 Y10 E16 F500;(draw more priming/wiping)
G1 E15 F250;(Small retract)
G92 E0;(Zero the extruder)
M141 S28
G92 E0
G92 E0
G1 F2400 E-2.5
;LAYER_COUNT:65
;LAYER:0
M107
;MESH:Gripper-V-2.stl
G0 F4320 X30.715 Y15.301 Z0.306
;TYPE:WALL-INNER
G1 F2400 E0
G1 F1980 X31.191 Y15.629 E0.02574
G1 X31.728 Y15.833 E0.05132
G1 X32.297 Y15.901 E0.07683
G1 X32.866 Y15.833 E0.10235
G1 X33.403 Y15.629 E0.12793
G1 X33.877 Y15.304 E0.15352
G1 X34.257 Y14.872 E0.17914
G1 X34.523 Y14.366 E0.20459
G1 X34.661 Y13.809 E0.23014
G1 X34.661 Y13.233 E0.25579
G1 X34.523 Y12.676 E0.28134
G1 X34.257 Y12.17 E0.3068
G1 X33.877 Y11.738 E0.33241
G1 X33.403 Y11.413 E0.358
G1 X32.866 Y11.209 E0.38358
G1 X32.297 Y11.141 E0.4091
G1 X31.728 Y11.209 E0.43462
G1 X31.191 Y11.413 E0.46019
G1 X30.718 Y11.738 E0.48575
G1 X30.336 Y12.169 E0.51139
G1 X30.07 Y12.677 E0.53692
G1 X29.933 Y13.235 E0.56251
G1 X29.933 Y13.807 E0.58798
G1 X30.069 Y14.365 E0.61355
G1 X30.324 Y14.85 E0.63795
G0 F1782 X30.325 Y14.852
G0 X30.715 Y15.301
G1 F2400 E-1.86205
G0 F4320 X32.297 Y16.067
G0 X32.297 Y14.352
G0 X37.759 Y19.71
G0 X36.117 Y19.565
G0 X37.065 Y21.651
G1 F2400 E0.66453
G1 F1980 X37.541 Y21.979 E0.69027
G1 X38.078 Y22.183 E0.71585
G1 X38.647 Y22.251 E0.74137
G1 X39.216 Y22.183 E0.76688
G1 X39.753 Y21.979 E0.79246
G1 X40.227 Y21.654 E0.81805
G1 X40.607 Y21.222 E0.84367
G1 X40.873 Y20.716 E0.86912
G1 X41.011 Y20.159 E0.89468
G1 X41.011 Y19.583 E0.92032
G1 X40.873 Y19.026 E0.94587
G1 X40.607 Y18.52 E0.97133
G1 X40.227 Y18.088 E0.99695
G1 X39.753 Y17.763 E1.02254
G1 X39.216 Y17.559 E1.04812
G1 X38.647 Y17.491 E1.07363
G1 X38.078 Y17.559 E1.09915
G1 X37.541 Y17.763 E1.12473
G1 X37.068 Y18.088 E1.15028
G1 X36.686 Y18.519 E1.17592
G1 X36.42 Y19.027 E1.20146
G1 X36.283 Y19.585 E1.22704
G1 X36.283 Y20.157 E1.25251
G1 X36.419 Y20.715 E1.27808
G1 X36.674 Y21.2 E1.30248
G0 F1782 X36.675 Y21.202
G0 X37.065 Y21.651
G1 F2400 E-1.19752
G0 F4320 X38.647 Y21.788
G0 X39.537 Y21.568
G0 X40.224 Y20.959
G0 X40.55 Y20.101
G0 X40.343 Y18
G0 X39.198 Y19.248
G0 X44.392 Y14.2
G0 X43.304 Y15.426
G0 X43.415 Y15.301
G1 F2400 E1.32907
G1 F1980 X43.891 Y15.629 E1.3548
G1 X44.428 Y15.833 E1.38038
G1 X44.997 Y15.901 E1.4059
G1 X45.566 Y15.833 E1.43142
G1 X46.103 Y15.629 E1.45699
G1 X46.577 Y15.304 E1.48258
G1 X46.957 Y14.872 E1.5082
G1 X47.223 Y14.366 E1.53366
G1 X47.361 Y13.809 E1.55921
G1 X47.361 Y13.233 E1.58486
G1 X47.223 Y12.676 E1.61041
G1 X46.957 Y12.17 E1.63586
G1 X46.577 Y11.738 E1.66148
G1 X46.103 Y11.413 E1.68707
G1 X45.566 Y11.209 E1.71265
G1 X44.997 Y11.141 E1.73816
G1 X44.428 Y11.209 E1.76368
G1 X43.891 Y11.413 E1.78926
G1 X43.418 Y11.738 E1.81481
G1 X43.036 Y12.169 E1.84046
G1 X42.77 Y12.677 E1.86599
G1 X42.633 Y13.235 E1.89157
G1 X42.633 Y13.807 E1.91704
G1 X42.769 Y14.365 E1.94262
G1 X43.024 Y14.85 E1.96702
G0 F1782 X43.025 Y14.852
G0 X43.415 Y15.301
G1 F2400 E-0.53298
G0 F4320 X45.606 Y15.995
G0 X45.197 Y14.328
G0 X50.5 Y19.119
G0 X50.574 Y17.501
G0 X48.772 Y17.646
G1 F2400 E1.9936
G1 F1980 X48.772 Y22.646 E2.21623
G1 X28.522 Y22.646 E3.1179
G1 X28.522 Y17.646 E3.34054
G1 X6.522 Y17.646 E4.32013
G1 X6.522 Y9.396 E4.68748
G1 X28.522 Y9.396 E5.66708
G1 X28.522 Y4.396 E5.88971
G1 X48.772 Y4.396 E6.79138
G1 X48.772 Y9.396 E7.01402
G1 X70.772 Y9.396 E7.99361
G1 X70.772 Y17.646 E8.36096
G1 X49.369 Y17.646 E9.31397
G0 F1782 X48.772 Y17.646
G1 F2400 E6.81397
G0 F4320 X50.574 Y17.501
G0 X50.574 Y19.186
G0 X45.397 Y14.331
G0 X44.22 Y13.225
G0 X38.713 Y8.065
G0 X38.647 Y9.717
G0 X37.065 Y8.951
G1 F2400 E9.34055
G1 F1980 X37.541 Y9.279 E9.36629
G1 X38.078 Y9.483 E9.39187
G1 X38.647 Y9.551 E9.41739
G1 X39.216 Y9.483 E9.4429
G1 X39.753 Y9.279 E9.46848
G1 X40.227 Y8.954 E9.49407
G1 X40.607 Y8.522 E9.51969
G1 X40.873 Y8.016 E9.54515
G1 X41.011 Y7.459 E9.5707
G1 X41.011 Y6.883 E9.59634
G1 X40.873 Y6.326 E9.6219
G1 X40.607 Y5.82 E9.64735
G1 X40.227 Y5.388 E9.67297
G1 X39.753 Y5.063 E9.69856
G1 X39.216 Y4.859 E9.72414
G1 X38.647 Y4.791 E9.74965
G1 X38.078 Y4.859 E9.77517
G1 X37.541 Y5.063 E9.80075
G1 X37.068 Y5.388 E9.8263
G1 X36.686 Y5.819 E9.85195
G1 X36.42 Y6.327 E9.87748
G1 X36.283 Y6.885 E9.90306
G1 X36.283 Y7.457 E9.92853
G1 X36.419 Y8.015 E9.95411
G1 X36.674 Y8.5 E9.9785
G0 F1782 X36.675 Y8.502
G0 X37.065 Y8.951
G0 F4320 X37.3 Y8.688
G1 F2400 E10.00509
G1 F1980 X37.705 Y8.967 E10.02698
G1 X38.162 Y9.141 E10.04876
G1 X38.647 Y9.199 E10.07051
G1 X39.132 Y9.141 E10.09226
G1 X39.589 Y8.967 E10.11403
G1 X39.993 Y8.69 E10.13584
G1 X40.317 Y8.322 E10.15767
G1 X40.543 Y7.891 E10.17934
G1 X40.661 Y7.416 E10.20114
G1 X40.661 Y6.926 E10.22296
G1 X40.543 Y6.451 E10.24475
G1 X40.317 Y6.02 E10.26642
G1 X39.993 Y5.652 E10.28825
G1 X39.589 Y5.375 E10.31006
G1 X39.132 Y5.201 E10.33183
G1 X38.647 Y5.143 E10.35358
G1 X38.162 Y5.201 E10.37533
G1 X37.705 Y5.375 E10.39711
G1 X37.301 Y5.652 E10.41892
G1 X36.976 Y6.019 E10.44075
G1 X36.75 Y6.452 E10.4625
G1 X36.633 Y6.927 E10.48428
G1 X36.633 Y7.415 E10.50601
G1 X36.749 Y7.89 E10.52778
G1 X36.926 Y8.226 E10.54469
G0 F1782 X36.966 Y8.303
G0 X37.3 Y8.688
G1 F2400 E8.04469
G0 F4320 X38.647 Y9.717
G0 X38.647 Y8.002
G0 X44.253 Y12.995
G0 X42.899 Y12.074
G0 X43.094 Y13.751
G0 X43.65 Y15.038
G1 F2400 E10.57127
G1 F1980 X44.055 Y15.317 E10.59317
G1 X44.512 Y15.491 E10.61494
G1 X44.997 Y15.549 E10.63669
G1 X45.482 Y15.491 E10.65844
G1 X45.939 Y15.317 E10.68022
G1 X46.343 Y15.04 E10.70203
G1 X46.667 Y14.672 E10.72386
G1 X46.893 Y14.241 E10.74553
G1 X47.011 Y13.766 E10.76732
G1 X47.011 Y13.276 E10.78914
G1 X46.893 Y12.801 E10.81093
G1 X46.667 Y12.37 E10.8326
G1 X46.343 Y12.002 E10.85443
G1 X45.939 Y11.725 E10.87625
G1 X45.482 Y11.551 E10.89802
G1 X44.997 Y11.493 E10.91977
G1 X44.512 Y11.551 E10.94152
G1 X44.055 Y11.725 E10.96329
G1 X43.651 Y12.002 E10.9851
G1 X43.326 Y12.369 E11.00693
G1 X43.1 Y12.802 E11.02868
G1 X42.983 Y13.277 E11.05046
G1 X42.983 Y13.765 E11.07219
G1 X43.099 Y14.24 E11.09396
G1 X43.276 Y14.576 E11.11087
G0 F1782 X43.316 Y14.653
G0 X43.65 Y15.038
G1 F2400 E8.61087
G0 F4320 X44.539 Y15.382
G0 X46.688 Y15.43
G0 X45.548 Y14.144
G0 X50.505 Y19.117
G0 X50.574 Y17.501
G0 X49.122 Y17.996
G1 F2400 E11.13746
G1 F1980 X49.122 Y22.996 E11.36009
G1 X28.172 Y22.996 E12.29293
G1 X28.172 Y17.996 E12.51557
G1 X6.172 Y17.996 E13.49516
G1 X6.172 Y9.046 E13.89368
G1 X28.172 Y9.046 E14.87327
G1 X28.172 Y4.046 E15.09591
G1 X49.122 Y4.046 E16.02875
G1 X49.122 Y9.046 E16.25138
G1 X71.122 Y9.046 E17.23098
G1 X71.122 Y17.996 E17.62949
G1 X49.719 Y17.996 E18.58251
G0 F1782 X49.122 Y17.996
G1 F2400 E16.08251
G0 F4320 X48.589 Y21.359
G0 X50.312 Y21.388
G0 X39.501 Y20.175
G0 X41.029 Y20.775
G0 X39.537 Y21.568
G0 X38.647 Y21.788
G0 X37.3 Y21.388
G1 F2400 E18.60909
G1 F1980 X37.705 Y21.667 E18.63099
G1 X38.162 Y21.841 E18.65276
G1 X38.647 Y21.899 E18.67451
G1 X39.132 Y21.841 E18.69626
G1 X39.589 Y21.667 E18.71803
G1 X39.993 Y21.39 E18.73984
G1 X40.317 Y21.022 E18.76168
G1 X40.543 Y20.591 E18.78335
G1 X40.661 Y20.116 E18.80514
G1 X40.661 Y19.626 E18.82696
G1 X40.543 Y19.151 E18.84875
G1 X40.317 Y18.72 E18.87042
G1 X39.993 Y18.352 E18.89225
G1 X39.589 Y18.075 E18.91406
G1 X39.132 Y17.901 E18.93584
G1 X38.647 Y17.843 E18.95759
G1 X38.162 Y17.901 E18.97934
G1 X37.705 Y18.075 E19.00111
G1 X37.301 Y18.352 E19.02292
G1 X36.976 Y18.719 E19.04475
G1 X36.75 Y19.152 E19.0665
G1 X36.633 Y19.627 E19.08828
G1 X36.633 Y20.115 E19.11001
G1 X36.749 Y20.59 E19.13178
G1 X36.926 Y20.926 E19.14869
G0 F1782 X36.966 Y21.003
G0 X37.3 Y21.388
G1 F2400 E16.64869
G0 F4320 X36.117 Y19.565
G0 X37.822 Y19.77
G0 X32.36 Y14.415
G0 X32.297 Y16.067
G0 X30.95 Y15.038
G1 F2400 E19.17527
G1 F1980 X31.355 Y15.317 E19.19717
G1 X31.812 Y15.491 E19.21895
G1 X32.297 Y15.549 E19.24069
G1 X32.782 Y15.491 E19.26244
G1 X33.239 Y15.317 E19.28422
G1 X33.643 Y15.04 E19.30603
G1 X33.967 Y14.672 E19.32786
G1 X34.193 Y14.241 E19.34953
G1 X34.311 Y13.766 E19.37132
G1 X34.311 Y13.276 E19.39314
G1 X34.193 Y12.801 E19.41494
G1 X33.967 Y12.37 E19.4366
G1 X33.643 Y12.002 E19.45844
G1 X33.239 Y11.725 E19.48025
G1 X32.782 Y11.551 E19.50202
G1 X32.297 Y11.493 E19.52377
G1 X31.812 Y11.551 E19.54552
G1 X31.355 Y11.725 E19.56729
G1 X30.951 Y12.002 E19.58911
G1 X30.626 Y12.369 E19.61093
G1 X30.4 Y12.802 E19.63268
G1 X30.283 Y13.277 E19.65446
G1 X30.283 Y13.765 E19.67619
G1 X30.399 Y14.24 E19.69797
G1 X30.576 Y14.576 E19.71488
G0 F1782 X30.616 Y14.653
G0 X30.95 Y15.038
G0 F4320 X31.168 Y14.794
;TYPE:WALL-OUTER
G1 F2400 E19.74146
G1 F1980 X31.507 Y15.027 E19.75977
G1 X31.89 Y15.173 E19.77803
G1 X32.297 Y15.222 E19.79628
G1 X32.704 Y15.173 E19.81453
G1 X33.087 Y15.027 E19.83278
G1 X33.426 Y14.795 E19.85107
G1 X33.697 Y14.487 E19.86934
G1 X33.887 Y14.125 E19.88755
G1 X33.986 Y13.726 E19.90585
G1 X33.986 Y13.316 E19.92411
G1 X33.887 Y12.917 E19.94241
G1 X33.697 Y12.555 E19.96062
G1 X33.426 Y12.247 E19.97888
G1 X33.087 Y12.015 E19.99717
G1 X32.704 Y11.869 E20.01542
G1 X32.297 Y11.82 E20.03368
G1 X31.89 Y11.869 E20.05193
G1 X31.507 Y12.015 E20.07018
G1 X31.168 Y12.247 E20.08847
G1 X30.896 Y12.555 E20.10677
G1 X30.706 Y12.918 E20.12501
G1 X30.608 Y13.316 E20.14326
G1 X30.608 Y13.726 E20.16152
G1 X30.705 Y14.124 E20.17976
G1 X30.809 Y14.321 E20.18968
G0 F1782 X30.886 Y14.469
G0 X31.168 Y14.794
G0 F4320 X31.332 Y14.907
G1 F2400 E17.68968
G0 F4320 X31.177 Y15.133
G0 X32.297 Y16.067
G0 X32.297 Y14.352
G0 X37.759 Y19.71
G0 X36.117 Y19.565
G0 X37.361 Y21.369
G0 X37.518 Y21.144
G1 F2400 E20.21626
G1 F1980 X37.857 Y21.377 E20.23458
G1 X38.24 Y21.523 E20.25283
G1 X38.647 Y21.572 E20.27108
G1 X39.054 Y21.523 E20.28934
G1 X39.437 Y21.377 E20.30759
G1 X39.776 Y21.145 E20.32588
G1 X40.047 Y20.837 E20.34415
G1 X40.237 Y20.475 E20.36235
G1 X40.336 Y20.076 E20.38066
G1 X40.336 Y19.666 E20.39891
G1 X40.237 Y19.267 E20.41722
G1 X40.047 Y18.905 E20.43542
G1 X39.776 Y18.597 E20.45369
G1 X39.437 Y18.365 E20.47198
G1 X39.054 Y18.219 E20.49023
G1 X38.647 Y18.17 E20.50848
G1 X38.24 Y18.219 E20.52674
G1 X37.857 Y18.365 E20.54499
G1 X37.518 Y18.597 E20.56328
G1 X37.246 Y18.905 E20.58157
G1 X37.056 Y19.268 E20.59982
G1 X36.958 Y19.666 E20.61807
G1 X36.958 Y20.076 E20.63633
G1 X37.055 Y20.474 E20.65457
G1 X37.159 Y20.671 E20.66449
G0 F1782 X37.236 Y20.819
G0 X37.518 Y21.144
G0 F4320 X37.682 Y21.257
G1 F2400 E18.16449
G0 F4320 X37.527 Y21.483
G0 X38.189 Y21.732
G0 X39.105 Y21.732
G0 X39.919 Y21.306
G0 X40.439 Y20.552
G0 X40.55 Y19.841
G0 X40.36 Y17.959
G0 X39.198 Y19.248
G0 X44.392 Y14.2
G0 X43.293 Y15.412
G0 X43.868 Y14.794
G1 F2400 E20.69107
G1 F1980 X44.207 Y15.027 E20.70938
G1 X44.59 Y15.173 E20.72763
G1 X44.997 Y15.222 E20.74589
G1 X45.404 Y15.173 E20.76414
G1 X45.787 Y15.027 E20.78239
G1 X46.126 Y14.795 E20.80068
G1 X46.397 Y14.487 E20.81895
G1 X46.587 Y14.125 E20.83715
G1 X46.686 Y13.726 E20.85546
G1 X46.686 Y13.316 E20.87372
G1 X46.587 Y12.917 E20.89202
G1 X46.397 Y12.555 E20.91023
G1 X46.126 Y12.247 E20.92849
G1 X45.787 Y12.015 E20.94678
G1 X45.404 Y11.869 E20.96503
G1 X44.997 Y11.82 E20.98329
G1 X44.59 Y11.869 E21.00154
G1 X44.207 Y12.015 E21.01979
G1 X43.868 Y12.247 E21.03808
G1 X43.596 Y12.555 E21.05638
G1 X43.406 Y12.918 E21.07462
G1 X43.308 Y13.316 E21.09287
G1 X43.308 Y13.726 E21.11113
G1 X43.405 Y14.124 E21.12937
G1 X43.509 Y14.321 E21.13929
G0 F1782 X43.586 Y14.469
G0 X43.868 Y14.794
G0 F4320 X44.032 Y14.907
G1 F2400 E18.63929
G0 F4320 X43.877 Y15.133
G0 X45.606 Y15.995
G0 X45.197 Y14.328
G0 X50.5 Y19.119
G0 X50.574 Y17.501
G0 X49.244 Y18.118
G0 X49.447 Y18.321
G1 F2400 E21.16587
G1 F1980 X49.447 Y23.321 E21.38851
G1 X27.847 Y23.321 E22.35029
G1 X27.847 Y18.321 E22.57293
G1 X5.847 Y18.321 E23.55252
G1 X5.847 Y8.721 E23.97998
G1 X27.847 Y8.721 E24.95957
G1 X27.847 Y3.721 E25.18221
G1 X49.447 Y3.721 E26.14399
G1 X49.447 Y8.721 E26.36663
G1 X71.447 Y8.721 E27.34622
G1 X71.447 Y18.321 E27.77368
G1 X50.044 Y18.321 E28.72669
G0 F1782 X49.447 Y18.321
G0 F4320 X49.447 Y18.521
G1 F2400 E26.22669
G0 F4320 X49.172 Y18.521
G0 X50.574 Y17.501
G0 X50.574 Y19.186
G0 X45.459 Y14.298
G0 X44.22 Y13.225
G0 X38.906 Y8.034
G0 X39.256 Y9.645
G0 X37.361 Y8.669
G0 X37.518 Y8.444
G1 F2400 E28.75327
G1 F1980 X37.857 Y8.677 E28.77159
G1 X38.24 Y8.823 E28.78984
G1 X38.647 Y8.872 E28.80809
G1 X39.054 Y8.823 E28.82635
G1 X39.437 Y8.677 E28.8446
G1 X39.776 Y8.445 E28.86289
G1 X40.047 Y8.137 E28.88116
G1 X40.237 Y7.775 E28.89936
G1 X40.336 Y7.376 E28.91767
G1 X40.336 Y6.966 E28.93592
G1 X40.237 Y6.567 E28.95423
G1 X40.047 Y6.205 E28.97243
G1 X39.776 Y5.897 E28.9907
G1 X39.437 Y5.665 E29.00899
G1 X39.054 Y5.519 E29.02724
G1 X38.647 Y5.47 E29.04549
G1 X38.24 Y5.519 E29.06375
G1 X37.857 Y5.665 E29.082
G1 X37.518 Y5.897 E29.10029
G1 X37.246 Y6.205 E29.11859
G1 X37.056 Y6.568 E29.13683
G1 X36.958 Y6.966 E29.15508
G1 X36.958 Y7.376 E29.17334
G1 X37.055 Y7.774 E29.19158
G1 X37.159 Y7.971 E29.2015
G0 F1782 X37.236 Y8.119
G0 X37.518 Y8.444
G0 F4320 X37.682 Y8.557
G0 X37.527 Y8.783
G0 X36.836 Y9.207
;TYPE:SKIN
G1 F2400 E29.22808
G1 F1980 X37.382 Y9.582 E29.25757
G1 X37.996 Y9.815 E29.28681
G1 X38.647 Y9.893 E29.31601
G1 X39.298 Y9.815 E29.3452
G1 X39.912 Y9.582 E29.37445
G1 X40.454 Y9.21 E29.40372
G1 X40.889 Y8.716 E29.43303
G1 X41.193 Y8.138 E29.4621
G1 X41.351 Y7.5 E29.49137
G1 X41.351 Y6.842 E29.52067
G1 X41.193 Y6.204 E29.54994
G1 X40.889 Y5.626 E29.57902
G1 X40.454 Y5.132 E29.60832
G1 X39.912 Y4.76 E29.6376
G1 X39.849 Y4.736 E29.6406
G1 X48.432 Y4.736 E30.02277
G1 X48.432 Y9.736 E30.24541
G1 X70.432 Y9.736 E31.225
G1 X70.432 Y17.306 E31.56207
G1 X48.432 Y17.306 E32.54166
G1 X48.432 Y22.306 E32.7643
G1 X39.849 Y22.306 E33.14648
G1 X39.912 Y22.282 E33.14948
G1 X40.454 Y21.91 E33.17875
G1 X40.889 Y21.416 E33.20806
G1 X41.193 Y20.838 E33.23714
G1 X41.351 Y20.2 E33.2664
G1 X41.351 Y19.542 E33.2957
G1 X41.193 Y18.904 E33.32497
G1 X40.889 Y18.326 E33.35405
G1 X40.454 Y17.832 E33.38336
G1 X39.912 Y17.46 E33.41263
G1 X39.298 Y17.227 E33.44187
G1 X38.647 Y17.149 E33.47106
G1 X37.996 Y17.227 E33.50026
G1 X37.382 Y17.46 E33.5295
G1 X36.841 Y17.831 E33.55871
G1 X36.404 Y18.325 E33.58808
G1 X36.1 Y18.906 E33.61727
G1 X35.943 Y19.544 E33.64653
G1 X35.943 Y20.198 E33.67565
G1 X36.099 Y20.836 E33.7049
G1 X36.393 Y21.395 E33.73302
G1 X36.836 Y21.907 E33.76317
G1 X37.382 Y22.282 E33.79266
G1 X37.445 Y22.306 E33.79566
G1 X28.862 Y22.306 E34.17784
G1 X28.862 Y17.306 E34.40047
G1 X6.862 Y17.306 E35.38007
G1 X6.862 Y9.736 E35.71714
G1 X28.862 Y9.736 E36.69673
G1 X28.862 Y4.736 E36.91936
G1 X37.445 Y4.736 E37.30154
G1 X37.382 Y4.76 E37.30454
G1 X36.841 Y5.131 E37.33375
G1 X36.404 Y5.625 E37.36312
G1 X36.1 Y6.206 E37.39232
G1 X35.943 Y6.844 E37.42157
G1 X35.943 Y7.498 E37.45069
G1 X36.099 Y8.136 E37.47994
G1 X36.393 Y8.695 E37.50806
G1 X36.446 Y8.756 E37.51166
G0 F1782 X36.836 Y9.207
G1 F2400 E35.01166
G0 F4320 X37.009 Y9.016
G0 X38.099 Y7.796
G0 X32.902 Y12.843
G0 X33.988 Y11.612
G0 X34.104 Y11.482
G1 F2400 E37.53824
G1 F1980 X33.562 Y11.11 E37.56751
G1 X32.948 Y10.877 E37.59675
G1 X32.297 Y10.799 E37.62595
G1 X31.646 Y10.877 E37.65514
G1 X31.032 Y11.11 E37.68439
G1 X30.491 Y11.481 E37.71359
G1 X30.054 Y11.975 E37.74296
G1 X29.75 Y12.556 E37.77216
G1 X29.593 Y13.194 E37.80142
G1 X29.593 Y13.848 E37.83054
G1 X29.749 Y14.486 E37.85978
G1 X30.043 Y15.045 E37.8879
G1 X30.486 Y15.557 E37.91805
G1 X31.032 Y15.932 E37.94755
G1 X31.646 Y16.165 E37.97679
G1 X32.297 Y16.243 E38.00598
G1 X32.948 Y16.165 E38.03518
G1 X33.562 Y15.932 E38.06442
G1 X34.104 Y15.56 E38.09369
G1 X34.539 Y15.066 E38.123
G1 X34.843 Y14.488 E38.15208
G1 X35.001 Y13.85 E38.18134
G1 X35.001 Y13.192 E38.21064
G1 X34.843 Y12.554 E38.23991
