;FLAVOR:Marlin
;TIME:5994
;Filament used: 5.94975m
;Layer height: 0.30625
;MINX:5.239
;MINY:2.702
;MINZ:0.306
;MAXX:69.609
;MAXY:101.46
;MAXZ:39.78
;Generated with Cura_SteamEngine 4.2.1
M140 S65
M105
M190 S65
M104 S205
M105
M109 S205
M82 ;absolute extrusion mode
G21;(metric values)
G90;(absolute positioning)
M82;(set extruder to absolute mode)
M107;(start with the fan off)
G28;(Home the printer)
G92 E0;(Reset the extruder to 0)
G0 Z5 E5 F500;(Move up and prime the nozzle)
G0 X-1 Z0;(Move outside the printable area)
G1 Y60 E8 F500;(Draw a priming/wiping line to the rear)
G1 X-1;(Move a little closer to the print area)
G1 Y10 E16 F500;(draw more priming/wiping)
G1 E15 F250;(Small retract)
G92 E0;(Zero the extruder)
M141 S28
G92 E0
G92 E0
G1 F2400 E-2.5
;LAYER_COUNT:130
;LAYER:0
M107
;MESH:Gripper-V-3.stl
G0 F4320 X32.193 Y11.587 Z0.306
;TYPE:WALL-INNER
G1 F2400 E0
G1 F1980 X31.718 Y11.259 E0.0257
G1 X31.179 Y11.053 E0.0514
G1 X30.61 Y10.987 E0.0769
G1 X30.041 Y11.053 E0.10241
G1 X29.503 Y11.259 E0.12806
G1 X29.03 Y11.584 E0.15361
G1 X28.649 Y12.015 E0.17923
G1 X28.383 Y12.523 E0.20476
G1 X28.246 Y13.081 E0.23034
G1 X28.246 Y13.653 E0.25581
G1 X28.383 Y14.211 E0.2814
G1 X28.649 Y14.719 E0.30693
G1 X29.031 Y15.15 E0.33257
G1 X29.504 Y15.475 E0.35813
G1 X30.041 Y15.679 E0.38371
G1 X30.61 Y15.747 E0.40922
G1 X31.179 Y15.679 E0.43474
G1 X31.717 Y15.475 E0.46036
G1 X32.189 Y15.15 E0.48588
G1 X32.57 Y14.719 E0.51149
G1 X32.836 Y14.212 E0.53698
G1 X32.974 Y13.655 E0.56254
G1 X32.974 Y13.079 E0.58818
G1 X32.836 Y12.523 E0.61369
G1 X32.582 Y12.039 E0.63803
G0 F1782 X32.581 Y12.037
G0 X32.193 Y11.587
G1 F2400 E-1.86197
G0 F4320 X33.14 Y13.676
G0 X31.435 Y13.467
G0 X36.939 Y18.83
G0 X36.96 Y17.171
G0 X38.543 Y17.937
G1 F2400 E0.66461
G1 F1980 X38.068 Y17.609 E0.69032
G1 X37.529 Y17.403 E0.71601
G1 X36.96 Y17.337 E0.74151
G1 X36.391 Y17.403 E0.76702
G1 X35.853 Y17.609 E0.79267
G1 X35.38 Y17.934 E0.81823
G1 X34.999 Y18.365 E0.84384
G1 X34.733 Y18.873 E0.86937
G1 X34.596 Y19.431 E0.89496
G1 X34.596 Y20.003 E0.92043
G1 X34.733 Y20.561 E0.94601
G1 X34.999 Y21.069 E0.97154
G1 X35.381 Y21.5 E0.99719
G1 X35.854 Y21.825 E1.02274
G1 X36.391 Y22.029 E1.04832
G1 X36.96 Y22.097 E1.07384
G1 X37.529 Y22.029 E1.09935
G1 X38.067 Y21.825 E1.12497
G1 X38.539 Y21.5 E1.15049
G1 X38.92 Y21.069 E1.1761
G1 X39.186 Y20.562 E1.2016
G1 X39.324 Y20.005 E1.22715
G1 X39.324 Y19.429 E1.2528
G1 X39.186 Y18.873 E1.2783
G1 X38.932 Y18.389 E1.30264
G0 F1782 X38.931 Y18.387
G0 X38.543 Y17.937
G1 F2400 E-1.19736
G0 F4320 X37.652 Y19.259
G0 X48.545 Y19.021
G0 X46.9 Y18.293
G0 X47.085 Y17.492
G1 F2400 E1.32923
G1 F1980 X47.085 Y22.492 E1.55186
G1 X26.835 Y22.492 E2.45353
G1 X26.835 Y17.492 E2.67617
G1 X6.835 Y17.492 E3.56671
G1 X6.835 Y9.242 E3.93405
G1 X26.835 Y9.242 E4.8246
G1 X26.835 Y4.242 E5.04723
G1 X47.085 Y4.242 E5.9489
G1 X47.085 Y9.242 E6.17154
G1 X67.085 Y9.242 E7.06208
G1 X67.085 Y17.492 E7.42942
G1 X47.682 Y17.492 E8.29338
G0 F1782 X47.085 Y17.492
G1 F2400 E5.79338
G0 F4320 X48.887 Y17.347
G0 X48.887 Y19.032
G0 X44.047 Y13.897
G0 X45.407 Y14.814
G0 X45.251 Y13.456
G0 X44.893 Y11.587
G1 F2400 E8.31996
G1 F1980 X44.418 Y11.259 E8.34567
G1 X43.879 Y11.053 E8.37136
G1 X43.31 Y10.987 E8.39687
G1 X42.741 Y11.053 E8.42237
G1 X42.203 Y11.259 E8.44802
G1 X41.73 Y11.584 E8.47358
G1 X41.349 Y12.015 E8.49919
G1 X41.083 Y12.523 E8.52473
G1 X40.946 Y13.081 E8.55031
G1 X40.946 Y13.653 E8.57578
G1 X41.083 Y14.211 E8.60136
G1 X41.349 Y14.719 E8.6269
G1 X41.731 Y15.15 E8.65254
G1 X42.204 Y15.475 E8.67809
G1 X42.741 Y15.679 E8.70367
G1 X43.31 Y15.747 E8.72919
G1 X43.879 Y15.679 E8.7547
G1 X44.417 Y15.475 E8.78032
G1 X44.889 Y15.15 E8.80584
G1 X45.27 Y14.719 E8.83146
G1 X45.536 Y14.212 E8.85695
G1 X45.674 Y13.655 E8.8825
G1 X45.674 Y13.079 E8.90815
G1 X45.536 Y12.523 E8.93366
G1 X45.282 Y12.039 E8.95799
G0 F1782 X45.281 Y12.037
G0 X44.893 Y11.587
G1 F2400 E6.45799
G0 F4320 X43.31 Y10.821
G0 X43.351 Y12.54
G0 X37.845 Y7.176
G0 X39.49 Y7.326
G0 X38.543 Y5.237
G1 F2400 E8.98458
G1 F1980 X38.068 Y4.909 E9.01028
G1 X37.529 Y4.703 E9.03597
G1 X36.96 Y4.637 E9.06148
G1 X36.391 Y4.703 E9.08699
G1 X35.853 Y4.909 E9.11264
G1 X35.38 Y5.234 E9.13819
G1 X34.999 Y5.665 E9.1638
G1 X34.733 Y6.173 E9.18934
G1 X34.596 Y6.731 E9.21492
G1 X34.596 Y7.303 E9.24039
G1 X34.733 Y7.861 E9.26598
G1 X34.999 Y8.369 E9.29151
G1 X35.381 Y8.8 E9.31715
G1 X35.854 Y9.125 E9.34271
G1 X36.391 Y9.329 E9.36828
G1 X36.96 Y9.397 E9.3938
G1 X37.529 Y9.329 E9.41932
G1 X38.067 Y9.125 E9.44494
G1 X38.539 Y8.8 E9.47045
G1 X38.92 Y8.369 E9.49607
G1 X39.186 Y7.862 E9.52156
G1 X39.324 Y7.305 E9.54711
G1 X39.324 Y6.729 E9.57276
G1 X39.186 Y6.173 E9.59827
G1 X38.932 Y5.689 E9.62261
G0 F1782 X38.931 Y5.687
G0 X38.543 Y5.237
G0 F4320 X38.307 Y5.5
G1 F2400 E9.64919
G1 F1980 X37.904 Y5.221 E9.67102
G1 X37.445 Y5.046 E9.69289
G1 X36.96 Y4.989 E9.71463
G1 X36.475 Y5.046 E9.73638
G1 X36.017 Y5.221 E9.75821
G1 X35.614 Y5.498 E9.77998
G1 X35.289 Y5.865 E9.80181
G1 X35.063 Y6.298 E9.82356
G1 X34.946 Y6.773 E9.84534
G1 X34.946 Y7.261 E9.86707
G1 X35.063 Y7.736 E9.88885
G1 X35.289 Y8.169 E9.9106
G1 X35.614 Y8.536 E9.93243
G1 X36.018 Y8.813 E9.95424
G1 X36.475 Y8.987 E9.97601
G1 X36.96 Y9.045 E9.99776
G1 X37.445 Y8.987 E10.01951
G1 X37.903 Y8.813 E10.04133
G1 X38.305 Y8.536 E10.06307
G1 X38.63 Y8.169 E10.08489
G1 X38.856 Y7.737 E10.1066
G1 X38.974 Y7.262 E10.1284
G1 X38.974 Y6.772 E10.15021
G1 X38.856 Y6.298 E10.17196
G1 X38.68 Y5.962 E10.18885
G0 F1782 X38.64 Y5.885
G0 X38.307 Y5.5
G1 F2400 E7.68885
G0 F4320 X37.418 Y5.155
G0 X36.502 Y5.155
G0 X35.688 Y5.582
G0 X35.167 Y6.338
G0 X35.057 Y7.201
G0 X35.251 Y8.932
G0 X36.408 Y7.639
G0 X31.21 Y12.686
G0 X32.305 Y11.462
G0 X31.957 Y11.85
G1 F2400 E10.21544
G1 F1980 X31.554 Y11.571 E10.23726
G1 X31.095 Y11.396 E10.25913
G1 X30.61 Y11.339 E10.28088
G1 X30.125 Y11.396 E10.30262
G1 X29.667 Y11.571 E10.32445
G1 X29.264 Y11.848 E10.34623
G1 X28.939 Y12.215 E10.36806
G1 X28.713 Y12.648 E10.38981
G1 X28.596 Y13.123 E10.41159
G1 X28.596 Y13.611 E10.43332
G1 X28.713 Y14.086 E10.4551
G1 X28.939 Y14.519 E10.47685
G1 X29.264 Y14.886 E10.49868
G1 X29.668 Y15.163 E10.52049
G1 X30.125 Y15.337 E10.54226
G1 X30.61 Y15.395 E10.56401
G1 X31.095 Y15.337 E10.58576
G1 X31.553 Y15.163 E10.60758
G1 X31.955 Y14.886 E10.62931
G1 X32.28 Y14.519 E10.65114
G1 X32.506 Y14.087 E10.67285
G1 X32.624 Y13.612 E10.69464
G1 X32.624 Y13.122 E10.71646
G1 X32.506 Y12.648 E10.73821
G1 X32.33 Y12.312 E10.7551
G0 F1782 X32.29 Y12.235
G0 X31.957 Y11.85
G1 F2400 E8.2551
G0 F4320 X32.317 Y12.528
G0 X32.992 Y14.271
G0 X31.386 Y13.663
G0 X36.483 Y18.947
G0 X36.351 Y17.241
G0 X38.307 Y18.2
G1 F2400 E10.78168
G1 F1980 X37.904 Y17.921 E10.80351
G1 X37.445 Y17.746 E10.82538
G1 X36.96 Y17.689 E10.84713
G1 X36.475 Y17.746 E10.86887
G1 X36.017 Y17.921 E10.8907
G1 X35.614 Y18.198 E10.91248
G1 X35.289 Y18.565 E10.9343
G1 X35.063 Y18.998 E10.95605
G1 X34.946 Y19.473 E10.97783
G1 X34.946 Y19.961 E10.99956
G1 X35.063 Y20.436 E11.02135
G1 X35.289 Y20.869 E11.04309
G1 X35.614 Y21.236 E11.06492
G1 X36.018 Y21.513 E11.08673
G1 X36.475 Y21.687 E11.10851
G1 X36.96 Y21.745 E11.13026
G1 X37.445 Y21.687 E11.15201
G1 X37.903 Y21.513 E11.17382
G1 X38.305 Y21.236 E11.19556
G1 X38.63 Y20.869 E11.21739
G1 X38.856 Y20.437 E11.2391
G1 X38.974 Y19.962 E11.26089
G1 X38.974 Y19.472 E11.28271
G1 X38.856 Y18.998 E11.30446
G1 X38.68 Y18.662 E11.32135
G0 F1782 X38.64 Y18.585
G0 X38.307 Y18.2
G1 F2400 E8.82135
G0 F4320 X37.506 Y19.091
G0 X42.701 Y14.043
G0 X41.562 Y15.238
G0 X41.732 Y14.455
G0 X41.407 Y13.597
G0 X41.517 Y12.688
G0 X42.038 Y11.932
G0 X42.852 Y11.505
G0 X43.68 Y11.494
G0 X44.657 Y11.85
G1 F2400 E11.34793
G1 F1980 X44.254 Y11.571 E11.36975
G1 X43.795 Y11.396 E11.39163
G1 X43.31 Y11.339 E11.41337
G1 X42.825 Y11.396 E11.43512
G1 X42.367 Y11.571 E11.45695
G1 X41.964 Y11.848 E11.47872
G1 X41.639 Y12.215 E11.50055
G1 X41.413 Y12.648 E11.5223
G1 X41.296 Y13.123 E11.54408
G1 X41.296 Y13.611 E11.56581
G1 X41.413 Y14.086 E11.58759
G1 X41.639 Y14.519 E11.60934
G1 X41.964 Y14.886 E11.63117
G1 X42.368 Y15.163 E11.65298
G1 X42.825 Y15.337 E11.67475
G1 X43.31 Y15.395 E11.6965
G1 X43.795 Y15.337 E11.71825
G1 X44.253 Y15.163 E11.74007
G1 X44.655 Y14.886 E11.76181
G1 X44.98 Y14.519 E11.78363
G1 X45.206 Y14.087 E11.80534
G1 X45.324 Y13.612 E11.82714
G1 X45.324 Y13.122 E11.84895
G1 X45.206 Y12.648 E11.8707
G1 X45.03 Y12.312 E11.88759
G0 F1782 X44.99 Y12.235
G0 X44.657 Y11.85
G1 F2400 E9.38759
G0 F4320 X45.102 Y12.688
G0 X45.407 Y14.814
G0 X43.994 Y13.84
G0 X48.821 Y18.963
G0 X48.887 Y17.347
G0 X47.435 Y17.842
G1 F2400 E11.91418
G1 F1980 X47.435 Y22.842 E12.13681
G1 X26.485 Y22.842 E13.06965
G1 X26.485 Y17.842 E13.29229
G1 X6.485 Y17.842 E14.18283
G1 X6.485 Y8.892 E14.58134
G1 X26.485 Y8.892 E15.47188
G1 X26.485 Y3.892 E15.69452
G1 X47.435 Y3.892 E16.62736
G1 X47.435 Y8.892 E16.85
G1 X67.435 Y8.892 E17.74054
G1 X67.435 Y17.842 E18.13905
G1 X48.032 Y17.842 E19.00301
G0 F1782 X47.435 Y17.842
G0 F4320 X47.76 Y18.167
;TYPE:WALL-OUTER
G1 F2400 E19.02959
G1 F1980 X47.76 Y23.167 E19.25223
G1 X26.16 Y23.167 E20.21401
G1 X26.16 Y18.167 E20.43665
G1 X6.16 Y18.167 E21.32719
G1 X6.16 Y8.567 E21.75464
G1 X26.16 Y8.567 E22.64518
G1 X26.16 Y3.567 E22.86782
G1 X47.76 Y3.567 E23.8296
G1 X47.76 Y8.567 E24.05224
G1 X67.76 Y8.567 E24.94278
G1 X67.76 Y18.167 E25.37024
G1 X48.357 Y18.167 E26.2342
G0 F1782 X47.76 Y18.167
G0 F4320 X47.76 Y18.367
G1 F2400 E23.7342
G0 F4320 X47.485 Y18.367
G0 X48.887 Y17.347
G0 X48.887 Y19.032
G0 X44.047 Y13.897
G0 X45.407 Y14.814
G0 X45.213 Y13.137
G0 X44.594 Y11.869
G0 X44.438 Y12.094
G1 F2400 E26.26078
G1 F1980 X44.101 Y11.861 E26.27902
G1 X43.717 Y11.714 E26.29733
G1 X43.31 Y11.666 E26.31558
G1 X42.903 Y11.714 E26.33383
G1 X42.519 Y11.861 E26.35213
G1 X42.181 Y12.093 E26.37039
G1 X41.909 Y12.401 E26.38868
G1 X41.719 Y12.764 E26.40693
G1 X41.621 Y13.162 E26.42518
G1 X41.621 Y13.572 E26.44344
G1 X41.719 Y13.97 E26.46169
G1 X41.909 Y14.333 E26.47993
G1 X42.181 Y14.641 E26.49823
G1 X42.52 Y14.873 E26.51652
G1 X42.903 Y15.019 E26.53477
G1 X43.31 Y15.068 E26.55302
G1 X43.717 Y15.019 E26.57128
G1 X44.101 Y14.873 E26.58957
G1 X44.438 Y14.641 E26.60779
G1 X44.71 Y14.333 E26.62608
G1 X44.9 Y13.971 E26.64429
G1 X44.999 Y13.572 E26.66259
G1 X44.999 Y13.162 E26.68085
G1 X44.9 Y12.764 E26.69911
G1 X44.797 Y12.567 E26.70901
G0 F1782 X44.72 Y12.419
G0 X44.438 Y12.094
G0 F4320 X44.274 Y11.981
G1 F2400 E24.20901
G0 F4320 X44.431 Y11.756
G0 X43.768 Y11.505
G0 X42.852 Y11.505
G0 X42.038 Y11.932
G0 X41.517 Y12.688
G0 X41.598 Y15.25
G0 X42.758 Y13.989
G0 X37.561 Y19.036
G0 X38.655 Y17.812
G0 X38.088 Y18.444
G1 F2400 E26.73559
G1 F1980 X37.751 Y18.211 E26.75383
G1 X37.367 Y18.064 E26.77214
G1 X36.96 Y18.016 E26.79039
G1 X36.553 Y18.064 E26.80864
G1 X36.169 Y18.211 E26.82695
G1 X35.831 Y18.443 E26.8452
G1 X35.559 Y18.751 E26.8635
G1 X35.369 Y19.114 E26.88174
G1 X35.271 Y19.512 E26.89999
G1 X35.271 Y19.922 E26.91825
G1 X35.369 Y20.32 E26.9365
G1 X35.559 Y20.683 E26.95474
G1 X35.831 Y20.991 E26.97304
G1 X36.17 Y21.223 E26.99133
G1 X36.553 Y21.369 E27.00958
G1 X36.96 Y21.418 E27.02783
G1 X37.367 Y21.369 E27.04609
G1 X37.751 Y21.223 E27.06438
G1 X38.088 Y20.991 E27.0826
G1 X38.36 Y20.683 E27.10089
G1 X38.55 Y20.321 E27.1191
G1 X38.649 Y19.922 E27.1374
G1 X38.649 Y19.512 E27.15566
G1 X38.55 Y19.114 E27.17392
G1 X38.447 Y18.917 E27.18382
G0 F1782 X38.37 Y18.769
G0 X38.088 Y18.444
G0 F4320 X37.924 Y18.331
G1 F2400 E24.68382
G0 F4320 X38.081 Y18.106
G0 X36.351 Y17.241
G0 X36.539 Y19.005
G0 X31.442 Y13.721
G0 X32.992 Y14.271
G0 X32.402 Y12.688
G0 X31.894 Y11.869
G0 X31.738 Y12.094
G1 F2400 E27.2104
G1 F1980 X31.401 Y11.861 E27.22865
G1 X31.017 Y11.714 E27.24695
G1 X30.61 Y11.666 E27.2652
G1 X30.203 Y11.714 E27.28345
G1 X29.819 Y11.861 E27.30176
G1 X29.481 Y12.093 E27.32001
G1 X29.209 Y12.401 E27.33831
G1 X29.019 Y12.764 E27.35655
G1 X28.921 Y13.162 E27.3748
G1 X28.921 Y13.572 E27.39306
G1 X29.019 Y13.97 E27.41131
G1 X29.209 Y14.333 E27.42955
G1 X29.481 Y14.641 E27.44785
G1 X29.82 Y14.873 E27.46614
G1 X30.203 Y15.019 E27.48439
G1 X30.61 Y15.068 E27.50265
G1 X31.017 Y15.019 E27.5209
G1 X31.401 Y14.873 E27.53919
G1 X31.738 Y14.641 E27.55741
G1 X32.01 Y14.333 E27.57571
G1 X32.2 Y13.971 E27.59391
G1 X32.299 Y13.572 E27.61222
G1 X32.299 Y13.162 E27.63047
G1 X32.2 Y12.764 E27.64873
G1 X32.097 Y12.567 E27.65863
G0 F1782 X32.02 Y12.419
G0 X31.738 Y12.094
G0 F4320 X31.574 Y11.981
G1 F2400 E25.15863
G0 F4320 X31.731 Y11.756
G0 X31.156 Y12.741
G0 X36.35 Y7.693
G0 X35.212 Y8.888
G0 X35.382 Y8.105
G0 X35.057 Y7.247
G0 X35.167 Y6.338
G0 X35.688 Y5.582
G0 X36.502 Y5.155
G0 X37.33 Y5.144
G0 X38.244 Y5.519
G0 X38.088 Y5.744
G1 F2400 E27.68521
G1 F1980 X37.751 Y5.511 E27.70346
G1 X37.367 Y5.364 E27.72177
G1 X36.96 Y5.316 E27.74001
G1 X36.553 Y5.364 E27.75826
G1 X36.169 Y5.511 E27.77657
G1 X35.831 Y5.743 E27.79482
G1 X35.559 Y6.051 E27.81312
G1 X35.369 Y6.414 E27.83137
G1 X35.271 Y6.812 E27.84962
G1 X35.271 Y7.222 E27.86787
G1 X35.369 Y7.62 E27.88612
G1 X35.559 Y7.983 E27.90437
G1 X35.831 Y8.291 E27.92266
G1 X36.17 Y8.523 E27.94095
G1 X36.553 Y8.669 E27.95921
G1 X36.96 Y8.718 E27.97746
G1 X37.367 Y8.669 E27.99571
G1 X37.751 Y8.523 E28.014
G1 X38.088 Y8.291 E28.03222
G1 X38.36 Y7.983 E28.05052
G1 X38.55 Y7.621 E28.06872
G1 X38.649 Y7.222 E28.08703
G1 X38.649 Y6.812 E28.10528
G1 X38.55 Y6.414 E28.12355
G1 X38.447 Y6.217 E28.13344
G0 F1782 X38.37 Y6.069
G0 X38.088 Y5.744
G0 F4320 X37.924 Y5.631
G0 X38.081 Y5.406
G0 X38.772 Y4.982
;TYPE:SKIN
G1 F2400 E28.16003
G1 F1980 X38.227 Y4.606 E28.18951
G1 X38.164 Y4.582 E28.19251
G1 X46.745 Y4.582 E28.5746
G1 X46.745 Y9.582 E28.79723
G1 X66.745 Y9.582 E29.68777
G1 X66.745 Y17.152 E30.02484
G1 X46.745 Y17.152 E30.91538
G1 X46.745 Y22.152 E31.13802
G1 X38.163 Y22.152 E31.52015
G1 X38.226 Y22.128 E31.52315
G1 X38.766 Y21.756 E31.55235
G1 X39.202 Y21.263 E31.58165
G1 X39.506 Y20.684 E31.61077
G1 X39.664 Y20.046 E31.64004
G1 X39.664 Y19.388 E31.66934
G1 X39.506 Y18.751 E31.69856
G1 X39.214 Y18.195 E31.72652
G1 X38.772 Y17.682 E31.75667
G1 X38.227 Y17.306 E31.78616
G1 X37.611 Y17.07 E31.81553
G1 X36.96 Y16.995 E31.84471
G1 X36.309 Y17.07 E31.87389
G1 X35.694 Y17.306 E31.90322
G1 X35.153 Y17.678 E31.93245
G1 X34.717 Y18.171 E31.96176
G1 X34.413 Y18.752 E31.99095
G1 X34.256 Y19.39 E32.02021
G1 X34.256 Y20.044 E32.04933
G1 X34.413 Y20.682 E32.07859
G1 X34.717 Y21.263 E32.10778
G1 X35.154 Y21.757 E32.13715
G1 X35.695 Y22.128 E32.16636
G1 X35.758 Y22.152 E32.16936
G1 X27.175 Y22.152 E32.55154
G1 X27.175 Y17.152 E32.77417
G1 X7.175 Y17.152 E33.66471
G1 X7.175 Y9.582 E34.00178
G1 X27.175 Y9.582 E34.89232
G1 X27.175 Y4.582 E35.11496
G1 X35.757 Y4.582 E35.49709
G1 X35.694 Y4.606 E35.50009
G1 X35.153 Y4.978 E35.52933
G1 X34.717 Y5.471 E35.55863
G1 X34.413 Y6.052 E35.58783
G1 X34.256 Y6.69 E35.61708
G1 X34.256 Y7.344 E35.6462
G1 X34.413 Y7.982 E35.67546
G1 X34.717 Y8.563 E35.70466
G1 X35.154 Y9.057 E35.73403
G1 X35.695 Y9.428 E35.76323
G1 X36.309 Y9.661 E35.79248
G1 X36.96 Y9.739 E35.82167
G1 X37.611 Y9.661 E35.85087
G1 X38.226 Y9.428 E35.88015
G1 X38.766 Y9.056 E35.90935
G1 X39.202 Y8.563 E35.93865
G1 X39.506 Y7.984 E35.96777
G1 X39.664 Y7.346 E35.99704
G1 X39.664 Y6.688 E36.02634
G1 X39.506 Y6.051 E36.05556
G1 X39.214 Y5.495 E36.08352
G1 X39.161 Y5.434 E36.08712
G0 F1782 X38.772 Y4.982
G1 F2400 E33.58712
G0 F4320 X38.602 Y5.173
G0 X39.057 Y8.464
G0 X37.644 Y7.49
G0 X42.702 Y12.688
G0 X41.619 Y11.458
G0 X41.503 Y11.328
G1 F2400 E36.1137
G1 F1980 X41.067 Y11.821 E36.14301
G1 X40.763 Y12.402 E36.17221
G1 X40.606 Y13.04 E36.20146
G1 X40.606 Y13.694 E36.23058
G1 X40.763 Y14.332 E36.25984
G1 X41.067 Y14.913 E36.28903
G1 X41.504 Y15.407 E36.3184
G1 X42.045 Y15.778 E36.34761
G1 X42.659 Y16.011 E36.37685
G1 X43.31 Y16.089 E36.40605
G1 X43.961 Y16.011 E36.43524
G1 X44.576 Y15.778 E36.46453
G1 X45.116 Y15.406 E36.49372
G1 X45.552 Y14.913 E36.52303
G1 X45.856 Y14.334 E36.55215
G1 X46.014 Y13.696 E36.58141
G1 X46.014 Y13.038 E36.61071
G1 X45.856 Y12.401 E36.63994
G1 X45.564 Y11.845 E36.6679
G1 X45.122 Y11.332 E36.69805
G1 X44.577 Y10.956 E36.72753
G1 X43.961 Y10.72 E36.75691
