;FLAVOR:Marlin
;TIME:1513
;Filament used: 1.7913m
;Layer height: 0.30625
;MINX:5.589
;MINY:16.237
;MINZ:0.306
;MAXX:68.054
;MAXY:27.567
;MAXZ:29.988
;Generated with Cura_SteamEngine 4.2.1
M140 S65
M105
M190 S65
M104 S205
M105
M109 S205
M82 ;absolute extrusion mode
G21;(metric values)
G90;(absolute positioning)
M82;(set extruder to absolute mode)
M107;(start with the fan off)
G28;(Home the printer)
G92 E0;(Reset the extruder to 0)
G0 Z5 E5 F500;(Move up and prime the nozzle)
G0 X-1 Z0;(Move outside the printable area)
G1 Y60 E8 F500;(Draw a priming/wiping line to the rear)
G1 X-1;(Move a little closer to the print area)
G1 Y10 E16 F500;(draw more priming/wiping)
G1 E15 F250;(Small retract)
G92 E0;(Zero the extruder)
M141 S28
G92 E0
G92 E0
G1 F2400 E-2.5
;LAYER_COUNT:98
;LAYER:0
M107
;MESH:Gripper-V-4.stl
G0 F4320 X7.129 Y26.027 Z0.306
;TYPE:WALL-INNER
G1 F2400 E0
G1 F1980 X7.129 Y17.777 E0.36735
G1 X67.379 Y17.777 E3.0501
G1 X67.379 Y26.027 E3.41745
G1 X7.726 Y26.027 E6.07362
G0 F1782 X7.129 Y26.027
G1 F2400 E3.57362
G0 F4320 X30.335 Y25.842
G0 X30.503 Y24.403
G0 X30.335 Y24.216
G1 F2400 E6.1002
G1 F1980 X30.904 Y24.282 E6.12571
G1 X31.473 Y24.216 E6.15121
G1 X32.011 Y24.01 E6.17686
G1 X32.484 Y23.685 E6.20242
G1 X32.864 Y23.253 E6.22804
G1 X33.13 Y22.747 E6.25349
G1 X33.268 Y22.19 E6.27904
G1 X33.268 Y21.615 E6.30464
G1 X33.13 Y21.057 E6.33024
G1 X32.863 Y20.55 E6.35575
G1 X32.483 Y20.12 E6.3813
G1 X32.004 Y19.79 E6.4072
G1 X31.467 Y19.588 E6.43275
G1 X30.904 Y19.522 E6.45799
G1 X30.335 Y19.59 E6.48351
G1 X29.797 Y19.794 E6.50913
G1 X29.324 Y20.12 E6.53471
G1 X28.939 Y20.556 E6.56061
G1 X28.677 Y21.058 E6.58582
G1 X28.54 Y21.617 E6.61145
G1 X28.54 Y22.188 E6.63687
G1 X28.677 Y22.745 E6.66241
G1 X28.938 Y23.246 E6.68757
G1 X29.324 Y23.685 E6.7136
G1 X29.78 Y23.999 E6.73825
G0 F1782 X29.797 Y24.01
G0 X30.335 Y24.216
G1 F2400 E4.23825
G0 F4320 X33.001 Y23.348
G0 X31.588 Y22.375
G0 X42.831 Y22.368
G0 X41.5 Y23.34
G0 X43.035 Y24.216
G1 F2400 E6.76483
G1 F1980 X43.604 Y24.282 E6.79034
G1 X44.173 Y24.216 E6.81584
G1 X44.711 Y24.01 E6.84149
G1 X45.184 Y23.685 E6.86705
G1 X45.564 Y23.253 E6.89267
G1 X45.83 Y22.747 E6.91812
G1 X45.968 Y22.19 E6.94367
G1 X45.968 Y21.615 E6.96927
G1 X45.83 Y21.057 E6.99487
G1 X45.563 Y20.55 E7.02038
G1 X45.183 Y20.12 E7.04593
G1 X44.704 Y19.79 E7.07183
G1 X44.167 Y19.588 E7.09738
G1 X43.604 Y19.522 E7.12262
G1 X43.035 Y19.59 E7.14814
G1 X42.497 Y19.794 E7.17376
G1 X42.024 Y20.12 E7.19934
G1 X41.639 Y20.556 E7.22524
G1 X41.377 Y21.058 E7.25045
G1 X41.24 Y21.617 E7.27608
G1 X41.24 Y22.188 E7.3015
G1 X41.377 Y22.745 E7.32704
G1 X41.638 Y23.246 E7.3522
G1 X42.024 Y23.685 E7.37823
G1 X42.48 Y23.999 E7.40288
G0 F1782 X42.497 Y24.01
G0 X43.035 Y24.216
G0 F4320 X43.119 Y23.873
G1 F2400 E7.42946
G1 F1980 X43.604 Y23.93 E7.4512
G1 X44.089 Y23.873 E7.47295
G1 X44.547 Y23.698 E7.49478
G1 X44.95 Y23.421 E7.51656
G1 X45.274 Y23.053 E7.53839
G1 X45.5 Y22.622 E7.56006
G1 X45.618 Y22.147 E7.58185
G1 X45.618 Y21.658 E7.60362
G1 X45.5 Y21.182 E7.62546
G1 X45.273 Y20.75 E7.64719
G1 X44.949 Y20.384 E7.66895
G1 X44.541 Y20.103 E7.69101
G1 X44.084 Y19.931 E7.71276
G1 X43.604 Y19.874 E7.73428
G1 X43.119 Y19.932 E7.75603
G1 X42.661 Y20.106 E7.77784
G1 X42.258 Y20.384 E7.79964
G1 X41.93 Y20.756 E7.82173
G1 X41.707 Y21.183 E7.84318
G1 X41.59 Y21.659 E7.865
G1 X41.59 Y22.146 E7.88669
G1 X41.707 Y22.621 E7.90847
G1 X41.929 Y23.047 E7.92986
G1 X42.258 Y23.421 E7.95204
G1 X42.573 Y23.638 E7.96907
G0 F1782 X42.661 Y23.698
G0 X43.119 Y23.873
G1 F2400 E5.46907
G0 F4320 X41.5 Y23.34
G0 X42.916 Y22.369
G0 X31.759 Y22.198
G0 X33.286 Y22.806
G0 X31.795 Y23.599
G0 X30.419 Y23.873
G1 F2400 E7.99565
G1 F1980 X30.904 Y23.93 E8.0174
G1 X31.389 Y23.873 E8.03914
G1 X31.847 Y23.698 E8.06097
G1 X32.25 Y23.421 E8.08275
G1 X32.574 Y23.053 E8.10458
G1 X32.8 Y22.622 E8.12625
G1 X32.918 Y22.147 E8.14804
G1 X32.918 Y21.658 E8.16982
G1 X32.8 Y21.182 E8.19165
G1 X32.573 Y20.75 E8.21338
G1 X32.249 Y20.384 E8.23515
G1 X31.841 Y20.103 E8.25721
G1 X31.384 Y19.931 E8.27895
G1 X30.904 Y19.874 E8.30047
G1 X30.419 Y19.932 E8.32222
G1 X29.961 Y20.106 E8.34404
G1 X29.558 Y20.384 E8.36584
G1 X29.23 Y20.756 E8.38792
G1 X29.007 Y21.183 E8.40937
G1 X28.89 Y21.659 E8.43119
G1 X28.89 Y22.146 E8.45288
G1 X29.007 Y22.621 E8.47466
G1 X29.229 Y23.047 E8.49605
G1 X29.558 Y23.421 E8.51823
G1 X29.873 Y23.638 E8.53526
G0 F1782 X29.961 Y23.698
G0 X30.419 Y23.873
G1 F2400 E6.03526
G0 F4320 X28.8 Y23.34
G0 X28.8 Y25.842
G0 X6.779 Y26.377
G1 F2400 E8.56185
G1 F1980 X6.779 Y17.427 E8.96036
G1 X67.729 Y17.427 E11.67428
G1 X67.729 Y26.377 E12.0728
G1 X7.376 Y26.377 E14.76014
G0 F1782 X6.779 Y26.377
G0 F4320 X6.454 Y26.702
;TYPE:WALL-OUTER
G1 F2400 E14.78672
G1 F1980 X6.454 Y17.102 E15.21418
G1 X68.054 Y17.102 E17.95704
G1 X68.054 Y26.702 E18.3845
G1 X7.051 Y26.702 E21.10078
G0 F1782 X6.454 Y26.702
G0 F4320 X6.454 Y26.502
G1 F2400 E18.60078
G0 F4320 X6.729 Y26.427
G0 X30.401 Y25.842
G0 X30.569 Y24.41
G0 X30.497 Y23.555
G1 F2400 E21.12737
G1 F1980 X30.904 Y23.603 E21.14561
G1 X31.311 Y23.555 E21.16386
G1 X31.695 Y23.408 E21.18217
G1 X32.033 Y23.176 E21.20043
G1 X32.304 Y22.868 E21.21869
G1 X32.494 Y22.506 E21.2369
G1 X32.593 Y22.107 E21.2552
G1 X32.593 Y21.698 E21.27341
G1 X32.494 Y21.298 E21.29176
G1 X32.304 Y20.936 E21.30997
G1 X32.032 Y20.629 E21.32823
G1 X31.689 Y20.393 E21.34677
G1 X31.306 Y20.249 E21.36499
G1 X30.904 Y20.201 E21.38301
G1 X30.497 Y20.25 E21.40127
G1 X30.113 Y20.396 E21.41956
G1 X29.775 Y20.629 E21.43784
G1 X29.5 Y20.941 E21.45636
G1 X29.313 Y21.299 E21.47434
G1 X29.215 Y21.698 E21.49264
G1 X29.215 Y22.107 E21.51085
G1 X29.313 Y22.505 E21.5291
G1 X29.499 Y22.862 E21.54702
G1 X29.775 Y23.176 E21.56564
G1 X29.96 Y23.303 E21.57563
G0 F1782 X30.113 Y23.408
G0 X30.497 Y23.555
G0 F4320 X30.696 Y23.578
G1 F2400 E19.07563
G0 F4320 X30.664 Y23.851
G0 X33.001 Y23.348
G0 X31.588 Y22.375
G0 X42.744 Y22.198
G0 X41.221 Y22.804
G0 X43.163 Y23.827
G0 X43.197 Y23.555
G1 F2400 E21.60221
G1 F1980 X43.604 Y23.603 E21.62046
G1 X44.011 Y23.555 E21.63871
G1 X44.395 Y23.408 E21.65702
G1 X44.733 Y23.176 E21.67527
G1 X45.004 Y22.868 E21.69354
G1 X45.194 Y22.506 E21.71174
G1 X45.293 Y22.107 E21.73005
G1 X45.293 Y21.698 E21.74826
G1 X45.194 Y21.298 E21.76661
G1 X45.004 Y20.936 E21.78481
G1 X44.732 Y20.629 E21.80307
G1 X44.389 Y20.393 E21.82161
G1 X44.006 Y20.249 E21.83983
G1 X43.604 Y20.201 E21.85786
G1 X43.197 Y20.25 E21.87611
G1 X42.813 Y20.396 E21.89441
G1 X42.475 Y20.629 E21.91269
G1 X42.2 Y20.941 E21.9312
G1 X42.013 Y21.299 E21.94919
G1 X41.915 Y21.698 E21.96748
G1 X41.915 Y22.107 E21.98569
G1 X42.013 Y22.505 E22.00395
G1 X42.199 Y22.862 E22.02187
G1 X42.475 Y23.176 E22.04048
G1 X42.66 Y23.303 E22.05048
G0 F1782 X42.813 Y23.408
G0 X43.197 Y23.555
G0 F4320 X43.396 Y23.578
G0 X43.364 Y23.851
G0 X43.604 Y24.624
;TYPE:SKIN
G1 F2400 E22.07706
G1 F1980 X44.255 Y24.549 E22.10624
G1 X44.87 Y24.313 E22.13557
G1 X45.411 Y23.941 E22.1648
G1 X45.846 Y23.447 E22.19411
G1 X46.15 Y22.869 E22.22319
G1 X46.308 Y22.231 E22.25246
G1 X46.308 Y21.574 E22.28171
G1 X46.15 Y20.935 E22.31102
G1 X45.845 Y20.356 E22.34016
G1 X45.41 Y19.864 E22.3694
G1 X44.863 Y19.487 E22.39898
G1 X44.248 Y19.255 E22.42825
G1 X43.604 Y19.18 E22.45712
G1 X42.953 Y19.258 E22.48631
G1 X42.338 Y19.491 E22.5156
G1 X41.797 Y19.864 E22.54486
G1 X41.357 Y20.362 E22.57445
G1 X41.056 Y20.937 E22.60335
G1 X40.9 Y21.576 E22.63264
G1 X40.9 Y22.229 E22.66171
G1 X41.057 Y22.866 E22.69092
G1 X41.356 Y23.44 E22.71974
G1 X41.797 Y23.941 E22.74946
G1 X42.338 Y24.313 E22.7787
G1 X42.953 Y24.549 E22.80803
G1 X43.011 Y24.556 E22.81063
G0 F1782 X43.604 Y24.624
G1 F2400 E20.31063
G0 F4320 X43.605 Y24.367
G0 X41.5 Y23.34
G0 X42.916 Y22.369
G0 X31.807 Y22.003
G0 X33.434 Y22.211
G0 X33.608 Y22.231
G1 F2400 E22.83721
G1 F1980 X33.608 Y21.574 E22.86647
G1 X33.45 Y20.935 E22.89577
G1 X33.145 Y20.356 E22.92491
G1 X32.71 Y19.864 E22.95416
G1 X32.163 Y19.487 E22.98374
G1 X31.548 Y19.255 E23.013
G1 X30.904 Y19.18 E23.04187
G1 X30.253 Y19.258 E23.07107
G1 X29.638 Y19.491 E23.10035
G1 X29.097 Y19.864 E23.12961
G1 X28.657 Y20.362 E23.1592
G1 X28.356 Y20.937 E23.1881
G1 X28.2 Y21.576 E23.21739
G1 X28.2 Y22.229 E23.24646
G1 X28.357 Y22.866 E23.27568
G1 X28.656 Y23.44 E23.3045
G1 X29.097 Y23.941 E23.33421
G1 X29.638 Y24.313 E23.36345
G1 X30.253 Y24.549 E23.39278
G1 X30.904 Y24.624 E23.42196
G1 X31.555 Y24.549 E23.45114
G1 X32.17 Y24.313 E23.48047
G1 X32.711 Y23.941 E23.5097
G1 X33.146 Y23.447 E23.53901
G1 X33.45 Y22.869 E23.56809
G1 X33.465 Y22.81 E23.5708
G0 F1782 X33.608 Y22.231
G1 F2400 E21.0708
G0 F4320 X33.353 Y22.201
G0 X31.729 Y22.002
G0 X33.409 Y27.489
G0 X33.434 Y25.842
G0 X67.153 Y25.686
G0 X67.039 Y25.687
G1 F2400 E23.59738
G1 F1980 X7.469 Y25.687 E26.24986
G1 X7.469 Y18.117 E26.58693
G1 X67.039 Y18.117 E29.2394
G1 X67.039 Y25.09 E29.54989
G0 F1782 X67.039 Y25.687
G0 F4320 X67.294 Y25.687
G0 X67.294 Y18.374
G0 X66.881 Y18.374
G1 F2400 E29.57647
G1 F1980 X66.781 Y18.273 E29.5828
G0 F4320 X66.286 Y18.273
G1 F1980 X66.881 Y18.869 E29.6203
G0 F4320 X66.881 Y19.364
G1 F1980 X65.791 Y18.273 E29.68897
G0 F4320 X65.296 Y18.273
G1 F1980 X66.881 Y19.859 E29.78881
G0 F4320 X66.881 Y20.354
G1 F1980 X64.801 Y18.273 E29.91982
G0 F4320 X64.306 Y18.273
G1 F1980 X66.881 Y20.849 E30.082
G0 F4320 X66.881 Y21.344
G1 F1980 X63.811 Y18.273 E30.27535
G0 F4320 X63.316 Y18.273
G1 F1980 X66.881 Y21.838 E30.49984
G0 F4320 X66.881 Y22.333
G1 F1980 X62.821 Y18.273 E30.7555
G0 F4320 X62.326 Y18.273
G1 F1980 X66.881 Y22.828 E31.04233
G0 F4320 X66.881 Y23.323
G1 F1980 X61.831 Y18.273 E31.36034
G0 F4320 X61.336 Y18.273
G1 F1980 X66.881 Y23.818 E31.70951
G0 F4320 X66.881 Y24.313
G1 F1980 X60.841 Y18.273 E32.08985
G0 F4320 X60.346 Y18.273
G1 F1980 X66.881 Y24.808 E32.50137
G0 F4320 X66.881 Y25.303
G1 F1980 X59.851 Y18.273 E32.94405
G0 F4320 X59.356 Y18.273
G1 F1980 X66.612 Y25.529 E33.40096
G0 F4320 X66.117 Y25.529
G1 F1980 X58.861 Y18.273 E33.85788
G0 F4320 X58.366 Y18.273
G1 F1980 X65.622 Y25.529 E34.3148
G0 F4320 X65.127 Y25.529
G1 F1980 X57.871 Y18.273 E34.77171
G0 F4320 X57.376 Y18.273
G1 F1980 X64.632 Y25.529 E35.22863
G0 F4320 X64.137 Y25.529
G1 F1980 X56.881 Y18.273 E35.68554
G0 F4320 X56.386 Y18.273
G1 F1980 X63.642 Y25.529 E36.14246
G0 F4320 X63.147 Y25.529
G1 F1980 X55.891 Y18.273 E36.59937
G0 F4320 X55.396 Y18.273
G1 F1980 X62.652 Y25.529 E37.05629
G0 F4320 X62.157 Y25.529
G1 F1980 X54.901 Y18.273 E37.5132
G0 F4320 X54.406 Y18.273
G1 F1980 X61.662 Y25.529 E37.97012
G0 F4320 X61.167 Y25.529
G1 F1980 X53.911 Y18.273 E38.42703
G0 F4320 X53.416 Y18.273
G1 F1980 X60.672 Y25.529 E38.88395
G0 F4320 X60.177 Y25.529
G1 F1980 X52.921 Y18.273 E39.34086
G0 F4320 X52.427 Y18.273
G1 F1980 X59.682 Y25.529 E39.79775
G0 F4320 X59.187 Y25.529
G1 F1980 X51.932 Y18.273 E40.25463
G0 F4320 X51.437 Y18.273
G1 F1980 X58.692 Y25.529 E40.71152
G0 F4320 X58.197 Y25.529
G1 F1980 X50.942 Y18.273 E41.1684
G0 F4320 X50.447 Y18.273
G1 F1980 X57.702 Y25.529 E41.62528
G0 F4320 X57.207 Y25.529
G1 F1980 X49.952 Y18.273 E42.08217
G0 F4320 X49.457 Y18.273
G1 F1980 X56.712 Y25.529 E42.53905
G0 F4320 X56.217 Y25.529
G1 F1980 X48.962 Y18.273 E42.99594
G0 F4320 X48.467 Y18.273
G1 F1980 X55.722 Y25.529 E43.45282
G0 F4320 X55.227 Y25.529
G1 F1980 X47.972 Y18.273 E43.9097
G0 F4320 X47.477 Y18.273
G1 F1980 X54.732 Y25.529 E44.36659
G0 F4320 X54.237 Y25.529
G1 F1980 X46.982 Y18.273 E44.82347
G0 F4320 X46.487 Y18.273
G1 F1980 X53.742 Y25.529 E45.28036
G0 F4320 X53.247 Y25.529
G1 F1980 X45.992 Y18.273 E45.73724
G0 F4320 X45.497 Y18.273
G1 F1980 X52.752 Y25.529 E46.19412
G0 F4320 X52.258 Y25.529
G1 F1980 X45.002 Y18.273 E46.65104
G0 F4320 X44.507 Y18.273
G1 F1980 X51.763 Y25.529 E47.10795
G0 F4320 X51.268 Y25.529
G1 F1980 X45.75 Y20.011 E47.45543
G0 F4320 X45.416 Y19.677
G1 F1980 X44.012 Y18.273 E47.54384
G0 F4320 X43.517 Y18.273
G1 F1980 X44.382 Y19.138 E47.59831
G0 F4320 X43.792 Y19.043
G1 F1980 X43.022 Y18.273 E47.64679
G0 F4320 X42.527 Y18.273
G1 F1980 X43.31 Y19.056 E47.6961
G0 F4320 X42.876 Y19.118
G1 F1980 X42.032 Y18.273 E47.74928
G0 F4320 X41.537 Y18.273
G1 F1980 X42.518 Y19.254 E47.81105
G0 F4320 X42.178 Y19.409
G1 F1980 X41.042 Y18.273 E47.88259
G0 F4320 X40.547 Y18.273
G1 F1980 X41.885 Y19.611 E47.96684
G0 F4320 X41.613 Y19.834
G1 F1980 X40.052 Y18.273 E48.06514
G0 F4320 X39.557 Y18.273
G1 F1980 X41.38 Y20.096 E48.17994
G0 F4320 X41.169 Y20.38
G1 F1980 X39.062 Y18.273 E48.31261
G0 F4320 X38.567 Y18.273
G1 F1980 X41 Y20.706 E48.46582
G0 F4320 X40.862 Y21.064
G1 F1980 X38.072 Y18.273 E48.64154
G0 F4320 X37.577 Y18.273
G1 F1980 X40.765 Y21.461 E48.84229
G0 F4320 X40.742 Y21.933
G1 F1980 X37.082 Y18.273 E49.07277
G0 F4320 X36.587 Y18.273
G1 F1980 X40.8 Y22.486 E49.33806
G1 X40.862 Y22.548
G0 F4320 X41.09 Y23.271
G1 F1980 X36.092 Y18.273 E49.65279
G0 F4320 X35.597 Y18.273
G1 F1980 X42.853 Y25.529 E50.1097
G0 F4320 X43.348 Y25.529
G1 F1980 X42.277 Y24.458 E50.17715
G1 X42.215 Y24.396
G0 F4320 X43.029 Y24.715
G1 F1980 X43.843 Y25.529 E50.2284
G0 F4320 X44.338 Y25.529
G1 F1980 X43.589 Y24.78 E50.27557
G0 F4320 X44.036 Y24.732
G1 F1980 X44.833 Y25.529 E50.32576
G0 F4320 X45.328 Y25.529
G1 F1980 X44.443 Y24.644 E50.38149
G0 F4320 X44.801 Y24.507
G1 F1980 X45.823 Y25.529 E50.44584
G0 F4320 X46.318 Y25.529
G1 F1980 X45.12 Y24.331 E50.52128
G0 F4320 X45.413 Y24.129
G1 F1980 X46.813 Y25.529 E50.60944
G0 F4320 X47.308 Y25.529
G1 F1980 X45.665 Y23.886 E50.7129
G0 F4320 X45.897 Y23.623
G1 F1980 X47.803 Y25.529 E50.83292
G0 F4320 X48.298 Y25.529
G1 F1980 X46.089 Y23.32 E50.97202
G0 F4320 X46.26 Y22.996
G1 F1980 X48.793 Y25.529 E51.13153
G0 F4320 X49.288 Y25.529
G1 F1980 X46.374 Y22.615 E51.31503
G0 F4320 X46.463 Y22.21
G1 F1980 X49.783 Y25.529 E51.52406
G0 F4320 X50.278 Y25.529
G1 F1980 X46.463 Y21.715 E51.76426
G0 F4320 X46.354 Y21.11
G1 F1980 X50.773 Y25.529 E52.04253
G1 X50.835 Y25.591
G0 F4320 X50.835 Y25.942
G0 X42.358 Y25.942
G0 X42.358 Y25.529
G1 F1980 X35.102 Y18.273 E52.49944
G0 F4320 X34.607 Y18.273
G1 F1980 X41.863 Y25.529 E52.95636
G0 F4320 X41.368 Y25.529
G1 F1980 X34.112 Y18.273 E53.41327
G0 F4320 X33.617 Y18.273
G1 F1980 X40.873 Y25.529 E53.87019
G0 F4320 X40.378 Y25.529
G1 F1980 X33.123 Y18.273 E54.32707
G0 F4320 X32.628 Y18.273
G1 F1980 X39.883 Y25.529 E54.78396
G0 F4320 X39.388 Y25.529
G1 F1980 X32.133 Y18.273 E55.24084
G0 F4320 X31.638 Y18.273
G1 F1980 X38.893 Y25.529 E55.69772
G0 F4320 X38.398 Y25.529
G1 F1980 X33.428 Y20.559 E56.01069
G1 X33.366 Y20.497
G0 F4320 X33.71 Y21.336
G1 F1980 X37.903 Y25.529 E56.27472
G0 F4320 X37.408 Y25.529
G1 F1980 X33.764 Y21.884 E56.50422
G0 F4320 X33.738 Y22.354
G1 F1980 X36.913 Y25.529 E56.70415
G0 F4320 X36.418 Y25.529
G1 F1980 X33.64 Y22.751 E56.87908
G0 F4320 X33.501 Y23.106
G1 F1980 X35.923 Y25.529 E57.03163
G0 F4320 X35.428 Y25.529
G1 F1980 X33.33 Y23.431 E57.16374
G0 F4320 X33.118 Y23.714
G1 F1980 X34.933 Y25.529 E57.27804
G0 F4320 X34.438 Y25.529
G1 F1980 X32.886 Y23.977 E57.37577
G0 F4320 X32.613 Y24.198
G1 F1980 X33.943 Y25.529 E57.45955
G0 F4320 X33.448 Y25.529
G1 F1980 X32.319 Y24.4 E57.53064
G0 F4320 X31.978 Y24.554
G1 F1980 X32.954 Y25.529 E57.59207
G0 F4320 X32.459 Y25.529
G1 F1980 X31.621 Y24.691 E57.64484
G0 F4320 X31.184 Y24.749
G1 F1980 X31.964 Y25.529 E57.69396
G0 F4320 X31.469 Y25.529
G1 F1980 X30.698 Y24.758 E57.74251
G0 F4320 X30.105 Y24.66
G1 F1980 X30.974 Y25.529 E57.79723
G0 F4320 X30.479 Y25.529
G1 F1980 X29.047 Y24.097 E57.8874
G0 F4320 X28.868 Y23.918
G1 F1980 X23.223 Y18.273 E58.24287
G0 F4320 X23.718 Y18.273
G1 F1980 X28.156 Y22.711 E58.52234
G0 F4320 X28.042 Y22.102
G1 F1980 X24.213 Y18.273 E58.76345
G0 F4320 X24.708 Y18.273
G1 F1980 X28.042 Y21.607 E58.9734
G0 F4320 X28.129 Y21.199
G1 F1980 X25.203 Y18.273 E59.15765
G0 F4320 X25.698 Y18.273
G1 F1980 X28.241 Y20.816 E59.31778
G0 F4320 X28.411 Y20.491
G1 F1980 X26.193 Y18.273 E59.45745
G0 F4320 X26.688 Y18.273
G1 F1980 X28.601 Y20.187 E59.57795
G0 F4320 X28.833 Y19.924
G1 F1980 X27.183 Y18.273 E59.68188
G0 F4320 X27.678 Y18.273
G1 F1980 X29.085 Y19.68 E59.77048
G0 F4320 X29.378 Y19.478
G1 F1980 X28.173 Y18.273 E59.84636
G0 F4320 X28.668 Y18.273
