;FLAVOR:Marlin
;TIME:6559
;Filament used: 7.03455m
;Layer height: 0.30625
;MINX:3.741
;MINY:2.791
;MINZ:0.306
;MAXX:68.754
;MAXY:102.174
;MAXZ:39.78
;Generated with Cura_SteamEngine 4.2.1
M140 S65
M105
M190 S65
M104 S205
M105
M109 S205
M82 ;absolute extrusion mode
G21;(metric values)
G90;(absolute positioning)
M82;(set extruder to absolute mode)
M107;(start with the fan off)
G28;(Home the printer)
G92 E0;(Reset the extruder to 0)
G0 Z5 E5 F500;(Move up and prime the nozzle)
G0 X-1 Z0;(Move outside the printable area)
G1 Y60 E8 F500;(Draw a priming/wiping line to the rear)
G1 X-1;(Move a little closer to the print area)
G1 Y10 E16 F500;(draw more priming/wiping)
G1 E15 F250;(Small retract)
G92 E0;(Zero the extruder)
M141 S28
G92 E0
G92 E0
G1 F2400 E-2.5
;LAYER_COUNT:130
;LAYER:0
M107
;MESH:Gripper-V-3-2.stl
G0 F4320 X30.17 Y15.77 Z0.306
;TYPE:WALL-INNER
G1 F2400 E0
G1 F1980 X30.739 Y15.836 E0.02551
G1 X31.308 Y15.77 E0.05101
G1 X31.846 Y15.565 E0.07665
G1 X32.319 Y15.239 E0.10223
G1 X32.7 Y14.808 E0.12784
G1 X32.966 Y14.3 E0.15337
G1 X33.103 Y13.742 E0.17896
G1 X33.103 Y13.171 E0.20438
G1 X32.967 Y12.612 E0.23
G1 X32.711 Y12.124 E0.25454
G1 X32.321 Y11.677 E0.28095
G1 X31.846 Y11.348 E0.30668
G1 X31.308 Y11.144 E0.3323
G1 X30.739 Y11.076 E0.35782
G1 X30.17 Y11.144 E0.38333
G1 X29.632 Y11.348 E0.40895
G1 X29.159 Y11.674 E0.43453
G1 X28.779 Y12.104 E0.46008
G1 X28.513 Y12.611 E0.48558
G1 X28.375 Y13.169 E0.51117
G1 X28.375 Y13.744 E0.53677
G1 X28.513 Y14.301 E0.56232
G1 X28.779 Y14.807 E0.58778
G1 X29.159 Y15.239 E0.6134
G1 X29.614 Y15.553 E0.63801
G0 F1782 X29.632 Y15.565
G0 X30.17 Y15.77
G1 F2400 E-1.86199
G0 F4320 X31.348 Y15.932
G0 X30.943 Y14.263
G0 X36.254 Y19.453
G0 X34.707 Y18.902
G0 X35.297 Y20.487
G0 X36.52 Y22.12
G1 F2400 E0.6646
G1 F1980 X37.089 Y22.186 E0.6901
G1 X37.658 Y22.12 E0.71561
G1 X38.196 Y21.915 E0.74124
G1 X38.669 Y21.589 E0.76682
G1 X39.05 Y21.158 E0.79244
G1 X39.316 Y20.65 E0.81797
G1 X39.453 Y20.092 E0.84355
G1 X39.453 Y19.521 E0.86898
G1 X39.317 Y18.962 E0.8946
G1 X39.061 Y18.474 E0.91913
G1 X38.671 Y18.027 E0.94555
G1 X38.196 Y17.698 E0.97128
G1 X37.658 Y17.494 E0.9969
G1 X37.089 Y17.426 E1.02241
G1 X36.52 Y17.494 E1.04793
G1 X35.982 Y17.698 E1.07355
G1 X35.509 Y18.024 E1.09913
G1 X35.129 Y18.454 E1.12468
G1 X34.863 Y18.961 E1.15017
G1 X34.725 Y19.519 E1.17577
G1 X34.725 Y20.094 E1.20137
G1 X34.863 Y20.651 E1.22692
G1 X35.129 Y21.157 E1.25237
G1 X35.509 Y21.589 E1.27799
G1 X35.964 Y21.903 E1.30261
G0 F1782 X35.982 Y21.915
G0 X36.52 Y22.12
G1 F2400 E-1.19739
G0 F4320 X37.98 Y21.504
G0 X38.667 Y20.894
G0 X39.199 Y18.38
G0 X37.782 Y19.349
G0 X42.834 Y14.136
G0 X41.748 Y15.364
G0 X42.87 Y15.77
G1 F2400 E1.32919
G1 F1980 X43.439 Y15.836 E1.3547
G1 X44.008 Y15.77 E1.3802
G1 X44.546 Y15.565 E1.40584
G1 X45.019 Y15.239 E1.43142
G1 X45.4 Y14.808 E1.45703
G1 X45.666 Y14.3 E1.48257
G1 X45.803 Y13.742 E1.50815
G1 X45.803 Y13.171 E1.53357
G1 X45.667 Y12.612 E1.55919
G1 X45.411 Y12.124 E1.58373
G1 X45.021 Y11.677 E1.61014
G1 X44.546 Y11.348 E1.63587
G1 X44.008 Y11.144 E1.66149
G1 X43.439 Y11.076 E1.68701
G1 X42.87 Y11.144 E1.71252
G1 X42.332 Y11.348 E1.73814
G1 X41.859 Y11.674 E1.76372
G1 X41.479 Y12.104 E1.78927
G1 X41.213 Y12.611 E1.81477
G1 X41.075 Y13.169 E1.84036
G1 X41.075 Y13.744 E1.86597
G1 X41.213 Y14.301 E1.89152
G1 X41.479 Y14.807 E1.91697
G1 X41.859 Y15.239 E1.94259
G1 X42.314 Y15.553 E1.9672
G0 F1782 X42.332 Y15.565
G0 X42.87 Y15.77
G1 F2400 E-0.5328
G0 F4320 X44.624 Y15.713
G0 X43.825 Y14.193
G0 X48.944 Y19.053
G0 X49.016 Y17.436
G0 X47.214 Y17.581
G1 F2400 E1.99379
G1 F1980 X47.214 Y22.581 E2.21642
G1 X26.964 Y22.581 E3.11809
G1 X26.964 Y17.581 E3.34073
G1 X6.98 Y17.581 E4.23056
G1 X6.966 Y9.506 E4.59011
G1 X6.966 Y9.331 E4.59791
G1 X7.141 Y9.331 E4.60295
G1 X26.964 Y9.331 E5.48561
G1 X26.964 Y4.331 E5.70824
G1 X47.214 Y4.331 E6.60991
G1 X47.214 Y9.331 E6.83255
G1 X67.198 Y9.331 E7.72238
G1 X67.212 Y17.406 E8.08193
G1 X67.212 Y17.581 E8.08973
G1 X67.037 Y17.581 E8.09477
G1 X47.214 Y17.581 E8.97743
G1 F2400 E6.47743
G0 F4320 X49.016 Y17.436
G0 X49.016 Y19.121
G0 X43.902 Y14.233
G0 X42.663 Y13.16
G0 X37.351 Y7.969
G0 X37.698 Y9.582
G0 X36.52 Y9.42
G1 F2400 E8.97743
G1 F1980 X37.089 Y9.486 E9.00293
G1 X37.658 Y9.42 E9.02844
G1 X38.196 Y9.215 E9.05407
G1 X38.669 Y8.889 E9.07965
G1 X39.05 Y8.458 E9.10527
G1 X39.316 Y7.95 E9.1308
G1 X39.453 Y7.392 E9.15638
G1 X39.453 Y6.821 E9.18181
G1 X39.317 Y6.262 E9.20743
G1 X39.061 Y5.774 E9.23196
G1 X38.671 Y5.327 E9.25838
G1 X38.196 Y4.998 E9.28411
G1 X37.658 Y4.794 E9.30973
G1 X37.089 Y4.726 E9.33524
G1 X36.52 Y4.794 E9.36076
G1 X35.982 Y4.998 E9.38638
G1 X35.509 Y5.324 E9.41196
G1 X35.129 Y5.754 E9.43751
G1 X34.863 Y6.261 E9.463
G1 X34.725 Y6.819 E9.4886
G1 X34.725 Y7.394 E9.5142
G1 X34.863 Y7.951 E9.53975
G1 X35.129 Y8.457 E9.56521
G1 X35.509 Y8.889 E9.59082
G1 X35.964 Y9.203 E9.61544
G0 F1782 X35.982 Y9.215
G0 X36.52 Y9.42
G0 F4320 X37.98 Y8.804
G0 X38.667 Y8.194
G0 X38.992 Y7.336
G0 X38.904 Y6.513
G0 X38.436 Y5.59
G1 F2400 E9.64202
G1 F1980 X38.032 Y5.31 E9.66391
G1 X37.574 Y5.136 E9.68573
G1 X37.089 Y5.078 E9.70747
G1 X36.604 Y5.136 E9.72922
G1 X36.146 Y5.31 E9.75104
G1 X35.743 Y5.588 E9.77284
G1 X35.419 Y5.954 E9.7946
G1 X35.193 Y6.386 E9.81631
G1 X35.075 Y6.862 E9.83815
G1 X35.075 Y7.351 E9.85992
G1 X35.193 Y7.826 E9.88172
G1 X35.419 Y8.257 E9.90339
G1 X35.743 Y8.625 E9.92522
G1 X36.146 Y8.903 E9.94702
G1 X36.604 Y9.077 E9.96883
G1 X37.089 Y9.134 E9.99058
G1 X37.574 Y9.077 E10.01232
G1 X38.032 Y8.903 E10.03414
G1 X38.435 Y8.625 E10.05594
G1 X38.76 Y8.258 E10.07776
G1 X38.986 Y7.825 E10.09951
G1 X39.103 Y7.35 E10.1213
G1 X39.103 Y6.863 E10.14298
G1 X38.987 Y6.387 E10.1648
G1 X38.811 Y6.051 E10.18168
G0 F1782 X38.77 Y5.973
G0 X38.436 Y5.59
G1 F2400 E7.68168
G0 F4320 X38.883 Y6.427
G0 X38.992 Y7.336
G0 X38.667 Y8.194
G0 X37.98 Y8.804
G0 X35.398 Y9.014
G0 X36.539 Y7.73
G0 X31.341 Y12.776
G0 X32.471 Y11.568
G0 X32.086 Y11.94
G1 F2400 E10.20827
G1 F1980 X31.682 Y11.66 E10.23015
G1 X31.224 Y11.486 E10.25197
G1 X30.739 Y11.428 E10.27372
G1 X30.254 Y11.486 E10.29547
G1 X29.796 Y11.66 E10.31728
G1 X29.393 Y11.938 E10.33908
G1 X29.069 Y12.304 E10.36085
G1 X28.843 Y12.736 E10.38256
G1 X28.725 Y13.212 E10.40439
G1 X28.725 Y13.701 E10.42617
G1 X28.843 Y14.176 E10.44796
G1 X29.069 Y14.607 E10.46963
G1 X29.393 Y14.975 E10.49146
G1 X29.796 Y15.253 E10.51326
G1 X30.254 Y15.427 E10.53508
G1 X30.739 Y15.484 E10.55682
G1 X31.224 Y15.427 E10.57857
G1 X31.682 Y15.253 E10.60038
G1 X32.085 Y14.975 E10.62218
G1 X32.41 Y14.608 E10.64401
G1 X32.636 Y14.175 E10.66576
G1 X32.753 Y13.7 E10.68754
G1 X32.753 Y13.213 E10.70923
G1 X32.637 Y12.737 E10.73104
G1 X32.461 Y12.401 E10.74793
G0 F1782 X32.42 Y12.323
G0 X32.086 Y11.94
G1 F2400 E8.24793
G0 F4320 X32.447 Y12.617
G0 X33.122 Y14.359
G0 X31.516 Y13.752
G0 X36.612 Y19.037
G0 X35.904 Y17.55
G0 X37.234 Y17.869
G0 X38.436 Y18.29
G1 F2400 E10.77451
G1 F1980 X38.032 Y18.01 E10.7964
G1 X37.574 Y17.836 E10.81821
G1 X37.089 Y17.778 E10.83996
G1 X36.604 Y17.836 E10.86171
G1 X36.146 Y18.01 E10.88353
G1 X35.743 Y18.288 E10.90533
G1 X35.419 Y18.654 E10.92709
G1 X35.193 Y19.086 E10.9488
G1 X35.075 Y19.562 E10.97064
G1 X35.075 Y20.051 E10.99241
G1 X35.193 Y20.526 E11.01421
G1 X35.419 Y20.957 E11.03588
G1 X35.743 Y21.325 E11.05771
G1 X36.146 Y21.603 E11.07951
G1 X36.604 Y21.777 E11.10132
G1 X37.089 Y21.834 E11.12307
G1 X37.574 Y21.777 E11.14481
G1 X38.032 Y21.603 E11.16663
G1 X38.435 Y21.325 E11.18843
G1 X38.76 Y20.958 E11.21025
G1 X38.986 Y20.525 E11.232
G1 X39.103 Y20.05 E11.25379
G1 X39.103 Y19.563 E11.27547
G1 X38.987 Y19.087 E11.29728
G1 X38.811 Y18.751 E11.31417
G0 F1782 X38.77 Y18.673
G0 X38.436 Y18.29
G1 F2400 E8.81417
G0 F4320 X37.637 Y19.181
G0 X42.832 Y14.134
G0 X41.699 Y15.337
G0 X41.862 Y14.544
G0 X41.536 Y13.686
G0 X41.647 Y12.775
G0 X42.167 Y12.022
G0 X42.981 Y11.595
G0 X43.809 Y11.584
G0 X44.786 Y11.94
G1 F2400 E11.34076
G1 F1980 X44.382 Y11.66 E11.36264
G1 X43.924 Y11.486 E11.38446
G1 X43.439 Y11.428 E11.40621
G1 X42.954 Y11.486 E11.42796
G1 X42.496 Y11.66 E11.44977
G1 X42.093 Y11.938 E11.47157
G1 X41.769 Y12.304 E11.49334
G1 X41.543 Y12.736 E11.51505
G1 X41.425 Y13.212 E11.53688
G1 X41.425 Y13.701 E11.55866
G1 X41.543 Y14.176 E11.58045
G1 X41.769 Y14.607 E11.60212
G1 X42.093 Y14.975 E11.62395
G1 X42.496 Y15.253 E11.64575
G1 X42.954 Y15.427 E11.66757
G1 X43.439 Y15.484 E11.68931
G1 X43.924 Y15.427 E11.71106
G1 X44.382 Y15.253 E11.73287
G1 X44.785 Y14.975 E11.75467
G1 X45.11 Y14.608 E11.7765
G1 X45.336 Y14.175 E11.79825
G1 X45.453 Y13.7 E11.82003
G1 X45.453 Y13.213 E11.84171
G1 X45.337 Y12.737 E11.86353
G1 X45.161 Y12.401 E11.88042
G0 F1782 X45.12 Y12.323
G0 X44.786 Y11.94
G1 F2400 E9.38042
G0 F4320 X45.233 Y12.777
G0 X45.13 Y15.364
G0 X43.99 Y14.08
G0 X48.947 Y19.053
G0 X49.016 Y17.436
G0 X47.564 Y17.931
G1 F2400 E11.907
G1 F1980 X47.564 Y22.931 E12.12964
G1 X26.614 Y22.931 E13.06248
G1 X26.614 Y17.931 E13.28511
G1 X6.631 Y17.931 E14.1749
G1 X6.615 Y9.156 E14.56562
G1 X6.615 Y8.981 E14.57341
G1 X6.79 Y8.981 E14.57846
G1 X26.614 Y8.981 E15.46116
G1 X26.614 Y3.981 E15.68379
G1 X47.564 Y3.981 E16.61663
G1 X47.564 Y8.981 E16.83927
G1 X67.547 Y8.981 E17.72905
G1 X67.563 Y17.756 E18.11978
G1 X67.563 Y17.931 E18.12757
G1 X67.388 Y17.931 E18.13261
G1 X47.564 Y17.931 E19.01532
G0 F4320 X47.889 Y18.256
;TYPE:WALL-OUTER
G1 F1980 X47.889 Y23.256 E19.23795
G1 X26.289 Y23.256 E20.19973
G1 X26.289 Y18.256 E20.42237
G1 X6.307 Y18.256 E21.31211
G1 X6.289 Y8.831 E21.73178
G1 X6.289 Y8.656 E21.73957
G1 X6.464 Y8.656 E21.74461
G1 X26.289 Y8.656 E22.62736
G1 X26.289 Y3.656 E22.84999
G1 X47.889 Y3.656 E23.81178
G1 X47.889 Y8.656 E24.03441
G1 X67.871 Y8.656 E24.92415
G1 X67.889 Y18.081 E25.34382
G1 X67.889 Y18.256 E25.35161
G1 X67.714 Y18.256 E25.35665
G1 X47.889 Y18.256 E26.2394
G0 F4320 X47.889 Y18.456
G1 F2400 E23.7394
G0 F4320 X47.614 Y18.456
G0 X49.016 Y17.436
G0 X49.016 Y19.121
G0 X44.045 Y14.136
G0 X45.13 Y15.364
G0 X45.342 Y13.686
G0 X45.244 Y12.822
G0 X44.725 Y11.959
G0 X44.568 Y12.184
G1 F2400 E26.2394
G1 F1980 X44.23 Y11.95 E26.25771
G1 X43.846 Y11.804 E26.276
G1 X43.439 Y11.755 E26.29425
G1 X43.032 Y11.804 E26.31251
G1 X42.648 Y11.95 E26.3308
G1 X42.31 Y12.183 E26.34908
G1 X42.039 Y12.49 E26.36731
G1 X41.849 Y12.852 E26.38552
G1 X41.75 Y13.252 E26.40386
G1 X41.75 Y13.661 E26.42208
G1 X41.849 Y14.06 E26.44038
G1 X42.039 Y14.422 E26.45858
G1 X42.31 Y14.73 E26.47685
G1 X42.648 Y14.963 E26.49513
G1 X43.032 Y15.109 E26.51342
G1 X43.439 Y15.157 E26.53167
G1 X43.846 Y15.109 E26.54992
G1 X44.23 Y14.963 E26.56821
G1 X44.568 Y14.73 E26.58649
G1 X44.84 Y14.422 E26.60479
G1 X45.03 Y14.059 E26.62303
G1 X45.128 Y13.661 E26.64128
G1 X45.128 Y13.252 E26.6595
G1 X45.031 Y12.853 E26.67778
G1 X44.928 Y12.656 E26.68768
G0 F1782 X44.85 Y12.508
G0 X44.568 Y12.184
G0 F4320 X44.404 Y12.071
G1 F2400 E24.18768
G0 F4320 X44.561 Y11.845
G0 X43.897 Y11.595
G0 X42.981 Y11.595
G0 X42.167 Y12.022
G0 X41.647 Y12.775
G0 X41.536 Y13.686
G0 X41.724 Y15.365
G0 X42.889 Y14.08
G0 X37.691 Y19.126
G0 X38.796 Y17.919
G0 X38.218 Y18.534
G1 F2400 E26.71426
G1 F1980 X37.88 Y18.3 E26.73256
G1 X37.496 Y18.154 E26.75086
G1 X37.089 Y18.105 E26.76911
G1 X36.682 Y18.154 E26.78736
G1 X36.298 Y18.3 E26.80566
G1 X35.96 Y18.533 E26.82394
G1 X35.689 Y18.84 E26.84217
G1 X35.499 Y19.202 E26.86037
G1 X35.4 Y19.602 E26.87872
G1 X35.4 Y20.011 E26.89693
G1 X35.499 Y20.41 E26.91524
G1 X35.689 Y20.772 E26.93344
G1 X35.96 Y21.08 E26.95171
G1 X36.298 Y21.313 E26.96999
G1 X36.682 Y21.459 E26.98828
G1 X37.089 Y21.507 E27.00653
G1 X37.496 Y21.459 E27.02478
G1 X37.88 Y21.313 E27.04307
G1 X38.218 Y21.08 E27.06135
G1 X38.49 Y20.772 E27.07965
G1 X38.68 Y20.409 E27.09789
G1 X38.778 Y20.011 E27.11614
G1 X38.778 Y19.602 E27.13435
G1 X38.681 Y19.203 E27.15264
G1 X38.578 Y19.006 E27.16254
G0 F1782 X38.5 Y18.858
G0 X38.218 Y18.534
G0 F4320 X38.054 Y18.421
G1 F2400 E24.66254
G0 F4320 X38.211 Y18.195
G0 X35.904 Y17.55
G0 X36.668 Y19.094
G0 X31.479 Y13.984
G0 X32.837 Y14.903
G0 X32.642 Y13.227
G0 X32.025 Y11.959
G0 X31.868 Y12.184
G1 F2400 E27.18912
G1 F1980 X31.53 Y11.95 E27.20742
G1 X31.146 Y11.804 E27.22572
G1 X30.739 Y11.755 E27.24397
G1 X30.332 Y11.804 E27.26222
G1 X29.948 Y11.95 E27.28051
G1 X29.61 Y12.183 E27.29879
G1 X29.339 Y12.49 E27.31703
G1 X29.149 Y12.852 E27.33523
G1 X29.05 Y13.252 E27.35358
G1 X29.05 Y13.661 E27.37179
G1 X29.149 Y14.06 E27.3901
G1 X29.339 Y14.422 E27.4083
G1 X29.61 Y14.73 E27.42657
G1 X29.948 Y14.963 E27.44485
G1 X30.332 Y15.109 E27.46314
G1 X30.739 Y15.157 E27.48139
G1 X31.146 Y15.109 E27.49964
G1 X31.53 Y14.963 E27.51793
G1 X31.868 Y14.73 E27.53621
G1 X32.14 Y14.422 E27.55451
G1 X32.33 Y14.059 E27.57275
G1 X32.428 Y13.661 E27.591
G1 X32.428 Y13.252 E27.60921
G1 X32.331 Y12.853 E27.6275
G1 X32.228 Y12.656 E27.63739
G0 F1782 X32.15 Y12.508
G0 X31.868 Y12.184
G0 F4320 X31.704 Y12.071
G1 F2400 E25.13739
G0 F4320 X31.861 Y11.845
G0 X31.287 Y12.831
G0 X36.482 Y7.784
G0 X35.349 Y8.987
G0 X35.512 Y8.194
G0 X35.186 Y7.336
G0 X35.297 Y6.425
G0 X35.817 Y5.672
G0 X36.631 Y5.245
G0 X37.459 Y5.234
G0 X38.375 Y5.609
G0 X38.218 Y5.834
G1 F2400 E27.66398
G1 F1980 X37.88 Y5.6 E27.68228
G1 X37.496 Y5.454 E27.70057
G1 X37.089 Y5.405 E27.71883
G1 X36.682 Y5.454 E27.73708
G1 X36.298 Y5.6 E27.75537
G1 X35.96 Y5.833 E27.77365
G1 X35.689 Y6.14 E27.79189
G1 X35.499 Y6.502 E27.81009
G1 X35.4 Y6.902 E27.82844
G1 X35.4 Y7.311 E27.84665
G1 X35.499 Y7.71 E27.86495
G1 X35.689 Y8.072 E27.88316
G1 X35.96 Y8.38 E27.90143
G1 X36.298 Y8.613 E27.91971
G1 X36.682 Y8.759 E27.938
G1 X37.089 Y8.807 E27.95625
G1 X37.496 Y8.759 E27.97449
G1 X37.88 Y8.613 E27.99279
G1 X38.218 Y8.38 E28.01107
G1 X38.49 Y8.072 E28.02936
G1 X38.68 Y7.709 E28.04761
G1 X38.778 Y7.311 E28.06586
G1 X38.778 Y6.902 E28.08407
G1 X38.681 Y6.503 E28.10235
G1 X38.578 Y6.306 E28.11225
G0 F1782 X38.5 Y6.158
G0 X38.218 Y5.834
G0 F4320 X38.054 Y5.721
G0 X38.211 Y5.495
G0 X38.9 Y5.072
;TYPE:SKIN
G1 F2400 E28.13883
G1 F1980 X38.355 Y4.695 E28.16834
G1 X38.292 Y4.671 E28.17134
G1 X46.874 Y4.671 E28.55347
G1 X46.874 Y9.671 E28.77611
G1 X66.858 Y9.671 E29.66594
G1 X66.872 Y17.241 E30.00301
G1 X46.874 Y17.241 E30.89346
G1 X46.874 Y22.241 E31.11609
G1 X38.295 Y22.241 E31.49809
G1 X38.355 Y22.218 E31.50095
G1 X38.896 Y21.845 E31.53021
G1 X39.332 Y21.352 E31.55952
G1 X39.636 Y20.771 E31.58871
G1 X39.793 Y20.133 E31.61797
G1 X39.793 Y19.48 E31.64705
G1 X39.638 Y18.841 E31.67632
G1 X39.343 Y18.28 E31.70455
G1 X38.9 Y17.772 E31.73456
G1 X38.355 Y17.395 E31.76407
G1 X37.74 Y17.162 E31.79335
G1 X37.089 Y17.084 E31.82254
G1 X36.438 Y17.162 E31.85174
G1 X35.823 Y17.395 E31.88102
G1 X35.282 Y17.768 E31.91028
G1 X34.847 Y18.26 E31.93952
G1 X34.543 Y18.839 E31.96864
G1 X34.385 Y19.478 E31.99795
G1 X34.385 Y20.135 E32.02721
G1 X34.543 Y20.773 E32.05647
G1 X34.847 Y21.351 E32.08555
G1 X35.282 Y21.845 E32.11486
G1 X35.823 Y22.218 E32.14412
G1 X35.883 Y22.241 E32.14698
G1 X27.304 Y22.241 E32.52898
G1 X27.304 Y17.241 E32.75161
G1 X7.32 Y17.241 E33.64144
G1 X7.306 Y9.671 E33.97851
G1 X27.304 Y9.671 E34.86896
G1 X27.304 Y4.671 E35.0916
G1 X35.886 Y4.671 E35.47373
G1 X35.823 Y4.695 E35.47673
G1 X35.282 Y5.068 E35.50599
G1 X34.847 Y5.56 E35.53523
G1 X34.543 Y6.139 E35.56435
G1 X34.385 Y6.778 E35.59366
G1 X34.385 Y7.435 E35.62291
G1 X34.543 Y8.073 E35.65218
G1 X34.847 Y8.651 E35.68126
G1 X35.282 Y9.145 E35.71057
G1 X35.823 Y9.518 E35.73983
G1 X36.439 Y9.753 E35.76919
G1 X37.089 Y9.828 E35.79832
G1 X37.739 Y9.753 E35.82745
G1 X38.355 Y9.518 E35.85681
G1 X38.896 Y9.145 E35.88607
G1 X39.332 Y8.652 E35.91538
G1 X39.636 Y8.071 E35.94457
G1 X39.793 Y7.433 E35.97383
G1 X39.793 Y6.78 E36.00291
G1 X39.638 Y6.141 E36.03218
G1 X39.343 Y5.58 E36.06041
G1 X39.292 Y5.521 E36.06388
G0 F1782 X38.9 Y5.072
G1 F2400 E33.56388
G0 F4320 X38.727 Y5.262
G0 X39.472 Y8.009
G0 X37.866 Y7.402
G0 X42.833 Y12.774
G0 X41.85 Y11.456
G0 X41.632 Y11.418
G1 F2400 E36.09046
G1 F1980 X41.197 Y11.91 E36.1197
G1 X40.893 Y12.489 E36.14882
G1 X40.735 Y13.128 E36.17813
G1 X40.735 Y13.785 E36.20739
G1 X40.893 Y14.423 E36.23665
G1 X41.197 Y15.001 E36.26573
G1 X41.632 Y15.495 E36.29504
