;FLAVOR:Marlin
;TIME:5299
;Filament used: 6.25562m
;Layer height: 0.30625
;MINX:3.834
;MINY:4.846
;MINZ:0.306
;MAXX:67.464
;MAXY:63.264
;MAXZ:29.988
;Generated with Cura_SteamEngine 4.2.1
M140 S65
M105
M190 S65
M104 S205
M105
M109 S205
M82 ;absolute extrusion mode
G21;(metric values)
G90;(absolute positioning)
M82;(set extruder to absolute mode)
M107;(start with the fan off)
G28;(Home the printer)
G92 E0;(Reset the extruder to 0)
G0 Z5 E5 F500;(Move up and prime the nozzle)
G0 X-1 Z0;(Move outside the printable area)
G1 Y60 E8 F500;(Draw a priming/wiping line to the rear)
G1 X-1;(Move a little closer to the print area)
G1 Y10 E16 F500;(draw more priming/wiping)
G1 E15 F250;(Small retract)
G92 E0;(Zero the extruder)
M141 S28
G92 E0
G92 E0
G1 F2400 E-2.5
;LAYER_COUNT:98
;LAYER:0
M107
;MESH:Gripper-V-4-2.stl
G0 F4320 X6.17 Y14.558 Z0.306
;TYPE:WALL-INNER
G1 F2400 E0
G1 F1980 X6.17 Y6.308 E0.36735
G1 X66.74 Y6.308 E3.06435
G1 X66.74 Y14.558 E3.4317
G1 X6.767 Y14.558 E6.10211
G0 F1782 X6.17 Y14.558
G1 F2400 E3.60211
G0 F4320 X31.687 Y14.373
G0 X31.288 Y12.689
G0 X31.898 Y11.112
G0 X32.008 Y10.403
G0 X31.687 Y8.651
G1 F2400 E6.1287
G1 F1980 X31.211 Y8.325 E6.15439
G1 X30.674 Y8.121 E6.17996
G1 X30.105 Y8.053 E6.20548
G1 X29.536 Y8.121 E6.231
G1 X28.999 Y8.325 E6.25657
G1 X28.525 Y8.65 E6.28217
G1 X28.145 Y9.082 E6.30778
G1 X27.879 Y9.588 E6.33324
G1 X27.741 Y10.145 E6.35879
G1 X27.741 Y10.721 E6.38444
G1 X27.879 Y11.278 E6.40999
G1 X28.145 Y11.784 E6.43544
G1 X28.525 Y12.216 E6.46106
G1 X28.999 Y12.541 E6.48665
G1 X29.536 Y12.745 E6.51223
G1 X30.105 Y12.813 E6.53775
G1 X30.674 Y12.745 E6.56326
G1 X31.211 Y12.541 E6.58884
G1 X31.684 Y12.216 E6.61439
G1 X32.066 Y11.785 E6.64004
G1 X32.332 Y11.277 E6.66557
G1 X32.469 Y10.719 E6.69116
G1 X32.469 Y10.147 E6.71662
G1 X32.332 Y9.589 E6.74221
G1 X32.077 Y9.102 E6.76669
G0 F1782 X32.073 Y9.094
G0 X31.687 Y8.651
G1 F2400 E4.26669
G0 F4320 X32.488 Y9.53
G0 X30.882 Y10.139
G0 X41.948 Y10.136
G0 X40.423 Y9.529
G0 X41.915 Y8.736
G0 X42.606 Y8.541
G0 X44.387 Y8.651
G1 F2400 E6.79327
G1 F1980 X43.911 Y8.325 E6.81896
G1 X43.374 Y8.121 E6.84454
G1 X42.805 Y8.053 E6.87005
G1 X42.236 Y8.121 E6.89557
G1 X41.699 Y8.325 E6.92115
G1 X41.225 Y8.65 E6.94674
G1 X40.845 Y9.082 E6.97236
G1 X40.579 Y9.588 E6.99781
G1 X40.441 Y10.145 E7.02336
G1 X40.441 Y10.721 E7.04901
G1 X40.579 Y11.278 E7.07456
G1 X40.845 Y11.784 E7.10001
G1 X41.225 Y12.216 E7.12563
G1 X41.699 Y12.541 E7.15122
G1 X42.236 Y12.745 E7.1768
G1 X42.805 Y12.813 E7.20232
G1 X43.374 Y12.745 E7.22783
G1 X43.911 Y12.541 E7.25341
G1 X44.384 Y12.216 E7.27897
G1 X44.766 Y11.785 E7.30461
G1 X45.032 Y11.277 E7.33014
G1 X45.169 Y10.719 E7.35573
G1 X45.169 Y10.147 E7.3812
G1 X45.032 Y9.589 E7.40678
G1 X44.777 Y9.102 E7.43126
G0 F1782 X44.773 Y9.094
G0 X44.387 Y8.651
G0 F4320 X44.152 Y8.915
G1 F2400 E7.45784
G1 F1980 X43.747 Y8.637 E7.47971
G1 X43.29 Y8.463 E7.50149
G1 X42.805 Y8.405 E7.52324
G1 X42.32 Y8.463 E7.54499
G1 X41.863 Y8.637 E7.56676
G1 X41.459 Y8.914 E7.58857
G1 X41.135 Y9.282 E7.6104
G1 X40.909 Y9.713 E7.63207
G1 X40.791 Y10.188 E7.65387
G1 X40.791 Y10.678 E7.67568
G1 X40.909 Y11.153 E7.69748
G1 X41.135 Y11.584 E7.71915
G1 X41.459 Y11.952 E7.74098
G1 X41.863 Y12.229 E7.76279
G1 X42.32 Y12.403 E7.78456
G1 X42.805 Y12.461 E7.80631
G1 X43.29 Y12.403 E7.82806
G1 X43.747 Y12.229 E7.84984
G1 X44.151 Y11.952 E7.87165
G1 X44.476 Y11.585 E7.89348
G1 X44.702 Y11.152 E7.91522
G1 X44.819 Y10.677 E7.93701
G1 X44.819 Y10.189 E7.95874
G1 X44.702 Y9.714 E7.98052
G1 X44.526 Y9.378 E7.99741
G0 F1782 X44.482 Y9.293
G0 X44.152 Y8.915
G1 F2400 E5.49741
G0 F4320 X43.263 Y8.572
G0 X42.347 Y8.572
G0 X40.423 Y9.529
G0 X42.029 Y10.137
G0 X30.962 Y10.138
G0 X32.488 Y9.53
G0 X31.452 Y8.915
G1 F2400 E8.02399
G1 F1980 X31.047 Y8.637 E8.04586
G1 X30.59 Y8.463 E8.06764
G1 X30.105 Y8.405 E8.08939
G1 X29.62 Y8.463 E8.11114
G1 X29.163 Y8.637 E8.13291
G1 X28.759 Y8.914 E8.15472
G1 X28.435 Y9.282 E8.17655
G1 X28.209 Y9.713 E8.19822
G1 X28.091 Y10.188 E8.22002
G1 X28.091 Y10.678 E8.24183
G1 X28.209 Y11.153 E8.26363
G1 X28.435 Y11.584 E8.2853
G1 X28.759 Y11.952 E8.30713
G1 X29.163 Y12.229 E8.32894
G1 X29.62 Y12.403 E8.35071
G1 X30.105 Y12.461 E8.37246
G1 X30.59 Y12.403 E8.39421
G1 X31.047 Y12.229 E8.41599
G1 X31.451 Y11.952 E8.4378
G1 X31.776 Y11.585 E8.45963
G1 X32.002 Y11.152 E8.48137
G1 X32.119 Y10.677 E8.50316
G1 X32.119 Y10.189 E8.52489
G1 X32.002 Y9.714 E8.54667
G1 X31.826 Y9.378 E8.56356
G0 F1782 X31.782 Y9.293
G0 X31.452 Y8.915
G1 F2400 E6.06356
G0 F4320 X30.563 Y8.572
G0 X29.647 Y8.572
G0 X28.833 Y8.998
G0 X27.575 Y10.742
G0 X29.28 Y10.533
G0 X27.599 Y16.018
G0 X27.575 Y14.373
G0 X5.82 Y14.908
G1 F2400 E8.59014
G1 F1980 X5.82 Y5.958 E8.98866
G1 X67.09 Y5.958 E11.71683
G1 X67.09 Y14.908 E12.11534
G1 X6.417 Y14.908 E14.81693
G0 F1782 X5.82 Y14.908
G0 F4320 X5.495 Y15.233
;TYPE:WALL-OUTER
G1 F2400 E14.84351
G1 F1980 X5.495 Y5.633 E15.27097
G1 X67.415 Y5.633 E18.02808
G1 X67.415 Y15.233 E18.45554
G1 X6.092 Y15.233 E21.18607
G0 F1782 X5.495 Y15.233
G0 F4320 X5.495 Y15.033
G1 F2400 E18.68607
G0 F4320 X5.77 Y14.958
G0 X31.331 Y14.373
G0 X30.819 Y12.867
G0 X31.898 Y11.112
G0 X32.008 Y10.203
G0 X31.391 Y8.935
G0 X31.234 Y9.16
G1 F2400 E21.21266
G1 F1980 X30.895 Y8.927 E21.23097
G1 X30.512 Y8.781 E21.24922
G1 X30.105 Y8.732 E21.26748
G1 X29.698 Y8.781 E21.28573
G1 X29.315 Y8.927 E21.30398
G1 X28.976 Y9.159 E21.32227
G1 X28.705 Y9.467 E21.34054
G1 X28.515 Y9.829 E21.35874
G1 X28.416 Y10.228 E21.37705
G1 X28.416 Y10.638 E21.3953
G1 X28.515 Y11.037 E21.41361
G1 X28.705 Y11.399 E21.43181
G1 X28.976 Y11.707 E21.45008
G1 X29.315 Y11.939 E21.46837
G1 X29.698 Y12.085 E21.48662
G1 X30.105 Y12.134 E21.50488
G1 X30.512 Y12.085 E21.52313
G1 X30.895 Y11.939 E21.54138
G1 X31.234 Y11.707 E21.55967
G1 X31.506 Y11.399 E21.57797
G1 X31.696 Y11.036 E21.59621
G1 X31.794 Y10.638 E21.61446
G1 X31.794 Y10.228 E21.63272
G1 X31.696 Y9.83 E21.65097
G1 X31.593 Y9.633 E21.66087
G0 F1782 X31.512 Y9.478
G0 X31.234 Y9.16
G0 F4320 X31.07 Y9.047
G1 F2400 E19.16087
G0 F4320 X31.225 Y8.821
G0 X32.488 Y9.53
G0 X30.882 Y10.139
G0 X41.9 Y10.33
G0 X40.275 Y10.124
G0 X41.533 Y8.998
G0 X42.347 Y8.572
G0 X43.175 Y8.561
G0 X44.091 Y8.935
G0 X43.934 Y9.16
G1 F2400 E21.68745
G1 F1980 X43.595 Y8.927 E21.70577
G1 X43.212 Y8.781 E21.72402
G1 X42.805 Y8.732 E21.74227
G1 X42.398 Y8.781 E21.76052
G1 X42.015 Y8.927 E21.77877
G1 X41.676 Y9.159 E21.79707
G1 X41.405 Y9.467 E21.81533
G1 X41.215 Y9.829 E21.83354
G1 X41.116 Y10.228 E21.85184
G1 X41.116 Y10.638 E21.8701
G1 X41.215 Y11.037 E21.8884
G1 X41.405 Y11.399 E21.90661
G1 X41.676 Y11.707 E21.92487
G1 X42.015 Y11.939 E21.94317
G1 X42.398 Y12.085 E21.96142
G1 X42.805 Y12.134 E21.97967
G1 X43.212 Y12.085 E21.99792
G1 X43.595 Y11.939 E22.01617
G1 X43.934 Y11.707 E22.03447
G1 X44.206 Y11.399 E22.05276
G1 X44.396 Y11.036 E22.07101
G1 X44.494 Y10.638 E22.08926
G1 X44.494 Y10.228 E22.10751
G1 X44.396 Y9.83 E22.12576
G1 X44.293 Y9.633 E22.13566
G0 F1782 X44.212 Y9.478
G0 X43.934 Y9.16
G0 F4320 X43.77 Y9.047
G0 X43.925 Y8.821
G0 X44.615 Y8.395
;TYPE:SKIN
G1 F2400 E22.16224
G1 F1980 X44.07 Y8.022 E22.19165
G1 X43.456 Y7.789 E22.22089
G1 X42.805 Y7.711 E22.25009
G1 X42.154 Y7.789 E22.27928
G1 X41.54 Y8.022 E22.30852
G1 X40.998 Y8.394 E22.33779
G1 X40.563 Y8.888 E22.3671
G1 X40.259 Y9.466 E22.39618
G1 X40.101 Y10.104 E22.42545
G1 X40.101 Y10.762 E22.45475
G1 X40.259 Y11.4 E22.48401
G1 X40.563 Y11.978 E22.51309
G1 X40.998 Y12.472 E22.5424
G1 X41.54 Y12.844 E22.57167
G1 X42.154 Y13.077 E22.60092
G1 X42.805 Y13.155 E22.63011
G1 X43.456 Y13.077 E22.6593
G1 X44.07 Y12.844 E22.68855
G1 X44.611 Y12.473 E22.71776
G1 X45.048 Y11.979 E22.74712
G1 X45.352 Y11.398 E22.77632
G1 X45.509 Y10.76 E22.80558
G1 X45.509 Y10.106 E22.8347
G1 X45.352 Y9.468 E22.86395
G1 X45.055 Y8.901 E22.89245
G1 X45.007 Y8.845 E22.89574
G0 F1782 X44.615 Y8.395
G1 F2400 E20.39574
G0 F4320 X44.443 Y8.586
G0 X42.805 Y8.516
G0 X41.915 Y8.736
G0 X40.275 Y10.124
G0 X41.98 Y10.333
G0 X31.008 Y10.331
G0 X32.635 Y10.127
G0 X32.809 Y10.106
G1 F2400 E22.92232
G1 F1980 X32.652 Y9.468 E22.95158
G1 X32.355 Y8.901 E22.98008
G1 X31.915 Y8.395 E23.00993
G1 X31.37 Y8.022 E23.03934
G1 X30.756 Y7.789 E23.06858
G1 X30.105 Y7.711 E23.09778
G1 X29.454 Y7.789 E23.12697
G1 X28.84 Y8.022 E23.15621
G1 X28.298 Y8.394 E23.18548
G1 X27.863 Y8.888 E23.21479
G1 X27.559 Y9.466 E23.24387
G1 X27.401 Y10.104 E23.27314
G1 X27.401 Y10.762 E23.30244
G1 X27.559 Y11.4 E23.3317
G1 X27.863 Y11.978 E23.36078
G1 X28.298 Y12.472 E23.39009
G1 X28.84 Y12.844 E23.41936
G1 X29.454 Y13.077 E23.44861
G1 X30.105 Y13.155 E23.4778
G1 X30.756 Y13.077 E23.50699
G1 X31.37 Y12.844 E23.53624
G1 X31.911 Y12.473 E23.56545
G1 X32.348 Y11.979 E23.59481
G1 X32.652 Y11.398 E23.62401
G1 X32.809 Y10.76 E23.65327
G1 X32.809 Y10.703 E23.6558
G0 F1782 X32.809 Y10.106
G1 F2400 E21.1558
G0 F4320 X32.554 Y10.137
G0 X30.93 Y10.332
G0 X32.61 Y4.846
G0 X32.635 Y6.493
G0 X66.4 Y6.393
G0 X66.4 Y6.648
G1 F2400 E23.68239
G1 F1980 X66.4 Y14.218 E24.01946
G1 X6.51 Y14.218 E26.68618
G1 X6.51 Y6.648 E27.02325
G1 X65.803 Y6.648 E29.66339
G0 F1782 X66.4 Y6.648
G0 F4320 X66.242 Y7.34
G1 F2400 E29.68997
G1 F1980 X65.706 Y6.804 E29.72372
G0 F4320 X65.211 Y6.804
G1 F1980 X66.242 Y7.835 E29.78865
G0 F4320 X66.242 Y8.33
G1 F1980 X64.716 Y6.804 E29.88474
G0 F4320 X64.221 Y6.804
G1 F1980 X66.242 Y8.825 E30.012
G0 F4320 X66.242 Y9.32
G1 F1980 X63.726 Y6.804 E30.17044
G0 F4320 X63.231 Y6.804
G1 F1980 X66.242 Y9.815 E30.36004
G0 F4320 X66.242 Y10.31
G1 F1980 X62.736 Y6.804 E30.58082
G0 F4320 X62.241 Y6.804
G1 F1980 X66.242 Y10.805 E30.83276
G0 F4320 X66.242 Y11.3
G1 F1980 X61.746 Y6.804 E31.11588
G0 F4320 X61.251 Y6.804
G1 F1980 X66.242 Y11.795 E31.43017
G0 F4320 X66.242 Y12.29
G1 F1980 X60.756 Y6.804 E31.77562
G0 F4320 X60.261 Y6.804
G1 F1980 X66.242 Y12.785 E32.15225
G0 F4320 X66.242 Y13.28
G1 F1980 X59.766 Y6.804 E32.56005
G0 F4320 X59.271 Y6.804
G1 F1980 X66.242 Y13.775 E32.99902
G0 F4320 X66.032 Y14.06
G1 F1980 X58.776 Y6.804 E33.45593
G0 F4320 X58.281 Y6.804
G1 F1980 X65.537 Y14.06 E33.91285
G0 F4320 X65.042 Y14.06
G1 F1980 X57.786 Y6.804 E34.36976
G0 F4320 X57.291 Y6.804
G1 F1980 X64.547 Y14.06 E34.82668
G0 F4320 X64.052 Y14.06
G1 F1980 X56.796 Y6.804 E35.28359
G0 F4320 X56.301 Y6.804
G1 F1980 X63.557 Y14.06 E35.74051
G0 F4320 X63.062 Y14.06
G1 F1980 X55.806 Y6.804 E36.19743
G0 F4320 X55.312 Y6.804
G1 F1980 X62.567 Y14.06 E36.65431
G0 F4320 X62.072 Y14.06
G1 F1980 X54.817 Y6.804 E37.11119
G0 F4320 X54.322 Y6.804
G1 F1980 X61.577 Y14.06 E37.56808
G0 F4320 X61.082 Y14.06
G1 F1980 X53.827 Y6.804 E38.02496
G0 F4320 X53.332 Y6.804
G1 F1980 X60.587 Y14.06 E38.48184
G0 F4320 X60.092 Y14.06
G1 F1980 X52.837 Y6.804 E38.93873
G0 F4320 X52.342 Y6.804
G1 F1980 X59.597 Y14.06 E39.39561
G0 F4320 X59.102 Y14.06
G1 F1980 X51.847 Y6.804 E39.8525
G0 F4320 X51.352 Y6.804
G1 F1980 X58.607 Y14.06 E40.30938
G0 F4320 X58.112 Y14.06
G1 F1980 X50.857 Y6.804 E40.76626
G0 F4320 X50.362 Y6.804
G1 F1980 X57.617 Y14.06 E41.22315
G0 F4320 X57.122 Y14.06
G1 F1980 X49.867 Y6.804 E41.68003
G0 F4320 X49.372 Y6.804
G1 F1980 X56.627 Y14.06 E42.13692
G0 F4320 X56.132 Y14.06
G1 F1980 X48.877 Y6.804 E42.5938
G0 F4320 X48.382 Y6.804
G1 F1980 X55.637 Y14.06 E43.05068
G0 F4320 X55.143 Y14.06
G1 F1980 X47.887 Y6.804 E43.5076
G0 F4320 X47.392 Y6.804
G1 F1980 X54.648 Y14.06 E43.96451
G0 F4320 X54.153 Y14.06
G1 F1980 X46.897 Y6.804 E44.42143
G0 F4320 X46.402 Y6.804
G1 F1980 X53.658 Y14.06 E44.87835
G0 F4320 X53.163 Y14.06
G1 F1980 X45.907 Y6.804 E45.33526
G0 F4320 X45.412 Y6.804
G1 F1980 X52.668 Y14.06 E45.79218
G0 F4320 X52.173 Y14.06
G1 F1980 X44.917 Y6.804 E46.24909
G0 F4320 X44.422 Y6.804
G1 F1980 X51.678 Y14.06 E46.70601
G0 F4320 X51.183 Y14.06
G1 F1980 X43.927 Y6.804 E47.16292
G0 F4320 X43.432 Y6.804
G1 F1980 X50.688 Y14.06 E47.61984
G0 F4320 X50.193 Y14.06
G1 F1980 X45.448 Y9.315 E47.91863
G1 X45.386 Y9.253
G0 F4320 X45.645 Y10.007
G1 F1980 X49.698 Y14.06 E48.17385
G0 F4320 X49.203 Y14.06
G1 F1980 X45.664 Y10.521 E48.39671
G0 F4320 X45.618 Y10.97
G1 F1980 X48.708 Y14.06 E48.59129
G0 F4320 X48.213 Y14.06
G1 F1980 X45.52 Y11.367 E48.76087
G0 F4320 X45.365 Y11.707
G1 F1980 X47.718 Y14.06 E48.90904
G0 F4320 X47.223 Y14.06
G1 F1980 X45.196 Y12.032 E49.03671
G0 F4320 X44.97 Y12.302
G1 F1980 X46.728 Y14.06 E49.14741
G0 F4320 X46.233 Y14.06
G1 F1980 X44.738 Y12.565 E49.24155
G0 F4320 X44.451 Y12.773
G1 F1980 X45.738 Y14.06 E49.3226
G0 F4320 X45.243 Y14.06
G1 F1980 X44.158 Y12.974 E49.39095
G0 F4320 X43.801 Y13.113
G1 F1980 X44.748 Y14.06 E49.45058
G0 F4320 X44.253 Y14.06
G1 F1980 X43.431 Y13.237 E49.50238
G0 F4320 X42.989 Y13.291
G1 F1980 X43.758 Y14.06 E49.5508
G0 F4320 X43.263 Y14.06
G1 F1980 X42.478 Y13.274 E49.60027
G0 F4320 X41.831 Y13.122
G1 F1980 X42.768 Y14.06 E49.6593
G0 F4320 X42.273 Y14.06
G1 F1980 X35.018 Y6.804 E50.11618
G0 F4320 X35.513 Y6.804
G1 F1980 X40.091 Y11.383 E50.4045
G0 F4320 X39.943 Y10.739
G1 F1980 X36.007 Y6.804 E50.65232
G0 F4320 X36.502 Y6.804
G1 F1980 X39.943 Y10.244 E50.86897
G0 F4320 X40.009 Y9.816
G1 F1980 X36.997 Y6.804 E51.05864
G0 F4320 X37.492 Y6.804
G1 F1980 X40.107 Y9.419 E51.2233
G0 F4320 X40.276 Y9.093
G1 F1980 X37.987 Y6.804 E51.36744
G0 F4320 X38.482 Y6.804
G1 F1980 X40.453 Y8.775 E51.49156
G0 F4320 X40.685 Y8.512
G1 F1980 X38.977 Y6.804 E51.59911
G0 F4320 X39.472 Y6.804
G1 F1980 X40.922 Y8.254 E51.69042
G0 F4320 X41.215 Y8.052
G1 F1980 X39.967 Y6.804 E51.76901
G0 F4320 X40.462 Y6.804
G1 F1980 X41.519 Y7.86 E51.83554
G0 F4320 X41.878 Y7.725
G1 F1980 X40.957 Y6.804 E51.89353
G0 F4320 X41.452 Y6.804
G1 F1980 X42.265 Y7.616 E51.9447
G0 F4320 X42.707 Y7.564
G1 F1980 X41.947 Y6.804 E51.99255
G0 F4320 X42.442 Y6.804
G1 F1980 X43.243 Y7.605 E52.04299
G1 X43.305 Y7.667
G0 F4320 X43.936 Y7.802
G1 F1980 X42.937 Y6.804 E52.10587
G1 X42.875 Y6.742
G0 F4320 X42.875 Y6.393
G0 X66.583 Y6.465
G0 X66.583 Y14.401
G0 X41.778 Y14.473
G0 X41.778 Y14.06
G1 F1980 X34.523 Y6.804 E52.56275
G0 F4320 X34.028 Y6.804
G1 F1980 X41.283 Y14.06 E53.01964
G0 F4320 X40.788 Y14.06
G1 F1980 X33.533 Y6.804 E53.47652
G0 F4320 X33.038 Y6.804
G1 F1980 X40.293 Y14.06 E53.93341
G0 F4320 X39.798 Y14.06
G1 F1980 X32.543 Y6.804 E54.39029
G0 F4320 X32.048 Y6.804
G1 F1980 X39.303 Y14.06 E54.84717
G0 F4320 X38.808 Y14.06
G1 F1980 X31.553 Y6.804 E55.30406
G0 F4320 X31.058 Y6.804
G1 F1980 X38.313 Y14.06 E55.76094
G0 F4320 X37.818 Y14.06
G1 F1980 X30.563 Y6.804 E56.21782
G0 F4320 X30.068 Y6.804
G1 F1980 X30.964 Y7.7 E56.27425
G0 F4320 X30.351 Y7.583
G1 F1980 X29.573 Y6.804 E56.32327
G0 F4320 X29.078 Y6.804
G1 F1980 X29.856 Y7.583 E56.37229
G0 F4320 X29.414 Y7.636
G1 F1980 X28.583 Y6.804 E56.42465
G0 F4320 X28.088 Y6.804
G1 F1980 X29.055 Y7.771 E56.48554
G0 F4320 X28.709 Y7.92
G1 F1980 X27.593 Y6.804 E56.55582
G0 F4320 X27.098 Y6.804
G1 F1980 X28.415 Y8.121 E56.63875
G0 F4320 X28.137 Y8.338
G1 F1980 X26.603 Y6.804 E56.73535
G0 F4320 X26.108 Y6.804
G1 F1980 X27.906 Y8.602 E56.84857
G0 F4320 X27.689 Y8.88
G1 F1980 X25.613 Y6.804 E56.9793
G0 F4320 X25.118 Y6.804
G1 F1980 X27.518 Y9.204 E57.13043
G0 F4320 X27.374 Y9.555
G1 F1980 X24.623 Y6.804 E57.30366
G0 F4320 X24.128 Y6.804
G1 F1980 X27.275 Y9.951 E57.50183
G0 F4320 X27.243 Y10.414
G1 F1980 X23.633 Y6.804 E57.72915
G0 F4320 X23.138 Y6.804
G1 F1980 X27.285 Y10.95 E57.99026
G1 X27.347 Y11.012
G0 F4320 X27.537 Y11.698
G1 F1980 X22.643 Y6.804 E58.29844
G0 F4320 X22.148 Y6.804
G1 F1980 X29.404 Y14.06 E58.75535
G0 F4320 X29.899 Y14.06
G1 F1980 X28.858 Y13.019 E58.82091
G1 X28.796 Y12.957
G0 F4320 X29.584 Y13.25
G1 F1980 X30.394 Y14.06 E58.87191
G0 F4320 X30.889 Y14.06
G1 F1980 X30.139 Y13.309 E58.91917
G0 F4320 X30.58 Y13.256
G1 F1980 X31.384 Y14.06 E58.9698
G0 F4320 X31.879 Y14.06
G1 F1980 X30.979 Y13.159 E59.02651
G0 F4320 X31.338 Y13.024
G1 F1980 X32.374 Y14.06 E59.09174
G0 F4320 X32.869 Y14.06
G1 F1980 X31.65 Y12.841 E59.16851
G0 F4320 X31.944 Y12.64
G1 F1980 X33.364 Y14.06 E59.25792
G0 F4320 X33.859 Y14.06
G1 F1980 X32.191 Y12.392 E59.36296
G0 F4320 X32.423 Y12.129
G1 F1980 X34.354 Y14.06 E59.48456
G0 F4320 X34.849 Y14.06
G1 F1980 X32.608 Y11.819 E59.62567
G0 F4320 X32.777 Y11.494
