;FLAVOR:Marlin
;TIME:3429
;Filament used: 2.11848m
;Layer height: 0.175
;Generated with Cura_SteamEngine 4.0.0
M140 S65
M105
M190 S65
M104 S205
M105
M109 S205
M82 ;absolute extrusion mode
G21;(metric values)
G90;(absolute positioning)
M82;(set extruder to absolute mode)
M107;(start with the fan off)
G28;(Home the printer)
G92 E0;(Reset the extruder to 0)
G0 Z5 E5 F500;(Move up and prime the nozzle)
G0 X-1 Z0;(Move outside the printable area)
G1 Y60 E8 F500;(Draw a priming/wiping line to the rear)
G1 X-1;(Move a little closer to the print area)
G1 Y10 E16 F500;(draw more priming/wiping)
G1 E15 F250;(Small retract)
G92 E0;(Zero the extruder)
G92 E0
G1 F2400 E-2.5
;LAYER_COUNT:114
;LAYER:0
M107
;MESH:Gripper.stl
G0 F4320 X52.538 Y18.508 Z0.263
;TYPE:WALL-INNER
G1 F2400 E0
G1 F1800 X53.081 Y18.714 E0.02223
G1 X53.65 Y18.782 E0.04416
G1 X54.219 Y18.714 E0.06609
G1 X54.756 Y18.51 E0.08807
G1 X55.23 Y18.185 E0.11007
G1 X55.609 Y17.754 E0.13203
G1 X55.877 Y17.247 E0.15398
G1 X56.014 Y16.688 E0.176
G1 X56.014 Y16.116 E0.19789
G1 X55.877 Y15.557 E0.21992
G1 X55.609 Y15.05 E0.24187
G1 X55.23 Y14.619 E0.26383
G1 X54.757 Y14.294 E0.28579
G1 X54.219 Y14.088 E0.30784
G1 X53.65 Y14.022 E0.32976
G1 X53.081 Y14.088 E0.35168
G1 X52.543 Y14.294 E0.37373
G1 X52.07 Y14.619 E0.39569
G1 X51.691 Y15.05 E0.41766
G1 X51.423 Y15.557 E0.4396
G1 X51.286 Y16.116 E0.46163
G1 X51.286 Y16.688 E0.48352
G1 X51.423 Y17.247 E0.50555
G1 X51.682 Y17.738 E0.52679
G1 X51.987 Y18.09 E0.54462
G0 F1620 X52.052 Y18.165
G0 X52.538 Y18.508
G1 F2400 E-1.95538
G0 F4320 X54.259 Y18.876
G0 X53.85 Y17.209
G0 X53.876 Y17.235
G0 X53.908 Y17.266
G0 X59.163 Y22.401
G0 X59.194 Y22.432
G0 X59.222 Y22.459
G0 X57.617 Y21.848
G0 X58.094 Y23.131
G0 X58.888 Y24.858
G1 F2400 E0.57118
G1 F1800 X59.431 Y25.064 E0.5934
G1 X60 Y25.132 E0.61533
G1 X60.569 Y25.064 E0.63726
G1 X61.106 Y24.86 E0.65925
G1 X61.58 Y24.535 E0.68124
G1 X61.959 Y24.104 E0.7032
G1 X62.227 Y23.597 E0.72515
G1 X62.364 Y23.038 E0.74718
G1 X62.364 Y22.466 E0.76907
G1 X62.227 Y21.907 E0.79109
G1 X61.959 Y21.4 E0.81304
G1 X61.58 Y20.969 E0.83501
G1 X61.107 Y20.644 E0.85697
G1 X60.569 Y20.438 E0.87902
G1 X60 Y20.372 E0.90094
G1 X59.431 Y20.438 E0.92286
G1 X58.893 Y20.644 E0.94491
G1 X58.42 Y20.969 E0.96687
G1 X58.041 Y21.4 E0.98883
G1 X57.773 Y21.907 E1.01078
G1 X57.636 Y22.466 E1.03281
G1 X57.636 Y23.038 E1.0547
G1 X57.773 Y23.597 E1.07672
G1 X58.032 Y24.088 E1.09797
G1 X58.337 Y24.44 E1.11579
G0 F1620 X58.402 Y24.515
G0 X58.888 Y24.858
G1 F2400 E-1.38421
G0 F4320 X60.458 Y24.613
G0 X60.89 Y24.449
G0 X61.272 Y24.187
G0 X61.577 Y23.84
G0 X61.793 Y23.433
G0 X61.824 Y23.306
G0 X62.079 Y21.287
G0 X60.683 Y22.278
G0 X60.705 Y22.253
G0 X60.736 Y22.221
G0 X65.738 Y17.072
G0 X65.769 Y17.041
G0 X65.794 Y17.017
G0 X64.64 Y18.289
G0 X65.238 Y18.508
G1 F2400 E1.14235
G1 F1800 X65.781 Y18.714 E1.16458
G1 X66.35 Y18.782 E1.18651
G1 X66.919 Y18.714 E1.20844
G1 X67.456 Y18.51 E1.23042
G1 X67.93 Y18.185 E1.25242
G1 X68.309 Y17.754 E1.27438
G1 X68.577 Y17.247 E1.29633
G1 X68.714 Y16.688 E1.31835
G1 X68.714 Y16.116 E1.34024
G1 X68.577 Y15.557 E1.36227
G1 X68.309 Y15.05 E1.38422
G1 X67.93 Y14.619 E1.40618
G1 X67.457 Y14.294 E1.42814
G1 X66.919 Y14.088 E1.45019
G1 X66.35 Y14.022 E1.47211
G1 X65.781 Y14.088 E1.49403
G1 X65.243 Y14.294 E1.51608
G1 X64.77 Y14.619 E1.53804
G1 X64.391 Y15.05 E1.56001
G1 X64.123 Y15.557 E1.58195
G1 X63.986 Y16.116 E1.60398
G1 X63.986 Y16.688 E1.62587
G1 X64.123 Y17.247 E1.6479
G1 X64.382 Y17.738 E1.66914
G1 X64.687 Y18.09 E1.68697
G0 F1620 X64.752 Y18.165
G0 X65.238 Y18.508
G1 F2400 E-0.81303
G0 F4320 X63.82 Y16.708
G0 X65.525 Y16.503
G0 X65.487 Y16.464
G0 X65.457 Y16.432
G0 X60.255 Y10.918
G0 X60.225 Y10.886
G0 X60.2 Y10.859
G0 X60.609 Y12.526
G0 X58.888 Y12.158
G1 F2400 E1.71353
G1 F1800 X59.431 Y12.364 E1.73575
G1 X60 Y12.432 E1.75768
G1 X60.569 Y12.364 E1.77961
G1 X61.106 Y12.16 E1.8016
G1 X61.58 Y11.835 E1.82359
G1 X61.959 Y11.404 E1.84556
G1 X62.227 Y10.897 E1.8675
G1 X62.364 Y10.338 E1.88953
G1 X62.364 Y9.766 E1.91142
G1 X62.227 Y9.207 E1.93344
G1 X61.959 Y8.7 E1.95539
G1 X61.58 Y8.269 E1.97736
G1 X61.107 Y7.944 E1.99932
G1 X60.569 Y7.738 E2.02137
G1 X60 Y7.672 E2.04329
G1 X59.431 Y7.738 E2.06521
G1 X58.893 Y7.944 E2.08726
G1 X58.42 Y8.269 E2.10922
G1 X58.041 Y8.7 E2.13118
G1 X57.773 Y9.207 E2.15313
G1 X57.636 Y9.766 E2.17516
G1 X57.636 Y10.338 E2.19705
G1 X57.773 Y10.897 E2.21907
G1 X58.032 Y11.388 E2.24032
G1 X58.337 Y11.74 E2.25814
G0 F1620 X58.402 Y11.815
G0 X58.888 Y12.158
G1 F2400 E-0.24186
G0 F4320 X60.609 Y12.526
G0 X60.2 Y10.859
G0 X60.2 Y10.895
G0 X60.2 Y10.939
G0 X60.2 Y21.866
G0 X60.2 Y21.91
G0 X60.2 Y23.559
G0 X60.609 Y25.342
G0 X60.673 Y25.341
G0 X60.753 Y25.341
G0 X93.625 Y25.527
G1 F2400 E2.2847
G1 F1800 X26.375 Y25.527 E4.85835
G1 X26.375 Y7.277 E5.55678
G1 X93.625 Y7.277 E8.13043
G1 X93.625 Y24.833 E8.8023
G0 F1620 X93.625 Y25.527
G0 F4320 X93.975 Y25.877
G1 F2400 E8.82886
G1 F1800 X26.025 Y25.877 E11.4293
G1 X26.025 Y6.927 E12.15452
G1 X93.975 Y6.927 E14.75496
G1 X93.975 Y25.183 E15.45362
G0 F1620 X93.975 Y25.877
G1 F2400 E12.95362
G0 F4320 X65.404 Y25.342
G0 X65.404 Y27.067
G0 X65.407 Y27.03
G0 X65.411 Y26.986
G0 X66.342 Y17.311
G0 X66.345 Y17.267
G0 X66.35 Y17.233
G0 X66.17 Y18.928
G0 X65.404 Y18.197
G1 F2400 E15.48018
G1 F1800 X65.865 Y18.372 E15.49905
G1 X66.35 Y18.43 E15.51774
G1 X66.835 Y18.372 E15.53643
G1 X67.292 Y18.198 E15.55515
G1 X67.696 Y17.921 E15.57389
G1 X68.019 Y17.554 E15.5926
G1 X68.247 Y17.122 E15.6113
G1 X68.364 Y16.646 E15.63006
G1 X68.364 Y16.158 E15.64873
G1 X68.247 Y15.682 E15.66749
G1 X68.019 Y15.25 E15.68619
G1 X67.696 Y14.883 E15.7049
G1 X67.293 Y14.606 E15.72361
G1 X66.835 Y14.431 E15.74237
G1 X66.35 Y14.374 E15.76106
G1 X65.865 Y14.431 E15.77975
G1 X65.407 Y14.606 E15.79851
G1 X65.004 Y14.883 E15.81723
G1 X64.681 Y15.25 E15.83594
G1 X64.453 Y15.682 E15.85463
G1 X64.336 Y16.158 E15.87339
G1 X64.336 Y16.646 E15.89207
G1 X64.453 Y17.122 E15.91083
G1 X64.673 Y17.539 E15.92887
G1 X64.868 Y17.764 E15.94026
G0 F1620 X64.989 Y17.904
G0 X65.404 Y18.197
G1 F2400 E13.44026
G0 F4320 X64.64 Y18.289
G0 X65.794 Y17.017
G0 X65.768 Y17.04
G0 X65.737 Y17.071
G0 X60.606 Y22.074
G0 X60.574 Y22.105
G0 X60.551 Y22.129
G0 X61.723 Y20.852
G0 X61.903 Y22.522
G0 X61.903 Y22.982
G0 X61.793 Y23.433
G0 X61.577 Y23.84
G0 X61.272 Y24.187
G0 X60.89 Y24.449
G0 X60.458 Y24.613
G0 X60.088 Y24.658
G0 X59.054 Y24.547
G1 F2400 E15.96682
G1 F1800 X59.515 Y24.722 E15.98569
G1 X60 Y24.78 E16.00439
G1 X60.485 Y24.722 E16.02308
G1 X60.942 Y24.548 E16.04179
G1 X61.346 Y24.271 E16.06054
G1 X61.669 Y23.904 E16.07925
G1 X61.897 Y23.472 E16.09794
G1 X62.014 Y22.996 E16.1167
G1 X62.014 Y22.508 E16.13538
G1 X61.897 Y22.032 E16.15414
G1 X61.669 Y21.6 E16.17283
G1 X61.346 Y21.233 E16.19154
G1 X60.943 Y20.956 E16.21026
G1 X60.485 Y20.781 E16.22902
G1 X60 Y20.724 E16.24771
G1 X59.515 Y20.781 E16.2664
G1 X59.057 Y20.956 E16.28516
G1 X58.654 Y21.233 E16.30388
G1 X58.331 Y21.6 E16.32259
G1 X58.103 Y22.032 E16.34128
G1 X57.986 Y22.508 E16.36004
G1 X57.986 Y22.996 E16.37871
G1 X58.103 Y23.472 E16.39747
G1 X58.323 Y23.889 E16.41552
G1 X58.518 Y24.114 E16.42691
G0 F1620 X58.639 Y24.254
G0 X59.054 Y24.547
G1 F2400 E13.92691
G0 F4320 X58.415 Y23.825
G0 X58.357 Y23.715
G0 X57.617 Y21.848
G0 X59.222 Y22.459
G0 X59.194 Y22.432
G0 X59.163 Y22.401
G0 X53.908 Y17.266
G0 X53.876 Y17.235
G0 X53.85 Y17.209
G0 X54.259 Y18.876
G0 X52.704 Y18.197
G1 F2400 E16.45347
G1 F1800 X53.165 Y18.372 E16.47234
G1 X53.65 Y18.43 E16.49103
G1 X54.135 Y18.372 E16.50973
G1 X54.592 Y18.198 E16.52844
G1 X54.996 Y17.921 E16.54719
G1 X55.319 Y17.554 E16.5659
G1 X55.547 Y17.122 E16.58459
G1 X55.664 Y16.646 E16.60335
G1 X55.664 Y16.158 E16.62203
G1 X55.547 Y15.682 E16.64078
G1 X55.319 Y15.25 E16.65948
G1 X54.996 Y14.883 E16.67819
G1 X54.593 Y14.606 E16.6969
G1 X54.135 Y14.431 E16.71567
G1 X53.65 Y14.374 E16.73436
G1 X53.165 Y14.431 E16.75304
G1 X52.707 Y14.606 E16.77181
G1 X52.304 Y14.883 E16.79052
G1 X51.981 Y15.25 E16.80923
G1 X51.753 Y15.682 E16.82793
G1 X51.636 Y16.158 E16.84668
G1 X51.636 Y16.646 E16.86536
G1 X51.753 Y17.122 E16.88412
G1 X51.973 Y17.539 E16.90216
G1 X52.168 Y17.764 E16.91356
G0 F1620 X52.289 Y17.904
G0 X52.704 Y18.197
G1 F2400 E14.41356
G0 F4320 X53.65 Y18.319
G0 X54.108 Y18.263
G0 X54.54 Y18.099
G0 X54.922 Y17.837
G0 X55.227 Y17.49
G0 X55.443 Y17.083
G0 X55.505 Y16.829
G0 X55.647 Y14.843
G0 X54.333 Y15.928
G0 X54.356 Y15.903
G0 X54.386 Y15.871
G0 X59.389 Y10.722
G0 X59.419 Y10.691
G0 X59.444 Y10.667
G0 X58.29 Y11.939
G0 X59.054 Y11.847
G1 F2400 E16.94012
G1 F1800 X59.515 Y12.022 E16.95899
G1 X60 Y12.08 E16.97768
G1 X60.485 Y12.022 E16.99637
G1 X60.942 Y11.848 E17.01509
G1 X61.346 Y11.571 E17.03383
G1 X61.669 Y11.204 E17.05254
G1 X61.897 Y10.772 E17.07124
G1 X62.014 Y10.296 E17.09
G1 X62.014 Y9.808 E17.10867
G1 X61.897 Y9.332 E17.12743
G1 X61.669 Y8.9 E17.14613
G1 X61.346 Y8.533 E17.16484
G1 X60.943 Y8.256 E17.18355
G1 X60.485 Y8.081 E17.20231
G1 X60 Y8.024 E17.221
G1 X59.515 Y8.081 E17.23969
G1 X59.057 Y8.256 E17.25845
G1 X58.654 Y8.533 E17.27717
G1 X58.331 Y8.9 E17.29588
G1 X58.103 Y9.332 E17.31457
G1 X57.986 Y9.808 E17.33333
G1 X57.986 Y10.296 E17.35201
G1 X58.103 Y10.772 E17.37077
G1 X58.323 Y11.189 E17.38881
G1 X58.518 Y11.414 E17.4002
G0 F1620 X58.639 Y11.554
G0 X59.054 Y11.847
G0 F4320 X59.208 Y11.558
;TYPE:WALL-OUTER
G1 F2400 E17.42676
G1 F1800 X59.593 Y11.704 E17.44252
G1 X60 Y11.753 E17.45821
G1 X60.407 Y11.704 E17.4739
G1 X60.79 Y11.558 E17.48958
G1 X61.129 Y11.326 E17.5053
G1 X61.4 Y11.018 E17.521
G1 X61.591 Y10.656 E17.53667
G1 X61.689 Y10.257 E17.55239
G1 X61.689 Y9.847 E17.56808
G1 X61.591 Y9.448 E17.58381
G1 X61.4 Y9.086 E17.59947
G1 X61.129 Y8.778 E17.61517
G1 X60.791 Y8.546 E17.63086
G1 X60.407 Y8.399 E17.6466
G1 X60 Y8.351 E17.66228
G1 X59.593 Y8.399 E17.67796
G1 X59.209 Y8.546 E17.6937
G1 X58.871 Y8.778 E17.70939
G1 X58.6 Y9.086 E17.72509
G1 X58.409 Y9.448 E17.74075
G1 X58.311 Y9.847 E17.75648
G1 X58.311 Y10.257 E17.77217
G1 X58.409 Y10.656 E17.78789
G1 X58.593 Y11.004 E17.80295
G1 X58.685 Y11.11 E17.80833
G0 F1620 X58.859 Y11.311
G0 X59.208 Y11.558
G0 F4320 X59.395 Y11.629
G1 F2400 E15.30833
G0 F4320 X59.296 Y11.885
G0 X60.609 Y12.526
G0 X60.2 Y10.859
G0 X60.225 Y10.885
G0 X60.256 Y10.916
G0 X65.463 Y16.238
G0 X65.494 Y16.27
G0 X65.525 Y16.301
G0 X63.82 Y16.096
G0 X64.765 Y17.475
G0 X65.459 Y18.164
G0 X65.558 Y17.908
G1 F2400 E17.83489
G1 F1800 X65.943 Y18.054 E17.85064
G1 X66.35 Y18.103 E17.86633
G1 X66.757 Y18.054 E17.88202
G1 X67.14 Y17.908 E17.89771
G1 X67.479 Y17.676 E17.91343
G1 X67.75 Y17.368 E17.92913
G1 X67.941 Y17.006 E17.94479
G1 X68.039 Y16.607 E17.96051
G1 X68.039 Y16.197 E17.97621
G1 X67.941 Y15.798 E17.99193
G1 X67.75 Y15.436 E18.00759
G1 X67.479 Y15.128 E18.02329
G1 X67.141 Y14.896 E18.03898
G1 X66.757 Y14.749 E18.05472
G1 X66.35 Y14.701 E18.0704
G1 X65.943 Y14.749 E18.08609
G1 X65.559 Y14.896 E18.10182
G1 X65.221 Y15.128 E18.11751
G1 X64.95 Y15.436 E18.13321
G1 X64.759 Y15.798 E18.14887
G1 X64.661 Y16.197 E18.1646
G1 X64.661 Y16.607 E18.18029
G1 X64.759 Y17.006 E18.19601
G1 X64.943 Y17.354 E18.21108
G1 X65.035 Y17.46 E18.21645
G0 F1620 X65.209 Y17.661
G0 X65.558 Y17.908
G0 F4320 X65.745 Y17.979
G1 F2400 E15.71645
G0 F4320 X65.646 Y18.235
G0 X64.64 Y18.289
G0 X65.794 Y17.017
G0 X65.768 Y17.04
G0 X65.737 Y17.071
G0 X60.606 Y22.074
G0 X60.574 Y22.105
G0 X60.551 Y22.129
G0 X61.723 Y20.852
G0 X61.903 Y22.522
G0 X61.903 Y22.982
G0 X61.793 Y23.433
G0 X61.577 Y23.84
G0 X61.272 Y24.187
G0 X60.89 Y24.449
G0 X60.458 Y24.613
G0 X60.088 Y24.658
G0 X59.109 Y24.514
G0 X59.208 Y24.258
G1 F2400 E18.24301
G1 F1800 X59.593 Y24.404 E18.25877
G1 X60 Y24.453 E18.27445
G1 X60.407 Y24.404 E18.29014
G1 X60.79 Y24.258 E18.30583
G1 X61.129 Y24.026 E18.32155
G1 X61.4 Y23.718 E18.33725
G1 X61.591 Y23.356 E18.35291
G1 X61.689 Y22.957 E18.36864
G1 X61.689 Y22.547 E18.38433
G1 X61.591 Y22.148 E18.40005
G1 X61.4 Y21.786 E18.41571
G1 X61.129 Y21.478 E18.43141
G1 X60.791 Y21.246 E18.4471
G1 X60.407 Y21.099 E18.46284
G1 X60 Y21.051 E18.47852
G1 X59.593 Y21.099 E18.49421
G1 X59.209 Y21.246 E18.50994
G1 X58.871 Y21.478 E18.52563
G1 X58.6 Y21.786 E18.54133
G1 X58.409 Y22.148 E18.557
G1 X58.311 Y22.547 E18.57272
G1 X58.311 Y22.957 E18.58841
G1 X58.409 Y23.356 E18.60413
G1 X58.593 Y23.704 E18.6192
G1 X58.685 Y23.81 E18.62457
G0 F1620 X58.859 Y24.011
G0 X59.208 Y24.258
G0 F4320 X59.395 Y24.329
G1 F2400 E16.12457
G0 F4320 X59.296 Y24.585
G0 X58.715 Y24.171
G0 X58.415 Y23.825
G0 X58.357 Y23.715
G0 X57.617 Y21.848
G0 X59.222 Y22.459
G0 X59.194 Y22.432
G0 X59.163 Y22.401
G0 X53.908 Y17.266
G0 X53.876 Y17.235
G0 X53.85 Y17.209
G0 X54.259 Y18.876
G0 X52.759 Y18.164
G0 X52.858 Y17.908
G1 F2400 E18.65113
G1 F1800 X53.243 Y18.054 E18.66689
G1 X53.65 Y18.103 E18.68258
G1 X54.057 Y18.054 E18.69826
G1 X54.44 Y17.908 E18.71395
G1 X54.779 Y17.676 E18.72967
G1 X55.05 Y17.368 E18.74537
G1 X55.241 Y17.006 E18.76104
G1 X55.339 Y16.607 E18.77676
G1 X55.339 Y16.197 E18.79245
G1 X55.241 Y15.798 E18.80817
G1 X55.05 Y15.436 E18.82384
G1 X54.779 Y15.128 E18.83954
G1 X54.441 Y14.896 E18.85523
G1 X54.057 Y14.749 E18.87096
G1 X53.65 Y14.701 E18.88665
G1 X53.243 Y14.749 E18.90233
G1 X52.859 Y14.896 E18.91807
G1 X52.521 Y15.128 E18.93375
G1 X52.25 Y15.436 E18.94945
G1 X52.059 Y15.798 E18.96512
G1 X51.961 Y16.197 E18.98084
G1 X51.961 Y16.607 E18.99653
G1 X52.059 Y17.006 E19.01226
G1 X52.243 Y17.354 E19.02732
G1 X52.335 Y17.46 E19.03269
G0 F1620 X52.509 Y17.661
G0 X52.858 Y17.908
G0 F4320 X53.045 Y17.979
G1 F2400 E16.53269
G0 F4320 X52.946 Y18.235
G0 X53.65 Y18.319
G0 X53.779 Y18.304
G0 X55.746 Y17.849
G0 X54.333 Y16.876
G0 X54.34 Y16.922
G0 X54.345 Y16.966
G0 X55.734 Y26.988
G0 X55.739 Y27.032
G0 X55.746 Y27.067
G0 X55.746 Y25.342
G0 X94.025 Y25.957
G0 X94.3 Y26.202
G1 F2400 E19.05925
G1 F1800 X25.7 Y26.202 E21.68457
G1 X25.7 Y6.602 E22.43466
G1 X94.3 Y6.602 E25.05998
G1 X94.3 Y25.508 E25.78351
G0 F1620 X94.3 Y26.202
G0 F4320 X94.1 Y26.202
G0 X94.1 Y25.927
G0 X93.54 Y25.187
G0 X93.285 Y25.187
;TYPE:SKIN
G1 F2400 E25.81007
G1 F1800 X61.202 Y25.187 E27.03788
G1 X61.265 Y25.163 E27.04046
G1 X61.807 Y24.791 E27.06562
G1 X62.241 Y24.298 E27.09076
G1 X62.547 Y23.719 E27.11582
G1 X62.704 Y23.079 E27.14104
G1 X62.704 Y22.425 E27.16607
G1 X62.547 Y21.785 E27.19129
G1 X62.241 Y21.206 E27.21635
G1 X61.807 Y20.713 E27.24149
G1 X61.266 Y20.341 E27.26661
G1 X60.651 Y20.105 E27.29182
G1 X60 Y20.03 E27.3169
G1 X59.349 Y20.105 E27.34198
G1 X58.734 Y20.341 E27.36719
G1 X58.193 Y20.713 E27.39231
G1 X57.759 Y21.206 E27.41745
G1 X57.453 Y21.785 E27.44251
G1 X57.296 Y22.425 E27.46773
G1 X57.296 Y23.079 E27.49276
G1 X57.453 Y23.719 E27.51798
G1 X57.75 Y24.281 E27.54231
G1 X58.172 Y24.769 E27.567
G1 X58.727 Y25.161 E27.593
G1 X58.796 Y25.187 E27.59582
G1 X26.715 Y25.187 E28.82356
G1 X26.715 Y7.617 E29.49596
G1 X58.797 Y7.617 E30.72374
G1 X58.734 Y7.641 E30.72632
G1 X58.193 Y8.013 E30.75145
G1 X57.759 Y8.506 E30.77658
G1 X57.453 Y9.085 E30.80164
G1 X57.296 Y9.725 E30.82686
G1 X57.296 Y10.379 E30.85189
G1 X57.453 Y11.019 E30.87711
G1 X57.75 Y11.581 E30.90144
G1 X58.172 Y12.069 E30.92613
G1 X58.727 Y12.461 E30.95213
G1 X59.349 Y12.696 E30.97758
G1 X60 Y12.774 E31.00267
G1 X60.651 Y12.696 E31.02776
G1 X61.265 Y12.463 E31.05289
G1 X61.807 Y12.091 E31.07805
G1 X62.241 Y11.598 E31.10319
G1 X62.547 Y11.019 E31.12825
G1 X62.704 Y10.379 E31.15347
G1 X62.704 Y9.725 E31.1785
G1 X62.547 Y9.085 E31.20372
G1 X62.241 Y8.506 E31.22878
G1 X61.807 Y8.013 E31.25392
G1 X61.266 Y7.641 E31.27904
G1 X61.203 Y7.617 E31.28162
G1 X93.285 Y7.617 E32.5094
G1 X93.285 Y24.493 E33.15524
G0 F1620 X93.285 Y25.187
G1 F2400 E30.65524
G0 F4320 X93.54 Y25.187
G0 X93.44 Y17.277
G0 X95.165 Y17.277
G0 X95.127 Y17.273
G0 X95.083 Y17.273
G0 X67.253 Y16.504
G0 X67.209 Y16.504
G0 X67.175 Y16.503
G0 X68.88 Y16.708
G0 X68.658 Y17.277
G0 X68.897 Y17.369
G1 F2400 E33.1818
G1 F1800 X69.054 Y16.729 E33.20702
G1 X69.054 Y16.075 E33.23205
G1 X68.897 Y15.435 E33.25727
G1 X68.591 Y14.856 E33.28233
G1 X68.157 Y14.363 E33.30747
G1 X67.616 Y13.991 E33.33259
G1 X67.001 Y13.755 E33.3578
G1 X66.35 Y13.68 E33.38288
