;FLAVOR:Marlin
;TIME:5801
;Filament used: 3.92602m
;Layer height: 0.175
;MINX:31.7
;MINY:5.182
;MINZ:0.263
;MAXX:88.3
;MAXY:53.082
;MAXZ:13.913
;Generated with Cura_SteamEngine 4.2.1
M140 S65
M105
M190 S65
M104 S205
M105
M109 S205
M82 ;absolute extrusion mode
G21;(metric values)
G90;(absolute positioning)
M82;(set extruder to absolute mode)
M107;(start with the fan off)
G28;(Home the printer)
G92 E0;(Reset the extruder to 0)
G0 Z5 E5 F500;(Move up and prime the nozzle)
G0 X-1 Z0;(Move outside the printable area)
G1 Y60 E8 F500;(Draw a priming/wiping line to the rear)
G1 X-1;(Move a little closer to the print area)
G1 Y10 E16 F500;(draw more priming/wiping)
G1 E15 F250;(Small retract)
G92 E0;(Zero the extruder)
M141 S28
G92 E0
G92 E0
G1 F2400 E-2.5
;LAYER_COUNT:79
;LAYER:0
M107
;MESH:SliderTray-v0-0-3.stl
G0 F4320 X32.375 Y23.107 Z0.263
;TYPE:WALL-INNER
G1 F2400 E0
G1 F1800 X32.375 Y5.857 E0.66016
G1 X74.625 Y5.857 E2.27706
G1 X74.625 Y23.107 E2.93722
G1 X33.069 Y23.107 E4.52756
G0 F1620 X32.375 Y23.107
G0 F4320 X32.025 Y23.457
G1 F2400 E4.55412
G1 F1800 X32.025 Y5.507 E5.24107
G1 X74.975 Y5.507 E6.88476
G1 X74.975 Y23.457 E7.57171
G1 X32.719 Y23.457 E9.18884
G0 F1620 X32.025 Y23.457
G0 F4320 X31.7 Y23.782
;TYPE:WALL-OUTER
G1 F2400 E9.2154
G1 F1800 X31.7 Y5.182 E9.92722
G1 X75.3 Y5.182 E11.59579
G1 X75.3 Y23.782 E12.30761
G1 X32.394 Y23.782 E13.94962
G0 F1620 X31.7 Y23.782
G0 F4320 X31.7 Y23.582
G0 X31.975 Y23.582
G0 X32.46 Y22.767
G0 X32.715 Y22.767
;TYPE:SKIN
G1 F2400 E13.97618
G1 F1800 X32.715 Y6.197 E14.61032
G1 X74.285 Y6.197 E16.2012
G1 X74.285 Y22.767 E16.83533
G1 X33.409 Y22.767 E18.39965
G0 F1620 X32.715 Y22.767
G0 F4320 X33.004 Y22.609
G1 F2400 E18.42621
G1 F1800 X32.871 Y22.476 E18.43341
G0 F4320 X32.871 Y21.981
G1 F1800 X33.499 Y22.609 E18.4674
G0 F4320 X33.994 Y22.609
G1 F1800 X32.871 Y21.486 E18.52818
G0 F4320 X32.871 Y20.991
G1 F1800 X34.489 Y22.609 E18.61575
G0 F4320 X34.984 Y22.609
G1 F1800 X32.871 Y20.496 E18.73011
G0 F4320 X32.871 Y20.001
G1 F1800 X35.479 Y22.609 E18.87126
G0 F4320 X35.974 Y22.609
G1 F1800 X32.871 Y19.506 E19.0392
G0 F4320 X32.871 Y19.011
G1 F1800 X36.469 Y22.609 E19.23393
G0 F4320 X36.964 Y22.609
G1 F1800 X32.871 Y18.517 E19.45542
G0 F4320 X32.871 Y18.022
G1 F1800 X37.458 Y22.609 E19.70368
G0 F4320 X37.953 Y22.609
G1 F1800 X32.871 Y17.527 E19.97873
G0 F4320 X32.871 Y17.032
G1 F1800 X38.448 Y22.609 E20.28056
G0 F4320 X38.943 Y22.609
G1 F1800 X32.871 Y16.537 E20.60919
G0 F4320 X32.871 Y16.042
G1 F1800 X39.438 Y22.609 E20.96461
G0 F4320 X39.933 Y22.609
G1 F1800 X32.871 Y15.547 E21.34682
G0 F4320 X32.871 Y15.052
G1 F1800 X40.428 Y22.609 E21.75582
G0 F4320 X40.923 Y22.609
G1 F1800 X32.871 Y14.557 E22.19161
G0 F4320 X32.871 Y14.062
G1 F1800 X41.418 Y22.609 E22.65419
G0 F4320 X41.913 Y22.609
G1 F1800 X32.871 Y13.567 E23.14356
G0 F4320 X32.871 Y13.072
G1 F1800 X42.408 Y22.609 E23.65972
G0 F4320 X42.903 Y22.609
G1 F1800 X32.871 Y12.577 E24.20267
G0 F4320 X32.871 Y12.082
G1 F1800 X43.398 Y22.609 E24.77241
G0 F4320 X43.893 Y22.609
G1 F1800 X32.871 Y11.587 E25.36894
G0 F4320 X32.871 Y11.092
G1 F1800 X44.388 Y22.609 E25.99226
G0 F4320 X44.883 Y22.609
G1 F1800 X32.871 Y10.597 E26.64237
G0 F4320 X32.871 Y10.102
G1 F1800 X45.378 Y22.609 E27.31927
G0 F4320 X45.873 Y22.609
G1 F1800 X32.871 Y9.607 E28.02297
G0 F4320 X32.871 Y9.112
G1 F1800 X46.368 Y22.609 E28.75345
G0 F4320 X46.863 Y22.609
G1 F1800 X32.871 Y8.617 E29.51072
G0 F4320 X32.871 Y8.122
G1 F1800 X47.358 Y22.609 E30.29479
G0 F4320 X47.853 Y22.609
G1 F1800 X32.871 Y7.627 E31.10564
G0 F4320 X32.871 Y7.132
G1 F1800 X48.348 Y22.609 E31.94329
G0 F4320 X48.843 Y22.609
G1 F1800 X32.871 Y6.637 E32.80772
G0 F4320 X33.082 Y6.354
G1 F1800 X49.338 Y22.609 E33.6875
G0 F4320 X49.833 Y22.609
G1 F1800 X33.577 Y6.354 E34.56728
G0 F4320 X34.072 Y6.354
G1 F1800 X50.328 Y22.609 E35.44705
G0 F4320 X50.823 Y22.609
G1 F1800 X34.567 Y6.354 E36.32683
G0 F4320 X35.062 Y6.354
G1 F1800 X51.318 Y22.609 E37.20661
G0 F4320 X51.813 Y22.609
G1 F1800 X35.557 Y6.354 E38.08639
G0 F4320 X36.052 Y6.354
G1 F1800 X52.308 Y22.609 E38.96617
G0 F4320 X52.803 Y22.609
G1 F1800 X36.547 Y6.354 E39.84594
G0 F4320 X37.042 Y6.354
G1 F1800 X53.298 Y22.609 E40.72572
G0 F4320 X53.793 Y22.609
G1 F1800 X37.537 Y6.354 E41.6055
G0 F4320 X38.032 Y6.354
G1 F1800 X54.288 Y22.609 E42.48528
G0 F4320 X54.783 Y22.609
G1 F1800 X38.527 Y6.354 E43.36506
G0 F4320 X39.022 Y6.354
G1 F1800 X55.278 Y22.609 E44.24483
G0 F4320 X55.773 Y22.609
G1 F1800 X39.517 Y6.354 E45.12461
G0 F4320 X40.012 Y6.354
G1 F1800 X56.268 Y22.609 E46.00439
G0 F4320 X56.762 Y22.609
G1 F1800 X40.507 Y6.354 E46.88414
G0 F4320 X41.002 Y6.354
G1 F1800 X57.257 Y22.609 E47.76389
G0 F4320 X57.752 Y22.609
G1 F1800 X41.497 Y6.354 E48.64364
G0 F4320 X41.992 Y6.354
G1 F1800 X58.247 Y22.609 E49.5234
G0 F4320 X58.742 Y22.609
G1 F1800 X42.487 Y6.354 E50.40315
G0 F4320 X42.982 Y6.354
G1 F1800 X59.237 Y22.609 E51.2829
G0 F4320 X59.732 Y22.609
G1 F1800 X43.477 Y6.354 E52.16265
G0 F4320 X43.972 Y6.354
G1 F1800 X60.227 Y22.609 E53.0424
G0 F4320 X60.722 Y22.609
G1 F1800 X44.467 Y6.354 E53.92215
G0 F4320 X44.962 Y6.354
G1 F1800 X61.217 Y22.609 E54.8019
G0 F4320 X61.712 Y22.609
G1 F1800 X45.457 Y6.354 E55.68165
G0 F4320 X45.952 Y6.354
G1 F1800 X62.207 Y22.609 E56.5614
G0 F4320 X62.702 Y22.609
G1 F1800 X46.447 Y6.354 E57.44115
G0 F4320 X46.941 Y6.354
G1 F1800 X63.197 Y22.609 E58.32093
G0 F4320 X63.692 Y22.609
G1 F1800 X47.436 Y6.354 E59.20071
G0 F4320 X47.931 Y6.354
G1 F1800 X64.187 Y22.609 E60.08049
G0 F4320 X64.682 Y22.609
G1 F1800 X48.426 Y6.354 E60.96027
G0 F4320 X48.921 Y6.354
G1 F1800 X65.177 Y22.609 E61.84004
G0 F4320 X65.672 Y22.609
G1 F1800 X49.416 Y6.354 E62.71982
G0 F4320 X49.911 Y6.354
G1 F1800 X66.167 Y22.609 E63.5996
G0 F4320 X66.662 Y22.609
G1 F1800 X50.406 Y6.354 E64.47938
G0 F4320 X50.901 Y6.354
G1 F1800 X67.157 Y22.609 E65.35916
G0 F4320 X67.652 Y22.609
G1 F1800 X51.396 Y6.354 E66.23894
G0 F4320 X51.891 Y6.354
G1 F1800 X68.147 Y22.609 E67.11871
G0 F4320 X68.642 Y22.609
G1 F1800 X52.386 Y6.354 E67.99849
G0 F4320 X52.881 Y6.354
G1 F1800 X69.137 Y22.609 E68.87827
G0 F4320 X69.632 Y22.609
G1 F1800 X53.376 Y6.354 E69.75805
G0 F4320 X53.871 Y6.354
G1 F1800 X70.127 Y22.609 E70.63783
G0 F4320 X70.622 Y22.609
G1 F1800 X54.366 Y6.354 E71.5176
G0 F4320 X54.861 Y6.354
G1 F1800 X71.117 Y22.609 E72.39738
G0 F4320 X71.612 Y22.609
G1 F1800 X55.356 Y6.354 E73.27716
G0 F4320 X55.851 Y6.354
G1 F1800 X72.107 Y22.609 E74.15694
G0 F4320 X72.602 Y22.609
G1 F1800 X56.346 Y6.354 E75.03672
G0 F4320 X56.841 Y6.354
G1 F1800 X73.097 Y22.609 E75.91649
G0 F4320 X73.592 Y22.609
G1 F1800 X57.336 Y6.354 E76.79627
G0 F4320 X57.831 Y6.354
G1 F1800 X74.087 Y22.609 E77.67605
G0 F4320 X74.127 Y22.155
G1 F1800 X58.326 Y6.354 E78.53123
G0 F4320 X58.821 Y6.354
G1 F1800 X74.127 Y21.66 E79.35962
G0 F4320 X74.127 Y21.165
G1 F1800 X59.316 Y6.354 E80.16122
G0 F4320 X59.811 Y6.354
G1 F1800 X74.127 Y20.67 E80.93603
G0 F4320 X74.127 Y20.175
G1 F1800 X60.306 Y6.354 E81.68405
G0 F4320 X60.801 Y6.354
G1 F1800 X74.127 Y19.68 E82.40527
G0 F4320 X74.127 Y19.185
G1 F1800 X61.296 Y6.354 E83.09971
G0 F4320 X61.791 Y6.354
G1 F1800 X74.127 Y18.69 E83.76736
G0 F4320 X74.127 Y18.195
G1 F1800 X62.286 Y6.354 E84.40822
G0 F4320 X62.781 Y6.354
G1 F1800 X74.127 Y17.7 E85.02228
G0 F4320 X74.127 Y17.205
G1 F1800 X63.276 Y6.354 E85.60956
G0 F4320 X63.771 Y6.354
G1 F1800 X74.127 Y16.71 E86.17005
G0 F4320 X74.127 Y16.215
G1 F1800 X64.266 Y6.354 E86.70374
G0 F4320 X64.761 Y6.354
G1 F1800 X74.127 Y15.72 E87.21065
G0 F4320 X74.127 Y15.225
G1 F1800 X65.256 Y6.354 E87.69076
G0 F4320 X65.751 Y6.354
G1 F1800 X74.127 Y14.73 E88.14409
G0 F4320 X74.127 Y14.235
G1 F1800 X66.246 Y6.354 E88.57062
G0 F4320 X66.74 Y6.354
G1 F1800 X74.127 Y13.74 E88.97039
G0 F4320 X74.127 Y13.245
G1 F1800 X67.235 Y6.354 E89.34337
G0 F4320 X67.73 Y6.354
G1 F1800 X74.127 Y12.75 E89.68956
G0 F4320 X74.127 Y12.255
G1 F1800 X68.225 Y6.354 E90.00896
G0 F4320 X68.72 Y6.354
G1 F1800 X74.127 Y11.76 E90.30157
G0 F4320 X74.127 Y11.265
G1 F1800 X69.215 Y6.354 E90.56739
G0 F4320 X69.71 Y6.354
G1 F1800 X74.127 Y10.77 E90.80642
G0 F4320 X74.127 Y10.275
G1 F1800 X70.205 Y6.354 E91.01866
G0 F4320 X70.7 Y6.354
G1 F1800 X74.127 Y9.78 E91.20411
G0 F4320 X74.127 Y9.285
G1 F1800 X71.195 Y6.354 E91.36277
G0 F4320 X71.69 Y6.354
G1 F1800 X74.127 Y8.79 E91.49464
G0 F4320 X74.127 Y8.295
G1 F1800 X72.185 Y6.354 E91.59971
G0 F4320 X72.68 Y6.354
G1 F1800 X74.127 Y7.8 E91.678
G0 F4320 X74.127 Y7.305
G1 F1800 X73.175 Y6.354 E91.7295
G0 F4320 X73.67 Y6.354
G1 F1800 X74.127 Y6.81 E91.7542
G0 F4320 X74.775 Y6.81
G1 F2400 E89.2542
G0 F4320 X74.468 Y22.95
G0 X32.375 Y23.587
G0 X32.375 Y24.647
G0 X32.375 Y33.617
G0 X32.375 Y34.677
G0 X32.375 Y52.407
;TYPE:WALL-INNER
G1 F2400 E91.7542
G1 F1800 X32.375 Y35.157 E92.41436
G1 X74.625 Y35.157 E94.03127
G1 X74.625 Y52.407 E94.69142
G1 X33.069 Y52.407 E96.28177
G0 F1620 X32.375 Y52.407
G0 F4320 X32.025 Y52.757
G1 F2400 E96.30833
G1 F1800 X32.025 Y34.807 E96.99527
G1 X74.975 Y34.807 E98.63897
G1 X74.975 Y52.757 E99.32591
G1 X32.719 Y52.757 E100.94305
G0 F1620 X32.025 Y52.757
G0 F4320 X31.7 Y53.082
;TYPE:WALL-OUTER
G1 F2400 E100.96961
G1 F1800 X31.7 Y34.482 E101.68143
G1 X75.3 Y34.482 E103.35
G1 X75.3 Y53.082 E104.06182
G1 X32.394 Y53.082 E105.70383
G0 F1620 X31.7 Y53.082
G0 F4320 X31.7 Y52.882
G0 X31.975 Y52.882
G0 X32.46 Y52.067
G0 X32.715 Y52.067
;TYPE:SKIN
G1 F2400 E105.73039
G1 F1800 X32.715 Y35.497 E106.36452
G1 X74.285 Y35.497 E107.9554
G1 X74.285 Y52.067 E108.58954
G1 X33.409 Y52.067 E110.15386
G0 F1620 X32.715 Y52.067
G0 F4320 X33.099 Y51.908
G1 F2400 E110.18042
G1 F1800 X32.871 Y51.681 E110.19273
G0 F4320 X32.871 Y51.186
G1 F1800 X33.594 Y51.908 E110.23183
G0 F4320 X34.089 Y51.908
G1 F1800 X32.871 Y50.691 E110.29773
G0 F4320 X32.871 Y50.196
G1 F1800 X34.584 Y51.908 E110.39041
G0 F4320 X35.079 Y51.908
G1 F1800 X32.871 Y49.701 E110.50988
G0 F4320 X32.871 Y49.206
G1 F1800 X35.574 Y51.908 E110.65615
G0 F4320 X36.069 Y51.908
G1 F1800 X32.871 Y48.711 E110.8292
G0 F4320 X32.871 Y48.216
G1 F1800 X36.564 Y51.908 E111.02905
G0 F4320 X37.059 Y51.908
G1 F1800 X32.871 Y47.721 E111.25568
G0 F4320 X32.871 Y47.226
G1 F1800 X37.554 Y51.908 E111.50911
G0 F4320 X38.049 Y51.908
G1 F1800 X32.871 Y46.731 E111.78933
G0 F4320 X32.871 Y46.236
G1 F1800 X38.544 Y51.908 E112.09633
G0 F4320 X39.039 Y51.908
G1 F1800 X32.871 Y45.741 E112.43013
G0 F4320 X32.871 Y45.246
G1 F1800 X39.534 Y51.908 E112.79072
G0 F4320 X40.029 Y51.908
G1 F1800 X32.871 Y44.751 E113.17809
G0 F4320 X32.871 Y44.256
G1 F1800 X40.524 Y51.908 E113.59226
G0 F4320 X41.019 Y51.908
G1 F1800 X32.871 Y43.761 E114.03322
G0 F4320 X32.871 Y43.266
G1 F1800 X41.514 Y51.908 E114.50097
G0 F4320 X42.009 Y51.908
G1 F1800 X32.871 Y42.771 E114.9955
G0 F4320 X32.871 Y42.276
G1 F1800 X42.504 Y51.908 E115.51683
G0 F4320 X42.999 Y51.908
G1 F1800 X32.871 Y41.781 E116.06495
G0 F4320 X32.871 Y41.286
G1 F1800 X43.494 Y51.908 E116.63986
G0 F4320 X43.989 Y51.908
G1 F1800 X32.871 Y40.791 E117.24156
G0 F4320 X32.871 Y40.296
G1 F1800 X44.484 Y51.908 E117.87005
G0 F4320 X44.979 Y51.908
G1 F1800 X32.871 Y39.801 E118.52533
G0 F4320 X32.871 Y39.306
G1 F1800 X45.474 Y51.908 E119.2074
G0 F4320 X45.969 Y51.908
G1 F1800 X32.871 Y38.811 E119.91627
G0 F4320 X32.871 Y38.316
G1 F1800 X46.463 Y51.908 E120.65189
G0 F4320 X46.958 Y51.908
G1 F1800 X32.871 Y37.821 E121.4143
G0 F4320 X32.871 Y37.326
G1 F1800 X47.453 Y51.908 E122.20351
G0 F4320 X47.948 Y51.908
G1 F1800 X32.871 Y36.831 E123.01951
G0 F4320 X32.871 Y36.336
G1 F1800 X48.443 Y51.908 E123.86229
G0 F4320 X48.938 Y51.908
G1 F1800 X32.871 Y35.841 E124.73187
G0 F4320 X33.178 Y35.653
G1 F1800 X49.433 Y51.908 E125.61162
G0 F4320 X49.928 Y51.908
G1 F1800 X33.673 Y35.653 E126.49137
G0 F4320 X34.168 Y35.653
G1 F1800 X50.423 Y51.908 E127.37112
G0 F4320 X50.918 Y51.908
G1 F1800 X34.663 Y35.653 E128.25087
G0 F4320 X35.158 Y35.653
G1 F1800 X51.413 Y51.908 E129.13062
G0 F4320 X51.908 Y51.908
G1 F1800 X35.653 Y35.653 E130.01037
G0 F4320 X36.148 Y35.653
G1 F1800 X52.403 Y51.908 E130.89012
G0 F4320 X52.898 Y51.908
G1 F1800 X36.643 Y35.653 E131.76988
G0 F4320 X37.138 Y35.653
G1 F1800 X53.393 Y51.908 E132.64963
G0 F4320 X53.889 Y51.909
G1 F1800 X37.633 Y35.653 E133.52943
G0 F4320 X38.128 Y35.653
G1 F1800 X54.384 Y51.909 E134.40924
G0 F4320 X54.879 Y51.909
G1 F1800 X38.623 Y35.653 E135.28904
G0 F4320 X39.118 Y35.653
G1 F1800 X55.374 Y51.909 E136.16885
G0 F4320 X55.869 Y51.909
G1 F1800 X39.613 Y35.653 E137.04865
G0 F4320 X40.108 Y35.653
G1 F1800 X56.364 Y51.909 E137.92846
G0 F4320 X56.859 Y51.909
G1 F1800 X40.603 Y35.653 E138.80826
G0 F4320 X41.098 Y35.653
G1 F1800 X57.354 Y51.909 E139.68807
G0 F4320 X57.849 Y51.909
G1 F1800 X41.593 Y35.653 E140.56787
G0 F4320 X42.088 Y35.653
G1 F1800 X58.344 Y51.909 E141.44768
G0 F4320 X58.839 Y51.909
G1 F1800 X42.583 Y35.653 E142.32748
G0 F4320 X43.078 Y35.653
G1 F1800 X59.334 Y51.909 E143.20729
G0 F4320 X59.829 Y51.909
G1 F1800 X43.573 Y35.653 E144.08709
G0 F4320 X44.068 Y35.653
G1 F1800 X60.323 Y51.909 E144.96687
G0 F4320 X60.818 Y51.909
G1 F1800 X44.563 Y35.653 E145.84665
G0 F4320 X45.058 Y35.653
G1 F1800 X61.313 Y51.909 E146.72643
G0 F4320 X61.808 Y51.909
G1 F1800 X45.553 Y35.653 E147.60621
G0 F4320 X46.048 Y35.653
G1 F1800 X62.303 Y51.909 E148.48598
G0 F4320 X62.798 Y51.909
G1 F1800 X46.543 Y35.653 E149.36576
G0 F4320 X47.038 Y35.653
G1 F1800 X63.293 Y51.909 E150.24554
G0 F4320 X63.788 Y51.909
G1 F1800 X47.533 Y35.653 E151.12532
G0 F4320 X48.028 Y35.653
G1 F1800 X64.283 Y51.909 E152.0051
G0 F4320 X64.778 Y51.909
G1 F1800 X48.523 Y35.653 E152.88487
G0 F4320 X49.018 Y35.653
G1 F1800 X65.273 Y51.909 E153.76465
G0 F4320 X65.768 Y51.909
G1 F1800 X49.513 Y35.653 E154.64443
G0 F4320 X50.008 Y35.653
G1 F1800 X66.263 Y51.909 E155.52421
G0 F4320 X66.758 Y51.909
G1 F1800 X50.502 Y35.653 E156.40401
G0 F4320 X50.997 Y35.653
G1 F1800 X67.253 Y51.909 E157.28382
G0 F4320 X67.748 Y51.909
G1 F1800 X51.492 Y35.653 E158.16362
G0 F4320 X51.987 Y35.653
G1 F1800 X68.243 Y51.909 E159.04343
G0 F4320 X68.738 Y51.909
G1 F1800 X52.482 Y35.653 E159.92323
G0 F4320 X52.977 Y35.653
G1 F1800 X69.233 Y51.909 E160.80304
G0 F4320 X69.728 Y51.909
G1 F1800 X53.472 Y35.653 E161.68284
G0 F4320 X53.967 Y35.653
G1 F1800 X70.223 Y51.909 E162.56265
G0 F4320 X70.718 Y51.909
G1 F1800 X54.462 Y35.653 E163.44246
G0 F4320 X54.957 Y35.653
G1 F1800 X71.213 Y51.909 E164.32226
G0 F4320 X71.708 Y51.909
G1 F1800 X55.452 Y35.653 E165.20207
G0 F4320 X55.947 Y35.653
G1 F1800 X72.203 Y51.909 E166.08187
G0 F4320 X72.698 Y51.909
G1 F1800 X56.442 Y35.653 E166.96168
G0 F4320 X56.937 Y35.653
G1 F1800 X73.193 Y51.909 E167.84148
G0 F4320 X73.688 Y51.909
G1 F1800 X57.432 Y35.653 E168.72129
G0 F4320 X57.927 Y35.653
G1 F1800 X74.127 Y51.853 E169.59806
G0 F4320 X74.127 Y51.358
G1 F1800 X58.422 Y35.653 E170.44804
G0 F4320 X58.917 Y35.653
G1 F1800 X74.127 Y50.863 E171.27124
G0 F4320 X74.127 Y50.368
G1 F1800 X59.412 Y35.653 E172.06764
G0 F4320 X59.907 Y35.653
G1 F1800 X74.127 Y49.873 E172.83725
G0 F4320 X74.127 Y49.378
G1 F1800 X60.402 Y35.653 E173.58008
G0 F4320 X60.897 Y35.653
G1 F1800 X74.127 Y48.883 E174.29611
G0 F4320 X74.127 Y48.388
G1 F1800 X61.392 Y35.653 E174.98535
G0 F4320 X61.887 Y35.653
G1 F1800 X74.127 Y47.893 E175.6478
G0 F4320 X74.127 Y47.398
G1 F1800 X62.382 Y35.653 E176.28346
G0 F4320 X62.877 Y35.653
G1 F1800 X74.127 Y46.903 E176.89234
G0 F4320 X74.127 Y46.408
G1 F1800 X63.372 Y35.653 E177.47442
G0 F4320 X63.867 Y35.653
G1 F1800 X74.127 Y45.913 E178.02971
G0 F4320 X74.127 Y45.418
G1 F1800 X64.362 Y35.653 E178.55821
G0 F4320 X64.857 Y35.653
G1 F1800 X74.127 Y44.923 E179.05992
G0 F4320 X74.127 Y44.428
G1 F1800 X65.352 Y35.653 E179.53484
G0 F4320 X65.847 Y35.653
G1 F1800 X74.127 Y43.933 E179.98297
G0 F4320 X74.127 Y43.438
G1 F1800 X66.342 Y35.653 E180.4043
G0 F4320 X66.837 Y35.653
G1 F1800 X74.127 Y42.944 E180.79888
G0 F4320 X74.127 Y42.449
G1 F1800 X67.332 Y35.653 E181.16666
G0 F4320 X67.827 Y35.653
G1 F1800 X74.127 Y41.954 E181.50766
G0 F4320 X74.127 Y41.459
G1 F1800 X68.322 Y35.653 E181.82186
G0 F4320 X68.817 Y35.653
G1 F1800 X74.127 Y40.964 E182.10928
G0 F4320 X74.127 Y40.469
