;FLAVOR:Marlin
;TIME:5689
;Filament used: 3.8711m
;Layer height: 0.175
;MINX:32.2
;MINY:4.532
;MINZ:0.263
;MAXX:87.8
;MAXY:52.432
;MAXZ:13.913
;Generated with Cura_SteamEngine 4.2.1
M140 S65
M105
M190 S65
M104 S205
M105
M109 S205
M82 ;absolute extrusion mode
G21;(metric values)
G90;(absolute positioning)
M82;(set extruder to absolute mode)
M107;(start with the fan off)
G28;(Home the printer)
G92 E0;(Reset the extruder to 0)
G0 Z5 E5 F500;(Move up and prime the nozzle)
G0 X-1 Z0;(Move outside the printable area)
G1 Y60 E8 F500;(Draw a priming/wiping line to the rear)
G1 X-1;(Move a little closer to the print area)
G1 Y10 E16 F500;(draw more priming/wiping)
G1 E15 F250;(Small retract)
G92 E0;(Zero the extruder)
M141 S28
G92 E0
G92 E0
G1 F2400 E-2.5
;LAYER_COUNT:79
;LAYER:0
M107
;MESH:SliderTray-v0-0-2.stl
G0 F4320 X32.875 Y22.457 Z0.263
;TYPE:WALL-INNER
G1 F2400 E0
G1 F1800 X32.875 Y5.207 E0.66016
G1 X75.125 Y5.207 E2.27706
G1 X75.125 Y22.457 E2.93722
G1 X33.569 Y22.457 E4.52756
G0 F1620 X32.875 Y22.457
G0 F4320 X32.525 Y22.807
G1 F2400 E4.55412
G1 F1800 X32.525 Y4.857 E5.24107
G1 X75.475 Y4.857 E6.88476
G1 X75.475 Y22.807 E7.57171
G1 X33.219 Y22.807 E9.18884
G0 F1620 X32.525 Y22.807
G0 F4320 X32.2 Y23.132
;TYPE:WALL-OUTER
G1 F2400 E9.2154
G1 F1800 X32.2 Y4.532 E9.92722
G1 X75.8 Y4.532 E11.59579
G1 X75.8 Y23.132 E12.30761
G1 X32.894 Y23.132 E13.94962
G0 F1620 X32.2 Y23.132
G0 F4320 X32.2 Y22.932
G0 X32.475 Y22.932
G0 X32.96 Y22.117
G0 X33.215 Y22.117
;TYPE:SKIN
G1 F2400 E13.97618
G1 F1800 X33.215 Y5.547 E14.61032
G1 X74.785 Y5.547 E16.2012
G1 X74.785 Y22.117 E16.83533
G1 X33.909 Y22.117 E18.39965
G0 F1620 X33.215 Y22.117
G0 F4320 X33.839 Y21.959
G1 F2400 E18.42621
G1 F1800 X33.371 Y21.491 E18.45154
G0 F4320 X33.371 Y20.996
G1 F1800 X34.334 Y21.959 E18.50366
G0 F4320 X34.829 Y21.959
G1 F1800 X33.371 Y20.501 E18.58257
G0 F4320 X33.371 Y20.006
G1 F1800 X35.324 Y21.959 E18.68827
G0 F4320 X35.819 Y21.959
G1 F1800 X33.371 Y19.511 E18.82076
G0 F4320 X33.371 Y19.016
G1 F1800 X36.314 Y21.959 E18.98004
G0 F4320 X36.809 Y21.959
G1 F1800 X33.371 Y18.521 E19.16611
G0 F4320 X33.371 Y18.026
G1 F1800 X37.304 Y21.959 E19.37897
G0 F4320 X37.799 Y21.959
G1 F1800 X33.371 Y17.532 E19.6186
G0 F4320 X33.371 Y17.037
G1 F1800 X38.294 Y21.959 E19.88501
G0 F4320 X38.789 Y21.959
G1 F1800 X33.371 Y16.542 E20.17822
G0 F4320 X33.371 Y16.047
G1 F1800 X39.284 Y21.959 E20.49821
G0 F4320 X39.778 Y21.959
G1 F1800 X33.371 Y15.552 E20.84497
G0 F4320 X33.371 Y15.057
G1 F1800 X40.273 Y21.959 E21.21852
G0 F4320 X40.768 Y21.959
G1 F1800 X33.371 Y14.562 E21.61886
G0 F4320 X33.371 Y14.067
G1 F1800 X41.263 Y21.959 E22.04599
G0 F4320 X41.758 Y21.959
G1 F1800 X33.371 Y13.572 E22.49991
G0 F4320 X33.371 Y13.077
G1 F1800 X42.253 Y21.959 E22.98062
G0 F4320 X42.748 Y21.959
G1 F1800 X33.371 Y12.582 E23.48812
G0 F4320 X33.371 Y12.087
G1 F1800 X43.243 Y21.959 E24.02241
G0 F4320 X43.738 Y21.959
G1 F1800 X33.371 Y11.592 E24.5835
G0 F4320 X33.371 Y11.097
G1 F1800 X44.233 Y21.959 E25.17137
G0 F4320 X44.728 Y21.959
G1 F1800 X33.371 Y10.602 E25.78603
G0 F4320 X33.371 Y10.107
G1 F1800 X45.223 Y21.959 E26.42748
G0 F4320 X45.718 Y21.959
G1 F1800 X33.371 Y9.612 E27.09572
G0 F4320 X33.371 Y9.117
G1 F1800 X46.213 Y21.959 E27.79076
G0 F4320 X46.708 Y21.959
G1 F1800 X33.371 Y8.622 E28.51258
G0 F4320 X33.371 Y8.127
G1 F1800 X47.203 Y21.959 E29.26119
G0 F4320 X47.698 Y21.959
G1 F1800 X33.371 Y7.632 E30.0366
G0 F4320 X33.371 Y7.137
G1 F1800 X48.193 Y21.959 E30.83879
G0 F4320 X48.688 Y21.959
G1 F1800 X33.371 Y6.642 E31.66778
G0 F4320 X33.371 Y6.147
G1 F1800 X49.183 Y21.959 E32.52355
G0 F4320 X49.678 Y21.959
G1 F1800 X33.422 Y5.704 E33.40333
G0 F4320 X33.917 Y5.704
G1 F1800 X50.173 Y21.959 E34.28311
G0 F4320 X50.668 Y21.959
G1 F1800 X34.412 Y5.704 E35.16289
G0 F4320 X34.907 Y5.704
G1 F1800 X51.163 Y21.959 E36.04267
G0 F4320 X51.658 Y21.959
G1 F1800 X35.402 Y5.704 E36.92244
G0 F4320 X35.897 Y5.704
G1 F1800 X52.153 Y21.959 E37.80222
G0 F4320 X52.648 Y21.959
G1 F1800 X36.392 Y5.704 E38.682
G0 F4320 X36.887 Y5.704
G1 F1800 X53.143 Y21.959 E39.56178
G0 F4320 X53.638 Y21.959
G1 F1800 X37.382 Y5.704 E40.44156
G0 F4320 X37.877 Y5.704
G1 F1800 X54.133 Y21.959 E41.32133
G0 F4320 X54.628 Y21.959
G1 F1800 X38.372 Y5.704 E42.20111
G0 F4320 X38.867 Y5.704
G1 F1800 X55.123 Y21.959 E43.08089
G0 F4320 X55.618 Y21.959
G1 F1800 X39.362 Y5.704 E43.96067
G0 F4320 X39.857 Y5.704
G1 F1800 X56.113 Y21.959 E44.84045
G0 F4320 X56.608 Y21.959
G1 F1800 X40.352 Y5.704 E45.72022
G0 F4320 X40.847 Y5.704
G1 F1800 X57.103 Y21.959 E46.6
G0 F4320 X57.598 Y21.959
G1 F1800 X41.342 Y5.704 E47.47978
G0 F4320 X41.837 Y5.704
G1 F1800 X58.093 Y21.959 E48.35956
G0 F4320 X58.588 Y21.959
G1 F1800 X42.332 Y5.704 E49.23934
G0 F4320 X42.827 Y5.704
G1 F1800 X59.083 Y21.959 E50.11911
G0 F4320 X59.577 Y21.959
G1 F1800 X43.322 Y5.704 E50.99887
G0 F4320 X43.817 Y5.704
G1 F1800 X60.072 Y21.959 E51.87862
G0 F4320 X60.567 Y21.959
G1 F1800 X44.312 Y5.704 E52.75837
G0 F4320 X44.807 Y5.704
G1 F1800 X61.062 Y21.959 E53.63812
G0 F4320 X61.557 Y21.959
G1 F1800 X45.302 Y5.704 E54.51787
G0 F4320 X45.797 Y5.704
G1 F1800 X62.052 Y21.959 E55.39762
G0 F4320 X62.547 Y21.959
G1 F1800 X46.292 Y5.704 E56.27737
G0 F4320 X46.787 Y5.704
G1 F1800 X63.042 Y21.959 E57.15712
G0 F4320 X63.537 Y21.959
G1 F1800 X47.282 Y5.704 E58.03687
G0 F4320 X47.777 Y5.704
G1 F1800 X64.032 Y21.959 E58.91662
G0 F4320 X64.527 Y21.959
G1 F1800 X48.272 Y5.704 E59.79638
G0 F4320 X48.767 Y5.704
G1 F1800 X65.022 Y21.959 E60.67613
G0 F4320 X65.517 Y21.959
G1 F1800 X49.262 Y5.704 E61.55588
G0 F4320 X49.756 Y5.704
G1 F1800 X66.012 Y21.959 E62.43566
G0 F4320 X66.507 Y21.959
G1 F1800 X50.251 Y5.704 E63.31543
G0 F4320 X50.746 Y5.704
G1 F1800 X67.002 Y21.959 E64.19521
G0 F4320 X67.497 Y21.959
G1 F1800 X51.241 Y5.704 E65.07499
G0 F4320 X51.736 Y5.704
G1 F1800 X67.992 Y21.959 E65.95477
G0 F4320 X68.487 Y21.959
G1 F1800 X52.231 Y5.704 E66.83455
G0 F4320 X52.726 Y5.704
G1 F1800 X68.982 Y21.959 E67.71432
G0 F4320 X69.477 Y21.959
G1 F1800 X53.221 Y5.704 E68.5941
G0 F4320 X53.716 Y5.704
G1 F1800 X69.972 Y21.959 E69.47388
G0 F4320 X70.467 Y21.959
G1 F1800 X54.211 Y5.704 E70.35366
G0 F4320 X54.706 Y5.704
G1 F1800 X70.962 Y21.959 E71.23344
G0 F4320 X71.457 Y21.959
G1 F1800 X55.201 Y5.704 E72.11322
G0 F4320 X55.696 Y5.704
G1 F1800 X71.952 Y21.959 E72.99299
G0 F4320 X72.447 Y21.959
G1 F1800 X56.191 Y5.704 E73.87277
G0 F4320 X56.686 Y5.704
G1 F1800 X72.942 Y21.959 E74.75255
G0 F4320 X73.437 Y21.959
G1 F1800 X57.181 Y5.704 E75.63233
G0 F4320 X57.676 Y5.704
G1 F1800 X73.932 Y21.959 E76.51211
G0 F4320 X74.427 Y21.959
G1 F1800 X58.171 Y5.704 E77.39188
G0 F4320 X58.666 Y5.704
G1 F1800 X74.627 Y21.665 E78.25572
G0 F4320 X74.627 Y21.17
G1 F1800 X59.161 Y5.704 E79.09277
G0 F4320 X59.656 Y5.704
G1 F1800 X74.627 Y20.675 E79.90303
G0 F4320 X74.627 Y20.18
G1 F1800 X60.151 Y5.704 E80.6865
G0 F4320 X60.646 Y5.704
G1 F1800 X74.627 Y19.685 E81.44318
G0 F4320 X74.627 Y19.19
G1 F1800 X61.141 Y5.704 E82.17306
G0 F4320 X61.636 Y5.704
G1 F1800 X74.627 Y18.695 E82.87616
G0 F4320 X74.627 Y18.2
G1 F1800 X62.131 Y5.704 E83.55247
G0 F4320 X62.626 Y5.704
G1 F1800 X74.627 Y17.705 E84.20198
G0 F4320 X74.627 Y17.21
G1 F1800 X63.121 Y5.704 E84.82471
G0 F4320 X63.616 Y5.704
G1 F1800 X74.627 Y16.715 E85.42065
G0 F4320 X74.627 Y16.22
G1 F1800 X64.111 Y5.704 E85.98979
G0 F4320 X64.606 Y5.704
G1 F1800 X74.627 Y15.725 E86.53215
G0 F4320 X74.627 Y15.23
G1 F1800 X65.101 Y5.704 E87.04771
G0 F4320 X65.596 Y5.704
G1 F1800 X74.627 Y14.735 E87.53649
G0 F4320 X74.627 Y14.24
G1 F1800 X66.091 Y5.704 E87.99847
G0 F4320 X66.586 Y5.704
G1 F1800 X74.627 Y13.745 E88.43367
G0 F4320 X74.627 Y13.25
G1 F1800 X67.081 Y5.704 E88.84207
G0 F4320 X67.576 Y5.704
G1 F1800 X74.627 Y12.755 E89.22368
G0 F4320 X74.627 Y12.26
G1 F1800 X68.071 Y5.704 E89.57851
G0 F4320 X68.566 Y5.704
G1 F1800 X74.627 Y11.765 E89.90654
G0 F4320 X74.627 Y11.27
G1 F1800 X69.06 Y5.704 E90.20781
G0 F4320 X69.555 Y5.704
G1 F1800 X74.627 Y10.775 E90.48229
G0 F4320 X74.627 Y10.28
G1 F1800 X70.05 Y5.704 E90.72998
G0 F4320 X70.545 Y5.704
G1 F1800 X74.627 Y9.785 E90.95087
G0 F4320 X74.627 Y9.29
G1 F1800 X71.04 Y5.704 E91.14498
G0 F4320 X71.535 Y5.704
G1 F1800 X74.627 Y8.795 E91.3123
G0 F4320 X74.627 Y8.3
G1 F1800 X72.03 Y5.704 E91.45283
G0 F4320 X72.525 Y5.704
G1 F1800 X74.627 Y7.805 E91.56656
G0 F4320 X74.627 Y7.31
G1 F1800 X73.02 Y5.704 E91.65351
G0 F4320 X73.515 Y5.704
G1 F1800 X74.627 Y6.815 E91.71367
G0 F4320 X74.627 Y6.32
G1 F1800 X74.01 Y5.704 E91.74703
G0 F4320 X74.505 Y5.704
G1 F1800 X74.627 Y5.825 E91.75361
G0 F4320 X75.275 Y5.825
G1 F2400 E89.25361
G0 F4320 X74.968 Y22.3
G0 X32.875 Y22.937
G0 X32.875 Y23.997
G0 X32.875 Y32.967
G0 X32.875 Y34.027
G0 X32.875 Y51.757
;TYPE:WALL-INNER
G1 F2400 E91.75361
G1 F1800 X32.875 Y34.507 E92.41377
G1 X75.125 Y34.507 E94.03067
G1 X75.125 Y51.757 E94.69083
G1 X33.569 Y51.757 E96.28117
G0 F1620 X32.875 Y51.757
G0 F4320 X32.525 Y52.107
G1 F2400 E96.30773
G1 F1800 X32.525 Y34.157 E96.99468
G1 X75.475 Y34.157 E98.63837
G1 X75.475 Y52.107 E99.32532
G1 X33.219 Y52.107 E100.94245
G0 F1620 X32.525 Y52.107
G0 F4320 X32.2 Y52.432
;TYPE:WALL-OUTER
G1 F2400 E100.96901
G1 F1800 X32.2 Y33.832 E101.68083
G1 X75.8 Y33.832 E103.3494
G1 X75.8 Y52.432 E104.06122
G1 X32.894 Y52.432 E105.70323
G0 F1620 X32.2 Y52.432
G0 F4320 X32.2 Y52.232
G0 X32.475 Y52.232
G0 X32.96 Y51.417
G0 X33.215 Y51.417
;TYPE:SKIN
G1 F2400 E105.72979
G1 F1800 X33.215 Y34.847 E106.36393
G1 X74.785 Y34.847 E107.95481
G1 X74.785 Y51.417 E108.58894
G1 X33.909 Y51.417 E110.15326
G0 F1620 X33.215 Y51.417
G0 F4320 X33.439 Y51.258
G1 F2400 E110.17982
G1 F1800 X33.371 Y51.19 E110.1835
G0 F4320 X33.371 Y50.696
G1 F1800 X33.934 Y51.258 E110.21395
G0 F4320 X34.429 Y51.258
G1 F1800 X33.371 Y50.201 E110.27118
G0 F4320 X33.371 Y49.706
G1 F1800 X34.924 Y51.258 E110.3552
G0 F4320 X35.419 Y51.258
G1 F1800 X33.371 Y49.211 E110.46602
G0 F4320 X33.371 Y48.716
G1 F1800 X35.914 Y51.258 E110.60362
G0 F4320 X36.409 Y51.258
G1 F1800 X33.371 Y48.221 E110.76802
G0 F4320 X33.371 Y47.726
G1 F1800 X36.904 Y51.258 E110.9592
G0 F4320 X37.399 Y51.258
G1 F1800 X33.371 Y47.231 E111.17718
G0 F4320 X33.371 Y46.736
G1 F1800 X37.894 Y51.258 E111.42195
G0 F4320 X38.389 Y51.258
G1 F1800 X33.371 Y46.241 E111.6935
G0 F4320 X33.371 Y45.746
G1 F1800 X38.884 Y51.258 E111.99185
G0 F4320 X39.379 Y51.258
G1 F1800 X33.371 Y45.251 E112.31699
G0 F4320 X33.371 Y44.756
G1 F1800 X39.874 Y51.258 E112.66891
G0 F4320 X40.369 Y51.258
G1 F1800 X33.371 Y44.261 E113.04763
G0 F4320 X33.371 Y43.766
G1 F1800 X40.864 Y51.258 E113.45314
G0 F4320 X41.359 Y51.258
G1 F1800 X33.371 Y43.271 E113.88544
G0 F4320 X33.371 Y42.776
G1 F1800 X41.854 Y51.258 E114.34453
G0 F4320 X42.349 Y51.258
G1 F1800 X33.371 Y42.281 E114.83041
G0 F4320 X33.371 Y41.786
G1 F1800 X42.844 Y51.258 E115.34308
G0 F4320 X43.339 Y51.258
G1 F1800 X33.371 Y41.291 E115.88254
G0 F4320 X33.371 Y40.796
G1 F1800 X43.834 Y51.258 E116.44879
G0 F4320 X44.329 Y51.258
G1 F1800 X33.371 Y40.301 E117.04183
G0 F4320 X33.371 Y39.806
G1 F1800 X44.824 Y51.258 E117.66166
G0 F4320 X45.319 Y51.258
G1 F1800 X33.371 Y39.311 E118.30828
G0 F4320 X33.371 Y38.816
G1 F1800 X45.814 Y51.258 E118.98169
G0 F4320 X46.309 Y51.258
G1 F1800 X33.371 Y38.321 E119.68189
G0 F4320 X33.371 Y37.826
G1 F1800 X46.804 Y51.258 E120.40888
G0 F4320 X47.299 Y51.258
G1 F1800 X33.371 Y37.331 E121.16267
G0 F4320 X33.371 Y36.836
G1 F1800 X47.794 Y51.258 E121.94324
G0 F4320 X48.289 Y51.258
G1 F1800 X33.371 Y36.341 E122.7506
G0 F4320 X33.371 Y35.846
G1 F1800 X48.784 Y51.258 E123.58475
G0 F4320 X49.278 Y51.258
G1 F1800 X33.371 Y35.351 E124.44567
G0 F4320 X33.518 Y35.003
G1 F1800 X49.773 Y51.258 E125.32542
G0 F4320 X50.268 Y51.258
G1 F1800 X34.013 Y35.003 E126.20517
G0 F4320 X34.508 Y35.003
G1 F1800 X50.763 Y51.258 E127.08492
G0 F4320 X51.258 Y51.258
G1 F1800 X35.003 Y35.003 E127.96467
G0 F4320 X35.498 Y35.003
G1 F1800 X51.753 Y51.258 E128.84443
G0 F4320 X52.248 Y51.258
G1 F1800 X35.993 Y35.003 E129.72418
G0 F4320 X36.488 Y35.003
G1 F1800 X52.743 Y51.258 E130.60393
G0 F4320 X53.238 Y51.258
G1 F1800 X36.983 Y35.003 E131.48368
G0 F4320 X37.478 Y35.003
G1 F1800 X53.733 Y51.258 E132.36343
G0 F4320 X54.229 Y51.259
G1 F1800 X37.973 Y35.003 E133.24324
G0 F4320 X38.468 Y35.003
G1 F1800 X54.724 Y51.259 E134.12304
G0 F4320 X55.219 Y51.259
G1 F1800 X38.963 Y35.003 E135.00285
G0 F4320 X39.458 Y35.003
G1 F1800 X55.714 Y51.259 E135.88265
G0 F4320 X56.209 Y51.259
G1 F1800 X39.953 Y35.003 E136.76246
G0 F4320 X40.448 Y35.003
G1 F1800 X56.704 Y51.259 E137.64226
G0 F4320 X57.199 Y51.259
G1 F1800 X40.943 Y35.003 E138.52207
G0 F4320 X41.438 Y35.003
G1 F1800 X57.694 Y51.259 E139.40187
G0 F4320 X58.189 Y51.259
G1 F1800 X41.933 Y35.003 E140.28168
G0 F4320 X42.428 Y35.003
G1 F1800 X58.684 Y51.259 E141.16148
G0 F4320 X59.179 Y51.259
G1 F1800 X42.923 Y35.003 E142.04129
G0 F4320 X43.418 Y35.003
G1 F1800 X59.674 Y51.259 E142.92109
G0 F4320 X60.169 Y51.259
G1 F1800 X43.913 Y35.003 E143.8009
G0 F4320 X44.408 Y35.003
G1 F1800 X60.664 Y51.259 E144.6807
G0 F4320 X61.159 Y51.259
G1 F1800 X44.903 Y35.003 E145.56051
G0 F4320 X45.398 Y35.003
G1 F1800 X61.654 Y51.259 E146.44031
G0 F4320 X62.149 Y51.259
G1 F1800 X45.893 Y35.003 E147.32012
G0 F4320 X46.388 Y35.003
G1 F1800 X62.644 Y51.259 E148.19992
G0 F4320 X63.138 Y51.259
G1 F1800 X46.883 Y35.003 E149.0797
G0 F4320 X47.378 Y35.003
G1 F1800 X63.633 Y51.259 E149.95948
G0 F4320 X64.128 Y51.259
G1 F1800 X47.873 Y35.003 E150.83926
G0 F4320 X48.368 Y35.003
G1 F1800 X64.623 Y51.259 E151.71904
G0 F4320 X65.118 Y51.259
G1 F1800 X48.863 Y35.003 E152.59881
G0 F4320 X49.358 Y35.003
G1 F1800 X65.613 Y51.259 E153.47859
G0 F4320 X66.108 Y51.259
G1 F1800 X49.853 Y35.003 E154.35837
G0 F4320 X50.348 Y35.003
G1 F1800 X66.603 Y51.259 E155.23815
G0 F4320 X67.098 Y51.259
G1 F1800 X50.843 Y35.003 E156.11793
G0 F4320 X51.338 Y35.003
G1 F1800 X67.593 Y51.259 E156.9977
G0 F4320 X68.088 Y51.259
G1 F1800 X51.833 Y35.003 E157.87748
G0 F4320 X52.328 Y35.003
G1 F1800 X68.583 Y51.259 E158.75726
G0 F4320 X69.078 Y51.259
G1 F1800 X52.822 Y35.003 E159.63707
G0 F4320 X53.317 Y35.003
G1 F1800 X69.573 Y51.259 E160.51687
G0 F4320 X70.068 Y51.259
G1 F1800 X53.812 Y35.003 E161.39668
G0 F4320 X54.307 Y35.003
G1 F1800 X70.563 Y51.259 E162.27648
G0 F4320 X71.058 Y51.259
G1 F1800 X54.802 Y35.003 E163.15629
G0 F4320 X55.297 Y35.003
G1 F1800 X71.553 Y51.259 E164.03609
G0 F4320 X72.048 Y51.259
G1 F1800 X55.792 Y35.003 E164.9159
G0 F4320 X56.287 Y35.003
G1 F1800 X72.543 Y51.259 E165.7957
G0 F4320 X73.038 Y51.259
G1 F1800 X56.782 Y35.003 E166.67551
G0 F4320 X57.277 Y35.003
G1 F1800 X73.533 Y51.259 E167.55531
G0 F4320 X74.028 Y51.259
G1 F1800 X57.772 Y35.003 E168.43512
G0 F4320 X58.267 Y35.003
G1 F1800 X74.523 Y51.259 E169.31492
G0 F4320 X74.627 Y50.868
G1 F1800 X58.762 Y35.003 E170.17357
G0 F4320 X59.257 Y35.003
G1 F1800 X74.627 Y50.373 E171.00542
G0 F4320 X74.627 Y49.878
G1 F1800 X59.752 Y35.003 E171.81048
G0 F4320 X60.247 Y35.003
G1 F1800 X74.627 Y49.383 E172.58875
G0 F4320 X74.627 Y48.888
G1 F1800 X60.742 Y35.003 E173.34024
G0 F4320 X61.237 Y35.003
G1 F1800 X74.627 Y48.393 E174.06493
G0 F4320 X74.627 Y47.898
G1 F1800 X61.732 Y35.003 E174.76283
G0 F4320 X62.227 Y35.003
G1 F1800 X74.627 Y47.403 E175.43394
G0 F4320 X74.627 Y46.908
G1 F1800 X62.722 Y35.003 E176.07826
G0 F4320 X63.217 Y35.003
G1 F1800 X74.627 Y46.413 E176.69579
G0 F4320 X74.627 Y45.918
G1 F1800 X63.712 Y35.003 E177.28653
G0 F4320 X64.207 Y35.003
G1 F1800 X74.627 Y45.423 E177.85048
G0 F4320 X74.627 Y44.928
G1 F1800 X64.702 Y35.003 E178.38764
G0 F4320 X65.197 Y35.003
G1 F1800 X74.627 Y44.433 E178.89801
G0 F4320 X74.627 Y43.938
G1 F1800 X65.692 Y35.003 E179.38159
G0 F4320 X66.187 Y35.003
G1 F1800 X74.627 Y43.443 E179.83838
G0 F4320 X74.627 Y42.948
G1 F1800 X66.682 Y35.003 E180.26838
G0 F4320 X67.177 Y35.003
G1 F1800 X74.627 Y42.453 E180.67159
G0 F4320 X74.627 Y41.959
G1 F1800 X67.672 Y35.003 E181.04803
G0 F4320 X68.167 Y35.003
G1 F1800 X74.627 Y41.464 E181.39768
G0 F4320 X74.627 Y40.969
G1 F1800 X68.662 Y35.003 E181.72055
G0 F4320 X69.157 Y35.003
G1 F1800 X74.627 Y40.474 E182.01662
G0 F4320 X74.627 Y39.979
