;FLAVOR:Marlin
;TIME:859
;Filament used: 0.567218m
;Layer height: 0.175
;Generated with Cura_SteamEngine 4.0.0
M140 S65
M105
M190 S65
M104 S205
M105
M109 S205
M82 ;absolute extrusion mode
G21;(metric values)
G90;(absolute positioning)
M82;(set extruder to absolute mode)
M107;(start with the fan off)
G28;(Home the printer)
G92 E0;(Reset the extruder to 0)
G0 Z5 E5 F500;(Move up and prime the nozzle)
G0 X-1 Z0;(Move outside the printable area)
G1 Y60 E8 F500;(Draw a priming/wiping line to the rear)
G1 X-1;(Move a little closer to the print area)
G1 Y10 E16 F500;(draw more priming/wiping)
G1 E15 F250;(Small retract)
G92 E0;(Zero the extruder)
G92 E0
G1 F2400 E-2.5
;LAYER_COUNT:29
;LAYER:0
M107
;MESH:SliderSection.stl
G0 F4320 X81.125 Y16.951 Z0.263
;TYPE:WALL-INNER
G1 F2400 E0
G1 F1800 X38.875 Y16.951 E1.61691
G1 X38.875 Y8.701 E1.93263
G1 X81.125 Y8.701 E3.54954
G1 X81.125 Y16.257 E3.8387
G0 F1620 X81.125 Y16.951
G0 F4320 X81.475 Y17.301
G1 F2400 E3.86526
G1 F1800 X38.525 Y17.301 E5.50896
G1 X38.525 Y8.351 E5.85147
G1 X81.475 Y8.351 E7.49517
G1 X81.475 Y16.607 E7.81112
G0 F1620 X81.475 Y17.301
G0 F4320 X81.8 Y17.626
;TYPE:WALL-OUTER
G1 F2400 E7.83768
G1 F1800 X38.2 Y17.626 E9.50625
G1 X38.2 Y8.026 E9.87365
G1 X81.8 Y8.026 E11.54221
G1 X81.8 Y16.932 E11.88305
G0 F1620 X81.8 Y17.626
G0 F4320 X81.6 Y17.626
G0 X81.6 Y17.351
G0 X81.04 Y16.611
G0 X80.785 Y16.611
;TYPE:SKIN
G1 F2400 E11.90961
G1 F1800 X39.215 Y16.611 E13.50049
G1 X39.215 Y9.041 E13.79019
G1 X80.785 Y9.041 E15.38107
G1 X80.785 Y15.917 E15.64422
G0 F1620 X80.785 Y16.611
G0 F4320 X81.04 Y16.611
G0 X81.04 Y9.35
G0 X80.627 Y9.35
G1 F2400 E15.67078
G1 F1800 X80.474 Y9.198 E15.67903
G0 F4320 X79.979 Y9.198
G1 F1800 X80.627 Y9.845 E15.71407
G0 F4320 X80.627 Y10.34
G1 F1800 X79.484 Y9.198 E15.77591
G0 F4320 X78.989 Y9.198
G1 F1800 X80.627 Y10.835 E15.86453
G0 F4320 X80.627 Y11.33
G1 F1800 X78.494 Y9.198 E15.97995
G0 F4320 X77.999 Y9.198
G1 F1800 X80.627 Y11.825 E16.12215
G0 F4320 X80.627 Y12.32
G1 F1800 X77.504 Y9.198 E16.29115
G0 F4320 X77.009 Y9.198
G1 F1800 X80.627 Y12.815 E16.48693
G0 F4320 X80.627 Y13.31
G1 F1800 X76.514 Y9.198 E16.70951
G0 F4320 X76.019 Y9.198
G1 F1800 X80.627 Y13.805 E16.95888
G0 F4320 X80.627 Y14.3
G1 F1800 X75.524 Y9.198 E17.23503
G0 F4320 X75.029 Y9.198
G1 F1800 X80.627 Y14.795 E17.53798
G0 F4320 X80.627 Y15.29
G1 F1800 X74.534 Y9.198 E17.86772
G0 F4320 X74.039 Y9.198
G1 F1800 X80.627 Y15.785 E18.22425
G0 F4320 X80.627 Y16.28
G1 F1800 X73.544 Y9.198 E18.60756
G0 F4320 X73.049 Y9.198
G1 F1800 X80.305 Y16.453 E19.00025
G0 F4320 X79.81 Y16.453
G1 F1800 X72.554 Y9.198 E19.39293
G0 F4320 X72.059 Y9.198
G1 F1800 X79.315 Y16.453 E19.78561
G0 F4320 X78.82 Y16.453
G1 F1800 X71.564 Y9.198 E20.17829
G0 F4320 X71.069 Y9.198
G1 F1800 X78.325 Y16.453 E20.57097
G0 F4320 X77.83 Y16.453
G1 F1800 X70.574 Y9.198 E20.96365
G0 F4320 X70.079 Y9.198
G1 F1800 X77.335 Y16.453 E21.35633
G0 F4320 X76.84 Y16.453
G1 F1800 X69.584 Y9.198 E21.74901
G0 F4320 X69.089 Y9.198
G1 F1800 X76.345 Y16.453 E22.1417
G0 F4320 X75.85 Y16.453
G1 F1800 X68.595 Y9.198 E22.53435
G0 F4320 X68.1 Y9.198
G1 F1800 X75.355 Y16.453 E22.927
G0 F4320 X74.86 Y16.453
G1 F1800 X67.605 Y9.198 E23.31966
G0 F4320 X67.11 Y9.198
G1 F1800 X74.365 Y16.453 E23.71231
G0 F4320 X73.87 Y16.453
G1 F1800 X66.615 Y9.198 E24.10497
G0 F4320 X66.12 Y9.198
G1 F1800 X73.375 Y16.453 E24.49762
G0 F4320 X72.88 Y16.453
G1 F1800 X65.625 Y9.198 E24.89027
G0 F4320 X65.13 Y9.198
G1 F1800 X72.385 Y16.453 E25.28293
G0 F4320 X71.89 Y16.453
G1 F1800 X64.635 Y9.198 E25.67558
G0 F4320 X64.14 Y9.198
G1 F1800 X71.395 Y16.453 E26.06824
G0 F4320 X70.9 Y16.453
G1 F1800 X63.645 Y9.198 E26.46089
G0 F4320 X63.15 Y9.198
G1 F1800 X70.405 Y16.453 E26.85355
G0 F4320 X69.91 Y16.453
G1 F1800 X62.655 Y9.198 E27.2462
G0 F4320 X62.16 Y9.198
G1 F1800 X69.415 Y16.453 E27.63885
G0 F4320 X68.92 Y16.453
G1 F1800 X61.665 Y9.198 E28.03151
G0 F4320 X61.17 Y9.198
G1 F1800 X68.426 Y16.453 E28.42419
G0 F4320 X67.931 Y16.453
G1 F1800 X60.675 Y9.198 E28.81687
G0 F4320 X60.18 Y9.198
G1 F1800 X67.436 Y16.453 E29.20955
G0 F4320 X66.941 Y16.453
G1 F1800 X59.685 Y9.198 E29.60223
G0 F4320 X59.19 Y9.198
G1 F1800 X66.446 Y16.453 E29.99491
G0 F4320 X65.951 Y16.453
G1 F1800 X58.695 Y9.198 E30.3876
G0 F4320 X58.2 Y9.198
G1 F1800 X65.456 Y16.453 E30.78028
G0 F4320 X64.961 Y16.453
G1 F1800 X57.705 Y9.198 E31.17296
G0 F4320 X57.21 Y9.198
G1 F1800 X64.466 Y16.453 E31.56564
G0 F4320 X63.971 Y16.453
G1 F1800 X56.715 Y9.198 E31.95832
G0 F4320 X56.22 Y9.198
G1 F1800 X63.476 Y16.453 E32.351
G0 F4320 X62.981 Y16.453
G1 F1800 X55.725 Y9.198 E32.74368
G0 F4320 X55.23 Y9.198
G1 F1800 X62.486 Y16.453 E33.13636
G0 F4320 X61.991 Y16.453
G1 F1800 X54.735 Y9.198 E33.52905
G0 F4320 X54.24 Y9.198
G1 F1800 X61.496 Y16.453 E33.92173
G0 F4320 X61.001 Y16.453
G1 F1800 X53.745 Y9.198 E34.31441
G0 F4320 X53.25 Y9.198
G1 F1800 X60.506 Y16.453 E34.70709
G0 F4320 X60.011 Y16.453
G1 F1800 X52.755 Y9.198 E35.09977
G0 F4320 X52.26 Y9.198
G1 F1800 X59.516 Y16.453 E35.49245
G0 F4320 X59.021 Y16.453
G1 F1800 X51.765 Y9.198 E35.88513
G0 F4320 X51.27 Y9.198
G1 F1800 X58.526 Y16.453 E36.27781
G0 F4320 X58.031 Y16.453
G1 F1800 X50.775 Y9.198 E36.6705
G0 F4320 X50.28 Y9.198
G1 F1800 X57.536 Y16.453 E37.06318
G0 F4320 X57.041 Y16.453
G1 F1800 X49.785 Y9.198 E37.45586
G0 F4320 X49.29 Y9.198
G1 F1800 X56.546 Y16.453 E37.84854
G0 F4320 X56.051 Y16.453
G1 F1800 X48.796 Y9.198 E38.24119
G0 F4320 X48.301 Y9.198
G1 F1800 X55.556 Y16.453 E38.63385
G0 F4320 X55.061 Y16.453
G1 F1800 X47.806 Y9.198 E39.0265
G0 F4320 X47.311 Y9.198
G1 F1800 X54.566 Y16.453 E39.41916
G0 F4320 X54.071 Y16.453
G1 F1800 X46.816 Y9.198 E39.81181
G0 F4320 X46.321 Y9.198
G1 F1800 X53.576 Y16.453 E40.20446
G0 F4320 X53.081 Y16.453
G1 F1800 X45.826 Y9.198 E40.59712
G0 F4320 X45.331 Y9.198
G1 F1800 X52.586 Y16.453 E40.98977
G0 F4320 X52.091 Y16.453
G1 F1800 X44.836 Y9.198 E41.38243
G0 F4320 X44.341 Y9.198
G1 F1800 X51.596 Y16.453 E41.77508
G0 F4320 X51.101 Y16.453
G1 F1800 X43.846 Y9.198 E42.16774
G0 F4320 X43.351 Y9.198
G1 F1800 X50.606 Y16.453 E42.56039
G0 F4320 X50.111 Y16.453
G1 F1800 X42.856 Y9.198 E42.95304
G0 F4320 X42.361 Y9.198
G1 F1800 X49.616 Y16.453 E43.3457
G0 F4320 X49.122 Y16.453
G1 F1800 X41.866 Y9.198 E43.73838
G0 F4320 X41.371 Y9.198
G1 F1800 X48.627 Y16.453 E44.13106
G0 F4320 X48.132 Y16.453
G1 F1800 X40.876 Y9.198 E44.52374
G0 F4320 X40.381 Y9.198
G1 F1800 X47.637 Y16.453 E44.91642
G0 F4320 X47.142 Y16.453
G1 F1800 X39.886 Y9.198 E45.3091
G0 F4320 X39.391 Y9.198
G1 F1800 X46.647 Y16.453 E45.70179
G0 F4320 X46.152 Y16.453
G1 F1800 X39.37 Y9.672 E46.06881
G0 F4320 X39.37 Y10.167
G1 F1800 X45.657 Y16.453 E46.40905
G0 F4320 X45.162 Y16.453
G1 F1800 X39.37 Y10.662 E46.7225
G0 F4320 X39.37 Y11.157
G1 F1800 X44.667 Y16.453 E47.00915
G0 F4320 X44.172 Y16.453
G1 F1800 X39.37 Y11.652 E47.26902
G0 F4320 X39.37 Y12.147
M104 S200
G1 F1800 X43.677 Y16.453 E47.5021
G0 F4320 X43.182 Y16.453
G1 F1800 X39.37 Y12.642 E47.70838
G0 F4320 X39.37 Y13.137
G1 F1800 X42.687 Y16.453 E47.88788
G0 F4320 X42.192 Y16.453
G1 F1800 X39.37 Y13.632 E48.04058
G0 F4320 X39.37 Y14.127
G1 F1800 X41.697 Y16.453 E48.1665
G0 F4320 X41.202 Y16.453
G1 F1800 X39.37 Y14.622 E48.26562
G0 F4320 X39.37 Y15.117
G1 F1800 X40.707 Y16.453 E48.33795
G0 F4320 X40.212 Y16.453
G1 F1800 X39.37 Y15.612 E48.3835
G0 F4320 X39.37 Y16.107
G1 F1800 X39.717 Y16.453 E48.40225
G0 F4320 X39.717 Y17.101
;MESH:NONMESH
G0 X81.125 Y16.951
;TIME_ELAPSED:73.987791
;LAYER:1
M140 S60
M106 S255
;MESH:SliderSection.stl
G0 F5760 X81.125 Y16.951 Z0.438
;TYPE:WALL-INNER
G1 F2400 X38.875 Y16.951 E49.47814
G1 X38.875 Y8.701 E49.68822
G1 X81.125 Y8.701 E50.76411
G1 X81.125 Y15.909 E50.94766
G0 F2160 X81.125 Y16.951
G0 F5760 X81.475 Y17.301
G1 F2400 E50.97419
G1 X38.525 Y17.301 E52.06791
G1 X38.525 Y8.351 E52.29582
G1 X81.475 Y8.351 E53.38953
G1 X81.475 Y16.259 E53.59091
G0 F2160 X81.475 Y17.301
G0 F5760 X81.8 Y17.626
;TYPE:WALL-OUTER
G1 F2400 E53.61744
G1 F2025 X38.2 Y17.626 E54.7277
G1 X38.2 Y8.026 E54.97217
G1 X81.8 Y8.026 E56.08243
G1 X81.8 Y16.584 E56.30036
G0 F1822.5 X81.8 Y17.626
G0 F5760 X81.6 Y17.626
G0 X81.6 Y17.351
G0 X81.04 Y16.611
G0 X80.785 Y16.611
;TYPE:SKIN
G1 F2400 E56.32689
G1 F1500 X39.215 Y16.611 E57.38546
G1 X39.215 Y9.041 E57.57823
G1 X80.785 Y9.041 E58.6368
G1 X80.785 Y15.569 E58.80304
G0 F1350 X80.785 Y16.611
G0 F5760 X80.627 Y16.387
G1 F2400 E58.82957
G1 F1500 X80.56 Y16.454 E58.83199
G0 F5760 X80.065 Y16.454
G1 F1500 X80.627 Y15.892 E58.85223
G0 F5760 X80.627 Y15.397
G1 F1500 X79.57 Y16.454 E58.89029
G0 F5760 X79.075 Y16.454
G1 F1500 X80.627 Y14.902 E58.94618
G0 F5760 X80.627 Y14.408
G1 F1500 X78.58 Y16.454 E59.01988
G0 F5760 X78.085 Y16.454
G1 F1500 X80.627 Y13.913 E59.11141
G0 F5760 X80.627 Y13.418
G1 F1500 X77.59 Y16.454 E59.22076
G0 F5760 X77.095 Y16.454
G1 F1500 X80.627 Y12.923 E59.34794
G0 F5760 X80.627 Y12.428
G1 F1500 X76.6 Y16.454 E59.49294
G0 F5760 X76.105 Y16.454
G1 F1500 X80.627 Y11.933 E59.65578
G0 F5760 X80.627 Y11.438
G1 F1500 X75.61 Y16.454 E59.83643
G0 F5760 X75.115 Y16.454
G1 F1500 X80.627 Y10.943 E60.03492
G0 F5760 X80.627 Y10.448
G1 F1500 X74.62 Y16.454 E60.25123
G0 F5760 X74.126 Y16.454
G1 F1500 X80.627 Y9.953 E60.48534
G0 F5760 X80.627 Y9.458
G1 F1500 X73.631 Y16.454 E60.73729
G0 F5760 X73.136 Y16.454
G1 F1500 X80.392 Y9.198 E60.9986
G0 F5760 X79.897 Y9.198
G1 F1500 X72.641 Y16.454 E61.2599
G0 F5760 X72.146 Y16.454
G1 F1500 X79.402 Y9.198 E61.52121
G0 F5760 X78.907 Y9.198
G1 F1500 X71.651 Y16.454 E61.78252
G0 F5760 X71.156 Y16.454
G1 F1500 X78.412 Y9.198 E62.04383
G0 F5760 X77.917 Y9.198
G1 F1500 X70.661 Y16.454 E62.30514
G0 F5760 X70.166 Y16.454
G1 F1500 X77.422 Y9.198 E62.56644
G0 F5760 X76.927 Y9.198
G1 F1500 X69.671 Y16.454 E62.82775
G0 F5760 X69.176 Y16.454
G1 F1500 X76.432 Y9.198 E63.08906
G0 F5760 X75.937 Y9.198
G1 F1500 X68.681 Y16.454 E63.35037
G0 F5760 X68.186 Y16.454
G1 F1500 X75.442 Y9.198 E63.61168
G0 F5760 X74.947 Y9.198
G1 F1500 X67.691 Y16.454 E63.87298
G0 F5760 X67.196 Y16.454
G1 F1500 X74.452 Y9.198 E64.13429
G0 F5760 X73.957 Y9.198
G1 F1500 X66.701 Y16.454 E64.3956
G0 F5760 X66.206 Y16.454
G1 F1500 X73.462 Y9.198 E64.65691
G0 F5760 X72.967 Y9.198
G1 F1500 X65.711 Y16.454 E64.91821
G0 F5760 X65.216 Y16.454
G1 F1500 X72.472 Y9.198 E65.17952
G0 F5760 X71.977 Y9.198
G1 F1500 X64.721 Y16.454 E65.44083
G0 F5760 X64.226 Y16.454
G1 F1500 X71.482 Y9.198 E65.70214
G0 F5760 X70.987 Y9.198
G1 F1500 X63.731 Y16.454 E65.96345
G0 F5760 X63.236 Y16.454
G1 F1500 X70.492 Y9.198 E66.22475
G0 F5760 X69.997 Y9.198
G1 F1500 X62.741 Y16.454 E66.48606
G0 F5760 X62.246 Y16.454
G1 F1500 X69.502 Y9.198 E66.74737
G0 F5760 X69.007 Y9.198
G1 F1500 X61.751 Y16.454 E67.00868
G0 F5760 X61.256 Y16.454
G1 F1500 X68.512 Y9.198 E67.26998
G0 F5760 X68.018 Y9.198
G1 F1500 X60.761 Y16.454 E67.53131
G0 F5760 X60.266 Y16.454
G1 F1500 X67.523 Y9.198 E67.79264
G0 F5760 X67.028 Y9.198
G1 F1500 X59.771 Y16.454 E68.05396
G0 F5760 X59.276 Y16.454
G1 F1500 X66.533 Y9.198 E68.31529
G0 F5760 X66.038 Y9.198
G1 F1500 X58.781 Y16.454 E68.57661
G0 F5760 X58.286 Y16.454
G1 F1500 X65.543 Y9.198 E68.83794
G0 F5760 X65.048 Y9.198
G1 F1500 X57.791 Y16.454 E69.09927
G0 F5760 X57.296 Y16.454
G1 F1500 X64.553 Y9.198 E69.36059
G0 F5760 X64.058 Y9.198
G1 F1500 X56.801 Y16.454 E69.62192
G0 F5760 X56.306 Y16.454
G1 F1500 X63.563 Y9.198 E69.88324
G0 F5760 X63.068 Y9.198
G1 F1500 X55.811 Y16.454 E70.14457
G0 F5760 X55.316 Y16.454
G1 F1500 X62.573 Y9.198 E70.40589
G0 F5760 X62.078 Y9.198
G1 F1500 X54.821 Y16.454 E70.66722
G0 F5760 X54.327 Y16.454
G1 F1500 X61.583 Y9.198 E70.92853
G0 F5760 X61.088 Y9.198
G1 F1500 X53.832 Y16.454 E71.18984
G0 F5760 X53.337 Y16.454
G1 F1500 X60.593 Y9.198 E71.45114
G0 F5760 X60.098 Y9.198
G1 F1500 X52.842 Y16.454 E71.71245
G0 F5760 X52.347 Y16.454
G1 F1500 X59.603 Y9.198 E71.97376
G0 F5760 X59.108 Y9.198
G1 F1500 X51.852 Y16.454 E72.23507
G0 F5760 X51.357 Y16.454
G1 F1500 X58.613 Y9.198 E72.49637
G0 F5760 X58.118 Y9.198
G1 F1500 X50.862 Y16.454 E72.75768
G0 F5760 X50.367 Y16.454
G1 F1500 X57.623 Y9.198 E73.01899
G0 F5760 X57.128 Y9.198
G1 F1500 X49.872 Y16.454 E73.2803
G0 F5760 X49.377 Y16.454
G1 F1500 X56.633 Y9.198 E73.54161
G0 F5760 X56.138 Y9.198
G1 F1500 X48.882 Y16.454 E73.80291
G0 F5760 X48.387 Y16.454
G1 F1500 X55.643 Y9.198 E74.06422
G0 F5760 X55.148 Y9.198
G1 F1500 X47.892 Y16.454 E74.32553
G0 F5760 X47.397 Y16.454
G1 F1500 X54.653 Y9.198 E74.58684
G0 F5760 X54.158 Y9.198
G1 F1500 X46.902 Y16.454 E74.84815
G0 F5760 X46.407 Y16.454
G1 F1500 X53.663 Y9.198 E75.10945
G0 F5760 X53.168 Y9.198
G1 F1500 X45.912 Y16.454 E75.37076
G0 F5760 X45.417 Y16.454
G1 F1500 X52.673 Y9.198 E75.63207
G0 F5760 X52.178 Y9.198
G1 F1500 X44.922 Y16.454 E75.89338
G0 F5760 X44.427 Y16.454
G1 F1500 X51.683 Y9.198 E76.15468
G0 F5760 X51.188 Y9.198
G1 F1500 X43.932 Y16.454 E76.41599
G0 F5760 X43.437 Y16.454
G1 F1500 X50.693 Y9.198 E76.6773
G0 F5760 X50.198 Y9.198
G1 F1500 X42.942 Y16.454 E76.93861
G0 F5760 X42.447 Y16.454
G1 F1500 X49.703 Y9.198 E77.19992
G0 F5760 X49.208 Y9.198
G1 F1500 X41.952 Y16.454 E77.46122
G0 F5760 X41.457 Y16.454
G1 F1500 X48.714 Y9.198 E77.72255
G0 F5760 X48.219 Y9.198
G1 F1500 X40.962 Y16.454 E77.98387
G0 F5760 X40.467 Y16.454
G1 F1500 X47.724 Y9.198 E78.2452
G0 F5760 X47.229 Y9.198
G1 F1500 X39.972 Y16.454 E78.50653
G0 F5760 X39.477 Y16.454
G1 F1500 X46.734 Y9.198 E78.76785
G0 F5760 X46.239 Y9.198
G1 F1500 X39.371 Y16.065 E79.01517
G0 F5760 X39.371 Y15.57
G1 F1500 X45.744 Y9.198 E79.24466
G0 F5760 X45.249 Y9.198
G1 F1500 X39.371 Y15.075 E79.45632
G0 F5760 X39.371 Y14.58
G1 F1500 X44.754 Y9.198 E79.65016
G0 F5760 X44.259 Y9.198
G1 F1500 X39.371 Y14.085 E79.82617
G0 F5760 X39.371 Y13.59
G1 F1500 X43.764 Y9.198 E79.98436
G0 F5760 X43.269 Y9.198
G1 F1500 X39.371 Y13.095 E80.12472
G0 F5760 X39.371 Y12.6
G1 F1500 X42.774 Y9.198 E80.24725
G0 F5760 X42.279 Y9.198
G1 F1500 X39.371 Y12.105 E80.35196
G0 F5760 X39.371 Y11.61
G1 F1500 X41.784 Y9.198 E80.43884
G0 F5760 X41.289 Y9.198
G1 F1500 X39.371 Y11.115 E80.50789
G0 F5760 X39.371 Y10.62
G1 F1500 X40.794 Y9.198 E80.55912
G0 F5760 X40.299 Y9.198
G1 F1500 X39.371 Y10.125 E80.59252
G0 F5760 X39.371 Y9.63
G1 F1500 X39.804 Y9.198 E80.6081
G0 F5760 X39.804 Y8.551
;MESH:NONMESH
G0 X80.968 Y8.858
G0 X81.125 Y16.951
;TIME_ELAPSED:125.703668
;LAYER:2
;MESH:SliderSection.stl
G0 F7200 X81.125 Y16.951 Z0.613
;TYPE:WALL-INNER
G1 F3000 X38.875 Y16.951 E81.68399
G1 X38.875 Y8.701 E81.89407
G1 X81.125 Y8.701 E82.96996
G1 X81.125 Y15.909 E83.15351
G0 F2700 X81.125 Y16.951
G0 F7200 X81.475 Y17.301
G1 F2400 E83.18004
G1 F3000 X38.525 Y17.301 E84.27376
G1 X38.525 Y8.351 E84.50167
G1 X81.475 Y8.351 E85.59538
G1 X81.475 Y16.259 E85.79675
G0 F2700 X81.475 Y17.301
G0 F7200 X81.8 Y17.626
;TYPE:WALL-OUTER
G1 F2400 E85.82329
G1 F2250 X38.2 Y17.626 E86.93355
G1 X38.2 Y8.026 E87.17801
G1 X81.8 Y8.026 E88.28828
G1 X81.8 Y16.584 E88.50621
G0 F2025 X81.8 Y17.626
G0 F7200 X81.6 Y17.626
G0 X81.6 Y17.351
G0 X81.04 Y16.611
G0 X80.785 Y16.611
;TYPE:SKIN
G1 F2400 E88.53274
G1 F1200 X39.215 Y16.611 E89.59131
G1 X39.215 Y9.041 E89.78408
G1 X80.785 Y9.041 E90.84265
G1 X80.785 Y15.569 E91.00889
G0 F1080 X80.785 Y16.611
G0 F7200 X81.04 Y16.611
G0 X81.04 Y9.35
G0 X80.627 Y9.35
G1 F2400 E91.03542
G1 F1200 X80.474 Y9.198 E91.04091
G0 F7200 X79.979 Y9.198
G1 F1200 X80.627 Y9.845 E91.06423
G0 F7200 X80.627 Y10.34
G1 F1200 X79.484 Y9.198 E91.10538
G0 F7200 X78.989 Y9.198
G1 F1200 X80.627 Y10.835 E91.16435
G0 F7200 X80.627 Y11.33
G1 F1200 X78.494 Y9.198 E91.24114
G0 F7200 X77.999 Y9.198
G1 F1200 X80.627 Y11.825 E91.33577
G0 F7200 X80.627 Y12.32
G1 F1200 X77.504 Y9.198 E91.44822
G0 F7200 X77.009 Y9.198
G1 F1200 X80.627 Y12.815 E91.57849
G0 F7200 X80.627 Y13.31
G1 F1200 X76.514 Y9.198 E91.72659
G0 F7200 X76.019 Y9.198
G1 F1200 X80.627 Y13.805 E91.89252
G0 F7200 X80.627 Y14.3
G1 F1200 X75.524 Y9.198 E92.07628
G0 F7200 X75.029 Y9.198
G1 F1200 X80.627 Y14.795 E92.27786
G0 F7200 X80.627 Y15.29
G1 F1200 X74.534 Y9.198 E92.49727
G0 F7200 X74.039 Y9.198
G1 F1200 X80.627 Y15.785 E92.7345
G0 F7200 X80.627 Y16.28
G1 F1200 X73.544 Y9.198 E92.98956
G0 F7200 X73.049 Y9.198
