;FLAVOR:Marlin
;TIME:1104
;Filament used: 0.595248m
;Layer height: 0.175
;MINX:20.82
;MINY:2.65
;MINZ:0.263
;MAXX:101.298
;MAXY:21.98
;MAXZ:2.888
;Generated with Cura_SteamEngine 4.2.1
M140 S65
M105
M190 S65
M104 S205
M105
M109 S205
M82 ;absolute extrusion mode
G21;(metric values)
G90;(absolute positioning)
M82;(set extruder to absolute mode)
M107;(start with the fan off)
G28;(Home the printer)
G92 E0;(Reset the extruder to 0)
G0 Z5 E5 F500;(Move up and prime the nozzle)
G0 X-1 Z0;(Move outside the printable area)
G1 Y60 E8 F500;(Draw a priming/wiping line to the rear)
G1 X-1;(Move a little closer to the print area)
G1 Y10 E16 F500;(draw more priming/wiping)
G1 E15 F250;(Small retract)
G92 E0;(Zero the extruder)
M141 S28
G92 E0
G92 E0
G1 F2400 E-2.5
;LAYER_COUNT:16
;LAYER:0
M107
;MESH:SlideMotorArm.stl
G0 F4320 X21.586 Y7.097 Z0.263
;TYPE:WALL-INNER
G1 F2400 E0
G1 F1800 X21.495 Y7.229 E0.00614
G1 X21.495 Y7.035 E0.00811
G1 X21.629 Y7.035 E0.01017
G1 X21.586 Y7.097
G0 F4320 X21.519 Y8.362
G0 X21.586 Y10.223
G1 F1800 X21.629 Y10.285 E0.01306
G1 X21.495 Y10.285 E0.01517
G1 X21.495 Y10.092 E0.01969
G1 X21.586 Y10.223 E0.02036
G0 F4320 X23.366 Y10.761
G0 X24.37 Y10.639
G0 X26.127 Y9.277
G1 F1800 X26.2 Y8.66 E0.04413
G1 X26.127 Y8.043 E0.06791
G1 X25.905 Y7.46 E0.09179
G1 X25.801 Y7.308 E0.09883
G1 X25.613 Y7.035 E0.11152
G1 X25.944 Y7.035 E0.11858
G1 X25.945 Y7.035 E0.11862
G1 X45.296 Y7.035 E0.85918
G1 X45.297 Y7.035 E0.85922
G1 X45.629 Y7.035 E0.87192
G1 X45.44 Y7.309 E0.87902
G1 X45.335 Y7.46 E0.88606
G1 X45.114 Y8.041 E0.90985
G1 X45.038 Y8.66 E0.93372
G1 X45.114 Y9.279 E0.95758
G1 X45.335 Y9.86 E0.98137
G1 X45.44 Y10.011 E0.98841
G1 X45.629 Y10.285 E1.00115
G1 X45.297 Y10.285 E1.00823
G1 X45.296 Y10.285 E1.00827
G1 X25.945 Y10.285 E1.74883
G1 X25.944 Y10.285 E1.74887
G1 X25.613 Y10.285 E1.76154
G1 X25.801 Y10.012 E1.76861
G1 X25.905 Y9.86 E1.77566
G1 X26.111 Y9.32 E1.79777
G0 F1620 X26.127 Y9.277
G0 F4320 X25.93 Y7.202
G0 X47.874 Y6.558
G0 X49.656 Y7.097
G1 F2400 E1.79953
G1 F1800 X49.613 Y7.035 E1.80242
G1 X49.745 Y7.035 E1.80448
G1 X49.745 Y7.227 E1.80894
G1 X49.656 Y7.097 E1.80955
G0 F4320 X49.745 Y10.285
G1 F1800 X49.613 Y10.285 E1.8146
G1 X49.655 Y10.223
G1 X49.745 Y10.093 E1.8176
G1 X49.745 Y10.285 E1.81955
G0 F4320 X48.886 Y10.495
G1 F1800 X49.092 Y10.312 E1.83009
G1 X49.289 Y10.138 E1.84015
G1 X49.593 Y9.696 E1.86068
G1 X49.747 Y9.293 E1.87719
G1 X49.785 Y9.193 E1.88129
G1 X49.848 Y8.66 E1.90183
G1 X49.785 Y8.127 E1.92237
G1 X49.747 Y8.027 E1.92646
G1 X49.593 Y7.624 E1.94297
G1 X49.289 Y7.181 E1.96353
G1 X49.093 Y7.008 E1.97354
G1 X48.886 Y6.825 E1.98411
G1 X48.619 Y6.685 E1.99565
G1 X48.886 Y6.685 E1.99742
G1 X49.163 Y6.685 E2.00505
G1 X50.095 Y6.685 E2.04072
G1 X50.095 Y8.019 E2.09177
G1 X50.095 Y8.127 E2.09567
G1 X50.095 Y8.66 E2.1119
G1 X50.095 Y9.193 E2.12813
G1 X50.095 Y9.301 E2.13203
G1 X50.095 Y10.635 E2.18308
G1 X49.162 Y10.635 E2.21879
G1 X48.886 Y10.635 E2.22639
G1 X48.617 Y10.635 E2.23669
G1 X48.886 Y10.495 E2.23979
G0 F4320 X47.874 Y10.761
G0 X46.353 Y10.495
G1 F1800 X46.622 Y10.635 E2.2514
G1 X46.353 Y10.635 E2.25319
G1 X46.078 Y10.635 E2.26372
G1 X25.162 Y10.635 E3.06417
G1 X24.886 Y10.635 E3.07473
G1 X24.617 Y10.635 E3.08503
G1 X24.886 Y10.495 E3.08813
G1 X25.092 Y10.312 E3.09571
G1 X25.289 Y10.138 E3.10577
G1 X25.593 Y9.696 E3.1263
G1 X25.785 Y9.193 E3.14691
G1 X25.848 Y8.66 E3.16745
G1 X25.785 Y8.127 E3.18799
G1 X25.593 Y7.624 E3.20859
G1 X25.289 Y7.181 E3.22915
G1 X25.093 Y7.008 E3.23916
G1 X24.886 Y6.825 E3.24973
G1 X24.619 Y6.685 E3.26127
G1 X24.886 Y6.685 E3.26304
G1 X25.163 Y6.685 E3.27067
G1 X46.08 Y6.685 E4.07116
G1 X46.372 Y6.685 E4.08234
G1 X46.621 Y6.685 E4.09187
G1 X46.372 Y6.816 E4.09463
G1 X46.152 Y7.007 E4.10251
G1 X45.954 Y7.18 E4.11257
G1 X45.647 Y7.624 E4.13323
G1 X45.456 Y8.126 E4.15378
G1 X45.391 Y8.66 E4.17437
G1 X45.456 Y9.194 E4.19496
G1 X45.647 Y9.696 E4.21551
G1 X45.952 Y10.138 E4.23606
G1 X46.148 Y10.312 E4.24609
G1 X46.353 Y10.495 E4.25366
G0 F4320 X23.366 Y10.761
G0 X22.353 Y10.495
G1 F1800 X22.622 Y10.635 E4.26526
G1 X22.353 Y10.635 E4.26706
G1 X22.078 Y10.635 E4.27759
G1 X21.145 Y10.635 E4.31329
G1 X21.145 Y9.3 E4.36438
G1 X21.145 Y9.194 E4.36844
G1 X21.145 Y8.66 E4.38887
G1 X21.145 Y8.126 E4.40931
G1 X21.145 Y8.02 E4.41337
G1 X21.145 Y6.685 E4.46446
G1 X22.08 Y6.685 E4.50024
G1 X22.372 Y6.685 E4.51141
G1 X22.621 Y6.685 E4.52094
G1 X22.372 Y6.816 E4.52371
G1 X22.152 Y7.007 E4.53158
G1 X21.954 Y7.18 E4.54165
G1 X21.647 Y7.624 E4.5623
G1 X21.493 Y8.027 E4.57882
G1 X21.456 Y8.126 E4.58264
G1 X21.391 Y8.66 E4.59904
G1 X21.456 Y9.194 E4.61544
G1 X21.493 Y9.293 E4.61926
G1 X21.647 Y9.696 E4.63577
G1 X21.952 Y10.138 E4.65632
G1 X22.148 Y10.312 E4.66635
G1 X22.353 Y10.495 E4.67392
G0 F4320 X21.065 Y10.715
G0 X20.82 Y10.96
;TYPE:WALL-OUTER
G1 F1800 X20.82 Y6.36 E4.84996
G1 X50.42 Y6.36 E5.98275
G1 X50.42 Y10.96 E6.15879
G1 X21.514 Y10.96 E7.26502
G0 F1620 X20.82 Y10.96
G0 F4320 X20.82 Y10.76
G0 X21.095 Y10.76
G0 X21.565 Y8.154
G0 X21.973 Y7.242
G0 X22.198 Y7.398
G1 F2400 E7.29158
G1 F1800 X21.937 Y7.776 E7.30916
G1 X21.774 Y8.205 E7.32672
G1 X21.718 Y8.66 E7.34427
G1 X21.774 Y9.115 E7.36181
G1 X21.937 Y9.544 E7.37937
G1 X22.197 Y9.921 E7.3969
G1 X22.539 Y10.225 E7.41441
G1 X22.946 Y10.437 E7.43197
G1 X23.391 Y10.547 E7.44952
G1 X23.849 Y10.547 E7.46704
G1 X24.294 Y10.437 E7.48459
G1 X24.7 Y10.225 E7.50211
G1 X25.044 Y9.921 E7.51968
G1 X25.303 Y9.544 E7.53719
G1 X25.467 Y9.115 E7.55476
G1 X25.521 Y8.66 E7.5723
G1 X25.467 Y8.205 E7.58983
G1 X25.303 Y7.776 E7.60741
G1 X25.044 Y7.398 E7.62495
G1 X24.7 Y7.095 E7.64249
G1 X24.295 Y6.882 E7.66
G1 X23.849 Y6.772 E7.67758
G1 X23.391 Y6.772 E7.69511
G1 X22.945 Y6.882 E7.71269
G1 X22.751 Y6.984 E7.72108
G0 F1620 X22.557 Y7.086
G0 X22.198 Y7.398
G0 F4320 X22.085 Y7.562
G0 X21.86 Y7.405
G0 X22.436 Y6.908
G0 X23.366 Y6.558
G0 X41.141 Y7.079
G0 X45.973 Y7.242
G0 X46.198 Y7.398
G1 F2400 E7.74764
G1 F1800 X45.937 Y7.776 E7.76522
G1 X45.774 Y8.205 E7.78278
G1 X45.718 Y8.66 E7.80032
G1 X45.774 Y9.115 E7.81787
G1 X45.937 Y9.544 E7.83543
G1 X46.197 Y9.921 E7.85296
G1 X46.539 Y10.225 E7.87047
G1 X46.946 Y10.437 E7.88803
G1 X47.391 Y10.547 E7.90557
G1 X47.849 Y10.547 E7.9231
G1 X48.294 Y10.437 E7.94064
G1 X48.7 Y10.225 E7.95817
G1 X49.044 Y9.921 E7.97574
G1 X49.303 Y9.544 E7.99325
G1 X49.467 Y9.115 E8.01082
G1 X49.521 Y8.66 E8.02836
G1 X49.467 Y8.205 E8.04589
G1 X49.303 Y7.776 E8.06347
G1 X49.044 Y7.398 E8.08101
G1 X48.7 Y7.095 E8.09855
G1 X48.295 Y6.882 E8.11606
G1 X47.849 Y6.772 E8.13364
G1 X47.391 Y6.772 E8.15117
G1 X46.945 Y6.882 E8.16875
G1 X46.751 Y6.984 E8.17714
G0 F1620 X46.557 Y7.086
G0 X46.198 Y7.398
G0 F4320 X46.085 Y7.562
G0 X45.86 Y7.405
G0 X45.004 Y7.375
;TYPE:SKIN
G1 F2400 E8.2037
G1 F1800 X44.782 Y7.959 E8.22761
G1 X44.696 Y8.66 E8.25463
G1 X44.782 Y9.361 E8.28166
G1 X45.004 Y9.945 E8.30557
G1 X26.236 Y9.945 E9.02382
G1 X26.459 Y9.359 E9.04782
G1 X26.542 Y8.66 E9.07476
G1 X26.459 Y7.961 E9.1017
G1 X26.236 Y7.375 E9.12569
G1 X44.31 Y7.375 E9.81738
G0 F1620 X45.004 Y7.375
G0 F4320 X44.742 Y7.619
G1 F2400 E9.84394
G1 F1800 X44.655 Y7.532 E9.84865
G0 F4320 X44.619 Y7.991
G1 F1800 X44.16 Y7.532 E9.87349
G0 F4320 X43.665 Y7.532
G1 F1800 X44.566 Y8.432 E9.92223
G0 F4320 X44.571 Y8.933
G1 F1800 X43.17 Y7.532 E9.99805
G0 F4320 X42.675 Y7.532
G1 F1800 X44.681 Y9.538 E10.10662
G0 F4320 X44.436 Y9.787
G1 F1800 X42.18 Y7.532 E10.22869
G0 F4320 X41.685 Y7.532
G1 F1800 X43.941 Y9.787 E10.35076
G0 F4320 X43.446 Y9.787
G1 F1800 X41.19 Y7.532 E10.47284
G0 F4320 X40.695 Y7.532
G1 F1800 X42.951 Y9.787 E10.59491
G0 F4320 X42.456 Y9.787
G1 F1800 X40.2 Y7.532 E10.71698
G0 F4320 X39.705 Y7.532
G1 F1800 X41.961 Y9.787 E10.83905
G0 F4320 X41.466 Y9.787
G1 F1800 X39.21 Y7.532 E10.96112
G0 F4320 X38.715 Y7.532
G1 F1800 X40.971 Y9.787 E11.0832
G0 F4320 X40.476 Y9.787
G1 F1800 X38.22 Y7.532 E11.20527
G0 F4320 X37.725 Y7.532
G1 F1800 X39.981 Y9.787 E11.32734
G0 F4320 X39.486 Y9.787
G1 F1800 X37.23 Y7.532 E11.44941
G0 F4320 X36.735 Y7.532
G1 F1800 X38.991 Y9.787 E11.57148
G0 F4320 X38.496 Y9.787
G1 F1800 X36.24 Y7.532 E11.69356
G0 F4320 X35.745 Y7.532
G1 F1800 X38.001 Y9.787 E11.81563
G0 F4320 X37.506 Y9.787
G1 F1800 X35.25 Y7.532 E11.9377
G0 F4320 X34.755 Y7.532
G1 F1800 X37.011 Y9.787 E12.05977
G0 F4320 X36.516 Y9.787
G1 F1800 X34.26 Y7.532 E12.18184
G0 F4320 X33.765 Y7.532
G1 F1800 X36.021 Y9.787 E12.30392
G0 F4320 X35.526 Y9.787
G1 F1800 X33.27 Y7.532 E12.42599
G0 F4320 X32.775 Y7.532
G1 F1800 X35.031 Y9.787 E12.54806
G0 F4320 X34.536 Y9.787
G1 F1800 X32.28 Y7.532 E12.67013
G0 F4320 X31.785 Y7.532
G1 F1800 X34.041 Y9.787 E12.7922
G0 F4320 X33.546 Y9.787
G1 F1800 X31.29 Y7.532 E12.91427
G0 F4320 X30.795 Y7.532
G1 F1800 X33.051 Y9.787 E13.03635
G0 F4320 X32.556 Y9.787
G1 F1800 X30.3 Y7.532 E13.15842
G0 F4320 X29.805 Y7.532
G1 F1800 X32.061 Y9.787 E13.28049
G0 F4320 X31.566 Y9.787
G1 F1800 X29.31 Y7.532 E13.40256
G0 F4320 X28.816 Y7.532
G1 F1800 X31.071 Y9.787 E13.52461
G0 F4320 X30.576 Y9.787
G1 F1800 X28.321 Y7.532 E13.64665
G0 F4320 X27.826 Y7.532
G1 F1800 X30.081 Y9.787 E13.7687
G0 F4320 X29.586 Y9.787
G1 F1800 X27.331 Y7.532 E13.89074
G0 F4320 X26.836 Y7.532
G1 F1800 X29.091 Y9.787 E14.01279
G0 F4320 X28.596 Y9.787
G1 F1800 X26.537 Y7.727 E14.12425
G0 F4320 X26.661 Y8.347
G1 F1800 X28.101 Y9.787 E14.20219
G0 F4320 X27.606 Y9.787
G1 F1800 X26.674 Y8.855 E14.25263
G0 F4320 X26.622 Y9.298
G1 F1800 X27.111 Y9.787 E14.27909
G0 F4320 X26.616 Y9.787
G1 F1800 X26.505 Y9.676 E14.2851
G0 F4320 X25.902 Y9.447
G1 F2400 E11.7851
;MESH:SlideMotorArmExtension.stl
G0 F4320 X45.679 Y10.696
G0 X50.231 Y10.771
G0 X51.285 Y10.771
G0 X60.833 Y10.771
G0 X61.893 Y10.771
G0 X62.53 Y15.283
G0 X84.373 Y15.44
;TYPE:WALL-INNER
G1 F2400 E14.2851
G1 F1800 X62.373 Y15.44 E15.12704
G1 X62.373 Y14.324 E15.16975
G1 X62.373 Y14.32 E15.1699
G1 X62.373 Y13.925 E15.18502
G1 X62.718 Y14.32 E15.19672
G1 X62.721 Y14.322 E15.19685
G1 X63.252 Y14.689 E15.22156
G1 X63.857 Y14.919 E15.24633
G1 X64.498 Y14.995 E15.27103
G1 X65.139 Y14.919 E15.29573
G1 X65.745 Y14.689 E15.32054
G1 X66.277 Y14.323 E15.34525
G1 X66.707 Y13.838 E15.37006
G1 X67.005 Y13.266 E15.39474
G1 X67.16 Y12.639 E15.41946
G1 X67.16 Y11.991 E15.44426
G1 X67.005 Y11.365 E15.46894
G1 X66.707 Y10.793 E15.49362
G1 X66.277 Y10.308 E15.51842
G1 X65.745 Y9.941 E15.54316
G1 X65.139 Y9.712 E15.56795
G1 X64.498 Y9.633 E15.59267
G1 X63.855 Y9.712 E15.61746
G1 X63.252 Y9.941 E15.64214
G1 X62.721 Y10.307 E15.66683
G1 X62.72 Y10.308 E15.66688
G1 X62.373 Y10.7 E15.68691
G1 X62.373 Y10.308 E15.69365
G1 X62.373 Y10.306 E15.69372
G1 X62.373 Y9.19 E15.73643
G1 X84.373 Y9.19 E16.57837
G1 X84.373 Y4.19 E16.76972
G1 X90.524 Y4.19 E17.00512
G1 X90.912 Y4.19 E17.01997
G1 X90.655 Y4.481 E17.02806
G1 X90.538 Y4.613 E17.03481
G1 X90.272 Y5.12 E17.05672
G1 X90.134 Y5.677 E17.07868
G1 X90.134 Y6.253 E17.10072
G1 X90.273 Y6.811 E17.12273
G1 X90.529 Y7.297 E17.14375
G1 X90.913 Y7.745 E17.16633
G1 X91.391 Y8.073 E17.18852
G1 X91.929 Y8.279 E17.21057
G1 X92.498 Y8.345 E17.23249
G1 X93.067 Y8.279 E17.25441
G1 X93.605 Y8.073 E17.27646
G1 X94.078 Y7.748 E17.29842
G1 X94.459 Y7.317 E17.32043
G1 X94.725 Y6.809 E17.34238
G1 X94.862 Y6.251 E17.36437
G1 X94.862 Y5.679 E17.38626
G1 X94.725 Y5.122 E17.40821
G1 X94.459 Y4.612 E17.43022
G1 X94.342 Y4.481 E17.43695
G1 X94.083 Y4.19 E17.45185
G1 X94.472 Y4.19 E17.45995
G1 X94.473 Y4.19 E17.45999
G1 X100.623 Y4.19 E17.69535
G1 X100.623 Y10.387 E17.93251
G1 X100.623 Y10.533 E17.93809
G1 X100.623 Y10.753 E17.94651
G1 X100.427 Y10.533 E17.95115
G1 X100.307 Y10.45 E17.95564
G1 X99.955 Y10.207 E17.97201
G1 X99.417 Y10.003 E17.99403
G1 X98.848 Y9.935 E18.01596
G1 X98.279 Y10.003 E18.03789
G1 X97.741 Y10.207 E18.05991
G1 X97.268 Y10.533 E18.08189
G1 X96.888 Y10.963 E18.10385
G1 X96.622 Y11.47 E18.12576
G1 X96.484 Y12.027 E18.14772
G1 X96.484 Y12.603 E18.16977
G1 X96.623 Y13.161 E18.19178
G1 X96.879 Y13.647 E18.2128
G1 X97.263 Y14.095 E18.23538
G1 X97.741 Y14.423 E18.25756
G1 X98.279 Y14.629 E18.27961
G1 X98.848 Y14.695 E18.30153
G1 X99.417 Y14.629 E18.32345
G1 X99.955 Y14.423 E18.3455
G1 X100.307 Y14.181 E18.36185
G1 X100.428 Y14.098 E18.36746
G1 X100.623 Y13.877 E18.37874
G1 X100.623 Y14.098 E18.38053
G1 X100.623 Y14.245 E18.38506
G1 X100.623 Y20.44 E18.62214
G1 X94.473 Y20.44 E18.8575
G1 X94.085 Y20.44 E18.87235
G1 X94.342 Y20.149 E18.88044
G1 X94.459 Y20.017 E18.88719
G1 X94.725 Y19.509 E18.90914
G1 X94.862 Y18.951 E18.93113
G1 X94.862 Y18.379 E18.95302
G1 X94.725 Y17.822 E18.97497
G1 X94.459 Y17.312 E18.99698
G1 X94.077 Y16.883 E19.01897
G1 X93.605 Y16.557 E19.04092
G1 X93.067 Y16.353 E19.06294
G1 X92.498 Y16.285 E19.08487
G1 X91.929 Y16.353 E19.1068
G1 X91.391 Y16.557 E19.12882
G1 X90.918 Y16.883 E19.1508
G1 X90.538 Y17.313 E19.17276
G1 X90.272 Y17.82 E19.19468
G1 X90.134 Y18.377 E19.21664
G1 X90.134 Y18.953 E19.23868
G1 X90.273 Y19.511 E19.26069
G1 X90.529 Y19.997 E19.28171
G1 X90.662 Y20.152 E19.28953
G1 X90.909 Y20.44 E19.30405
G1 X90.53 Y20.44 E19.31196
G1 X90.529 Y20.44 E19.312
G1 X84.373 Y20.44 E19.54759
G1 X84.373 Y16.134 E19.71238
G0 F1620 X84.373 Y15.44
G1 F2400 E17.21238
G0 F4320 X84.963 Y14.571
G0 X84.563 Y14.095
G1 F2400 E19.73894
G1 F1800 X85.041 Y14.423 E19.76112
G1 X85.579 Y14.629 E19.78317
G1 X86.148 Y14.695 E19.80509
G1 X86.717 Y14.629 E19.82701
G1 X87.255 Y14.423 E19.84906
G1 X87.728 Y14.098 E19.87102
G1 X88.109 Y13.667 E19.89304
G1 X88.375 Y13.159 E19.91498
G1 X88.512 Y12.601 E19.93697
G1 X88.512 Y12.029 E19.95886
G1 X88.375 Y11.472 E19.98081
G1 X88.109 Y10.962 E20.00282
G1 X87.727 Y10.533 E20.02481
G1 X87.255 Y10.207 E20.04676
G1 X86.717 Y10.003 E20.06878
G1 X86.148 Y9.935 E20.09071
G1 X85.579 Y10.003 E20.11264
G1 X85.041 Y10.207 E20.13466
G1 X84.568 Y10.533 E20.15665
G1 X84.188 Y10.963 E20.17861
G1 X83.922 Y11.47 E20.20052
G1 X83.784 Y12.027 E20.22248
G1 X83.784 Y12.603 E20.24452
G1 X83.923 Y13.161 E20.26653
G1 X84.131 Y13.555 E20.28358
G0 F1620 X84.179 Y13.647
G0 X84.563 Y14.095
G0 F4320 X84.799 Y13.832
G1 F2400 E20.31014
G1 F1800 X85.205 Y14.111 E20.32899
G1 X85.663 Y14.286 E20.34776
G1 X86.148 Y14.343 E20.36644
G1 X86.633 Y14.286 E20.38513
G1 X87.091 Y14.111 E20.4039
G1 X87.494 Y13.834 E20.42261
G1 X87.819 Y13.467 E20.44137
G1 X88.045 Y13.034 E20.46006
G1 X88.162 Y12.559 E20.47879
G1 X88.162 Y12.071 E20.49746
G1 X88.045 Y11.596 E20.51618
G1 X87.819 Y11.162 E20.53491
G1 X87.494 Y10.797 E20.55361
G1 X87.091 Y10.519 E20.57235
G1 X86.633 Y10.345 E20.5911
G1 X86.148 Y10.287 E20.60979
G1 X85.663 Y10.345 E20.62849
G1 X85.205 Y10.519 E20.64724
G1 X84.802 Y10.797 E20.66597
G1 X84.478 Y11.163 E20.68468
G1 X84.252 Y11.595 E20.70334
G1 X84.134 Y12.07 E20.72207
G1 X84.134 Y12.56 E20.74082
G1 X84.252 Y13.035 E20.75955
G1 X84.382 Y13.281 E20.7702
G0 F1620 X84.47 Y13.449
G0 X84.799 Y13.832
G1 F2400 E18.2702
G0 F4320 X84.883 Y14.539
G0 X84.558 Y15.255
G0 X84.023 Y15.79
G1 F2400 E20.79676
G1 F1800 X62.023 Y15.79 E21.6387
G1 X62.023 Y13.246 E21.73606
G1 X62.023 Y13.141 E21.74007
G1 X62.023 Y12.596 E21.76093
G1 X62.023 Y12.034 E21.78244
G1 X62.023 Y11.489 E21.8033
G1 X62.023 Y11.384 E21.80731
G1 X62.023 Y8.84 E21.90467
G1 X84.023 Y8.84 E22.74661
G1 X84.023 Y3.84 E22.93796
G1 X91.522 Y3.84 E23.22495
G1 X91.555 Y3.84 E23.22621
G1 X92.013 Y3.84 E23.24374
G1 X92.498 Y3.84 E23.2623
G1 X92.983 Y3.84 E23.28086
G1 X93.441 Y3.84 E23.29839
G1 X93.474 Y3.84 E23.29965
G1 X100.973 Y3.84 E23.58664
G1 X100.973 Y11.347 E23.87393
G1 X100.973 Y11.596 E23.88346
G1 X100.973 Y12.071 E23.90164
G1 X100.973 Y12.559 E23.92031
G1 X100.973 Y13.034 E23.93849
G1 X100.973 Y13.282 E23.94798
G1 X100.973 Y20.79 E24.23531
G1 X93.474 Y20.79 E24.5223
G1 X93.441 Y20.79 E24.52356
G1 X92.983 Y20.79 E24.54109
G1 X92.498 Y20.79 E24.55965
G1 X92.013 Y20.79 E24.57821
G1 X91.555 Y20.79 E24.59574
G1 X91.522 Y20.79 E24.597
G1 X84.023 Y20.79 E24.88399
G1 X84.023 Y16.484 E25.04878
G0 F1620 X84.023 Y15.79
G0 F4320 X84.53 Y20.283
G0 X90.543 Y20.271
G0 X91.149 Y20.182
G1 F2400 E25.07534
G1 F1800 X91.528 Y20.443 E25.09295
G1 X91.555 Y20.461 E25.09415
G1 X92.013 Y20.636 E25.10739
G1 X92.498 Y20.693 E25.11415
G1 X92.983 Y20.636 E25.12091
