;FLAVOR:Marlin
;TIME:3603
;Filament used: 2.49148m
;Layer height: 0.175
;Generated with Cura_SteamEngine 4.0.0
M140 S65
M105
M190 S65
M104 S205
M105
M109 S205
M82 ;absolute extrusion mode
G21;(metric values)
G90;(absolute positioning)
M82;(set extruder to absolute mode)
M107;(start with the fan off)
G28;(Home the printer)
G92 E0;(Reset the extruder to 0)
G0 Z5 E5 F500;(Move up and prime the nozzle)
G0 X-1 Z0;(Move outside the printable area)
G1 Y60 E8 F500;(Draw a priming/wiping line to the rear)
G1 X-1;(Move a little closer to the print area)
G1 Y10 E16 F500;(draw more priming/wiping)
G1 E15 F250;(Small retract)
G92 E0;(Zero the extruder)
G92 E0
G1 F2400 E-2.5
;LAYER_COUNT:46
;LAYER:0
M107
;MESH:SliderModule.stl
G0 F4320 X106.125 Y21.951 Z0.263
;TYPE:WALL-INNER
G1 F2400 E0
G1 F1800 X13.875 Y21.951 E3.5304
G1 X13.875 Y6.701 E4.11402
G1 X106.125 Y6.701 E7.64442
G1 X106.125 Y21.257 E8.20148
G0 F1620 X106.125 Y21.951
G0 F4320 X106.475 Y22.301
G1 F2400 E8.22804
G1 F1800 X13.525 Y22.301 E11.78523
G1 X13.525 Y6.351 E12.39563
G1 X106.475 Y6.351 E15.95283
G1 X106.475 Y21.607 E16.53667
G0 F1620 X106.475 Y22.301
G0 F4320 X106.8 Y22.626
;TYPE:WALL-OUTER
G1 F2400 E16.56323
G1 F1800 X13.2 Y22.626 E20.1453
G1 X13.2 Y6.026 E20.78058
G1 X106.8 Y6.026 E24.36265
G1 X106.8 Y21.932 E24.97137
G0 F1620 X106.8 Y22.626
G0 F4320 X106.6 Y22.626
G0 X106.6 Y22.351
G0 X106.04 Y21.611
G0 X105.785 Y21.611
;TYPE:SKIN
G1 F2400 E24.99793
G1 F1800 X14.215 Y21.611 E28.50231
G1 X14.215 Y7.041 E29.0599
G1 X105.785 Y7.041 E32.56428
G1 X105.785 Y20.917 E33.09531
G0 F1620 X105.785 Y21.611
G0 F4320 X106.04 Y21.611
G0 X106.04 Y7.622
G0 X105.627 Y7.622
G1 F2400 E33.12187
G1 F1800 X105.203 Y7.198 E33.14482
G0 F4320 X104.708 Y7.198
G1 F1800 X105.627 Y8.117 E33.19456
G0 F4320 X105.627 Y8.612
G1 F1800 X104.213 Y7.198 E33.27108
G0 F4320 X103.718 Y7.198
G1 F1800 X105.627 Y9.107 E33.3744
G0 F4320 X105.627 Y9.602
G1 F1800 X103.223 Y7.198 E33.50451
G0 F4320 X102.728 Y7.198
G1 F1800 X105.627 Y10.097 E33.66141
G0 F4320 X105.627 Y10.592
G1 F1800 X102.233 Y7.198 E33.8451
G0 F4320 X101.738 Y7.198
G1 F1800 X105.627 Y11.087 E34.05558
G0 F4320 X105.627 Y11.582
G1 F1800 X101.243 Y7.198 E34.29285
G0 F4320 X100.748 Y7.198
G1 F1800 X105.627 Y12.077 E34.55691
G0 F4320 X105.627 Y12.572
G1 F1800 X100.253 Y7.198 E34.84776
G0 F4320 X99.758 Y7.198
G1 F1800 X105.627 Y13.067 E35.1654
G0 F4320 X105.627 Y13.562
G1 F1800 X99.263 Y7.198 E35.50984
G0 F4320 X98.768 Y7.198
G1 F1800 X105.627 Y14.057 E35.88106
G0 F4320 X105.627 Y14.552
G1 F1800 X98.273 Y7.198 E36.27907
G0 F4320 X97.778 Y7.198
G1 F1800 X105.627 Y15.047 E36.70387
G0 F4320 X105.627 Y15.542
G1 F1800 X97.283 Y7.198 E37.15547
G0 F4320 X96.788 Y7.198
G1 F1800 X105.627 Y16.037 E37.63385
G0 F4320 X105.627 Y16.532
G1 F1800 X96.293 Y7.198 E38.13902
G0 F4320 X95.798 Y7.198
G1 F1800 X105.627 Y17.027 E38.67099
G0 F4320 X105.627 Y17.522
G1 F1800 X95.303 Y7.198 E39.22974
G0 F4320 X94.808 Y7.198
G1 F1800 X105.627 Y18.017 E39.81528
G0 F4320 X105.627 Y18.512
G1 F1800 X94.313 Y7.198 E40.42762
G0 F4320 X93.818 Y7.198
G1 F1800 X105.627 Y19.007 E41.06674
G0 F4320 X105.627 Y19.502
G1 F1800 X93.323 Y7.198 E41.73266
G0 F4320 X92.828 Y7.198
G1 F1800 X105.627 Y19.996 E42.42534
G0 F4320 X105.627 Y20.491
G1 F1800 X92.334 Y7.198 E43.14478
G0 F4320 X91.839 Y7.198
G1 F1800 X105.627 Y20.986 E43.89101
G0 F4320 X105.598 Y21.452
G1 F1800 X91.344 Y7.198 E44.66247
G0 F4320 X90.849 Y7.198
G1 F1800 X105.103 Y21.452 E45.43392
G0 F4320 X104.608 Y21.452
G1 F1800 X90.354 Y7.198 E46.20537
G0 F4320 X89.859 Y7.198
G1 F1800 X104.113 Y21.452 E46.97683
G0 F4320 X103.618 Y21.452
G1 F1800 X89.364 Y7.198 E47.74828
G0 F4320 X88.869 Y7.198
G1 F1800 X103.123 Y21.452 E48.51973
G0 F4320 X102.628 Y21.452
G1 F1800 X88.374 Y7.198 E49.29119
G0 F4320 X87.879 Y7.198
G1 F1800 X102.133 Y21.452 E50.06264
G0 F4320 X101.638 Y21.452
G1 F1800 X87.384 Y7.198 E50.83409
G0 F4320 X86.889 Y7.198
G1 F1800 X101.143 Y21.452 E51.60554
G0 F4320 X100.648 Y21.452
G1 F1800 X86.394 Y7.198 E52.377
G0 F4320 X85.899 Y7.198
G1 F1800 X100.153 Y21.452 E53.14845
G0 F4320 X99.658 Y21.452
G1 F1800 X85.404 Y7.198 E53.9199
G0 F4320 X84.909 Y7.198
G1 F1800 X99.163 Y21.452 E54.69136
G0 F4320 X98.668 Y21.452
G1 F1800 X84.414 Y7.198 E55.46281
G0 F4320 X83.919 Y7.198
G1 F1800 X98.173 Y21.452 E56.23426
G0 F4320 X97.679 Y21.452
G1 F1800 X83.424 Y7.198 E57.00574
G0 F4320 X82.929 Y7.198
G1 F1800 X97.184 Y21.452 E57.77722
G0 F4320 X96.689 Y21.452
G1 F1800 X82.434 Y7.198 E58.5487
G0 F4320 X81.939 Y7.198
G1 F1800 X96.194 Y21.452 E59.32018
G0 F4320 X95.699 Y21.452
G1 F1800 X81.444 Y7.198 E60.09167
G0 F4320 X80.949 Y7.198
G1 F1800 X95.204 Y21.452 E60.86315
G0 F4320 X94.709 Y21.452
G1 F1800 X80.454 Y7.198 E61.63463
G0 F4320 X79.959 Y7.198
G1 F1800 X94.214 Y21.452 E62.40611
G0 F4320 X93.719 Y21.452
G1 F1800 X79.464 Y7.198 E63.17759
G0 F4320 X78.969 Y7.198
G1 F1800 X93.224 Y21.452 E63.94907
G0 F4320 X92.729 Y21.452
G1 F1800 X78.474 Y7.198 E64.72055
G0 F4320 X77.979 Y7.198
G1 F1800 X92.234 Y21.452 E65.49203
G0 F4320 X91.739 Y21.452
G1 F1800 X77.484 Y7.198 E66.26351
G0 F4320 X76.989 Y7.198
G1 F1800 X91.244 Y21.452 E67.03499
G0 F4320 X90.749 Y21.452
G1 F1800 X76.494 Y7.198 E67.80647
G0 F4320 X75.999 Y7.198
G1 F1800 X90.254 Y21.452 E68.57795
G0 F4320 X89.759 Y21.452
G1 F1800 X75.504 Y7.198 E69.34943
G0 F4320 X75.009 Y7.198
G1 F1800 X89.264 Y21.452 E70.12091
G0 F4320 X88.769 Y21.452
G1 F1800 X74.514 Y7.198 E70.89239
G0 F4320 X74.019 Y7.198
G1 F1800 X88.274 Y21.452 E71.66387
G0 F4320 X87.779 Y21.452
G1 F1800 X73.524 Y7.198 E72.43535
G0 F4320 X73.029 Y7.198
G1 F1800 X87.284 Y21.452 E73.20683
G0 F4320 X86.789 Y21.452
G1 F1800 X72.535 Y7.198 E73.97828
G0 F4320 X72.04 Y7.198
G1 F1800 X86.294 Y21.452 E74.74974
G0 F4320 X85.799 Y21.452
G1 F1800 X71.545 Y7.198 E75.52119
G0 F4320 X71.05 Y7.198
G1 F1800 X85.304 Y21.452 E76.29264
G0 F4320 X84.809 Y21.452
G1 F1800 X70.555 Y7.198 E77.06409
G0 F4320 X70.06 Y7.198
G1 F1800 X84.314 Y21.452 E77.83555
G0 F4320 X83.819 Y21.452
G1 F1800 X69.565 Y7.198 E78.607
G0 F4320 X69.07 Y7.198
G1 F1800 X83.324 Y21.452 E79.37845
G0 F4320 X82.829 Y21.452
G1 F1800 X68.575 Y7.198 E80.14991
G0 F4320 X68.08 Y7.198
G1 F1800 X82.334 Y21.452 E80.92136
G0 F4320 X81.839 Y21.452
G1 F1800 X67.585 Y7.198 E81.69281
G0 F4320 X67.09 Y7.198
G1 F1800 X81.344 Y21.452 E82.46427
G0 F4320 X80.849 Y21.452
G1 F1800 X66.595 Y7.198 E83.23572
G0 F4320 X66.1 Y7.198
G1 F1800 X80.354 Y21.452 E84.00717
G0 F4320 X79.859 Y21.452
G1 F1800 X65.605 Y7.198 E84.77863
G0 F4320 X65.11 Y7.198
G1 F1800 X79.364 Y21.452 E85.55008
G0 F4320 X78.869 Y21.452
G1 F1800 X64.615 Y7.198 E86.32153
G0 F4320 X64.12 Y7.198
G1 F1800 X78.375 Y21.452 E87.09301
G0 F4320 X77.88 Y21.452
G1 F1800 X63.625 Y7.198 E87.86449
G0 F4320 X63.13 Y7.198
G1 F1800 X77.385 Y21.452 E88.63597
G0 F4320 X76.89 Y21.452
G1 F1800 X62.635 Y7.198 E89.40745
G0 F4320 X62.14 Y7.198
G1 F1800 X76.395 Y21.452 E90.17893
G0 F4320 X75.9 Y21.452
G1 F1800 X61.645 Y7.198 E90.95041
G0 F4320 X61.15 Y7.198
G1 F1800 X75.405 Y21.452 E91.72189
G0 F4320 X74.91 Y21.452
G1 F1800 X60.655 Y7.198 E92.49337
G0 F4320 X60.16 Y7.198
G1 F1800 X74.415 Y21.452 E93.26485
G0 F4320 X73.92 Y21.452
G1 F1800 X59.665 Y7.198 E94.03634
G0 F4320 X59.17 Y7.198
G1 F1800 X73.425 Y21.452 E94.80782
G0 F4320 X72.93 Y21.452
G1 F1800 X58.675 Y7.198 E95.5793
G0 F4320 X58.18 Y7.198
G1 F1800 X72.435 Y21.452 E96.35078
G0 F4320 X71.94 Y21.452
G1 F1800 X57.685 Y7.198 E97.12226
G0 F4320 X57.19 Y7.198
G1 F1800 X71.445 Y21.452 E97.89374
G0 F4320 X70.95 Y21.452
G1 F1800 X56.695 Y7.198 E98.66522
G0 F4320 X56.2 Y7.198
G1 F1800 X70.455 Y21.452 E99.4367
G0 F4320 X69.96 Y21.452
G1 F1800 X55.705 Y7.198 E100.20818
G0 F4320 X55.21 Y7.198
G1 F1800 X69.465 Y21.452 E100.97966
G0 F4320 X68.97 Y21.452
G1 F1800 X54.715 Y7.198 E101.75114
G0 F4320 X54.22 Y7.198
G1 F1800 X68.475 Y21.452 E102.52262
G0 F4320 X67.98 Y21.452
G1 F1800 X53.725 Y7.198 E103.2941
G0 F4320 X53.23 Y7.198
G1 F1800 X67.485 Y21.452 E104.06558
G0 F4320 X66.99 Y21.452
G1 F1800 X52.736 Y7.198 E104.83703
G0 F4320 X52.241 Y7.198
G1 F1800 X66.495 Y21.452 E105.60848
G0 F4320 X66 Y21.452
G1 F1800 X51.746 Y7.198 E106.37994
G0 F4320 X51.251 Y7.198
G1 F1800 X65.505 Y21.452 E107.15139
G0 F4320 X65.01 Y21.452
G1 F1800 X50.756 Y7.198 E107.92284
G0 F4320 X50.261 Y7.198
G1 F1800 X64.515 Y21.452 E108.6943
G0 F4320 X64.02 Y21.452
G1 F1800 X49.766 Y7.198 E109.46575
G0 F4320 X49.271 Y7.198
G1 F1800 X63.525 Y21.452 E110.2372
G0 F4320 X63.03 Y21.452
G1 F1800 X48.776 Y7.198 E111.00866
G0 F4320 X48.281 Y7.198
G1 F1800 X62.535 Y21.452 E111.78011
G0 F4320 X62.04 Y21.452
G1 F1800 X47.786 Y7.198 E112.55156
G0 F4320 X47.291 Y7.198
G1 F1800 X61.545 Y21.452 E113.32302
G0 F4320 X61.05 Y21.452
G1 F1800 X46.796 Y7.198 E114.09447
G0 F4320 X46.301 Y7.198
G1 F1800 X60.555 Y21.452 E114.86592
G0 F4320 X60.06 Y21.452
G1 F1800 X45.806 Y7.198 E115.63738
G0 F4320 X45.311 Y7.198
G1 F1800 X59.565 Y21.452 E116.40883
G0 F4320 X59.07 Y21.452
G1 F1800 X44.816 Y7.198 E117.18028
G0 F4320 X44.321 Y7.198
G1 F1800 X58.576 Y21.452 E117.95176
G0 F4320 X58.081 Y21.452
G1 F1800 X43.826 Y7.198 E118.72324
G0 F4320 X43.331 Y7.198
G1 F1800 X57.586 Y21.452 E119.49472
G0 F4320 X57.091 Y21.452
G1 F1800 X42.836 Y7.198 E120.2662
G0 F4320 X42.341 Y7.198
G1 F1800 X56.596 Y21.452 E121.03768
G0 F4320 X56.101 Y21.452
G1 F1800 X41.846 Y7.198 E121.80916
G0 F4320 X41.351 Y7.198
G1 F1800 X55.606 Y21.452 E122.58064
G0 F4320 X55.111 Y21.452
G1 F1800 X40.856 Y7.198 E123.35212
G0 F4320 X40.361 Y7.198
G1 F1800 X54.616 Y21.452 E124.1236
G0 F4320 X54.121 Y21.452
G1 F1800 X39.866 Y7.198 E124.89508
G0 F4320 X39.371 Y7.198
G1 F1800 X53.626 Y21.452 E125.66656
G0 F4320 X53.131 Y21.452
G1 F1800 X38.876 Y7.198 E126.43804
G0 F4320 X38.381 Y7.198
G1 F1800 X52.636 Y21.452 E127.20952
G0 F4320 X52.141 Y21.452
G1 F1800 X37.886 Y7.198 E127.98101
G0 F4320 X37.391 Y7.198
G1 F1800 X51.646 Y21.452 E128.75249
G0 F4320 X51.151 Y21.452
G1 F1800 X36.896 Y7.198 E129.52397
G0 F4320 X36.401 Y7.198
G1 F1800 X50.656 Y21.452 E130.29545
G0 F4320 X50.161 Y21.452
G1 F1800 X35.906 Y7.198 E131.06693
G0 F4320 X35.411 Y7.198
G1 F1800 X49.666 Y21.452 E131.83841
G0 F4320 X49.171 Y21.452
G1 F1800 X34.916 Y7.198 E132.60989
G0 F4320 X34.421 Y7.198
G1 F1800 X48.676 Y21.452 E133.38137
G0 F4320 X48.181 Y21.452
G1 F1800 X33.926 Y7.198 E134.15285
G0 F4320 X33.432 Y7.198
G1 F1800 X47.686 Y21.452 E134.9243
G0 F4320 X47.191 Y21.452
G1 F1800 X32.937 Y7.198 E135.69575
G0 F4320 X32.442 Y7.198
G1 F1800 X46.696 Y21.452 E136.46721
G0 F4320 X46.201 Y21.452
G1 F1800 X31.947 Y7.198 E137.23866
G0 F4320 X31.452 Y7.198
G1 F1800 X45.706 Y21.452 E138.01011
G0 F4320 X45.211 Y21.452
G1 F1800 X30.957 Y7.198 E138.78157
G0 F4320 X30.462 Y7.198
G1 F1800 X44.716 Y21.452 E139.55302
G0 F4320 X44.221 Y21.452
G1 F1800 X29.967 Y7.198 E140.32447
G0 F4320 X29.472 Y7.198
G1 F1800 X43.726 Y21.452 E141.09593
G0 F4320 X43.231 Y21.452
G1 F1800 X28.977 Y7.198 E141.86738
G0 F4320 X28.482 Y7.198
G1 F1800 X42.736 Y21.452 E142.63883
G0 F4320 X42.241 Y21.452
G1 F1800 X27.987 Y7.198 E143.41028
G0 F4320 X27.492 Y7.198
G1 F1800 X41.746 Y21.452 E144.18174
G0 F4320 X41.251 Y21.452
G1 F1800 X26.997 Y7.198 E144.95319
G0 F4320 X26.502 Y7.198
G1 F1800 X40.756 Y21.452 E145.72464
G0 F4320 X40.261 Y21.452
G1 F1800 X26.007 Y7.198 E146.4961
G0 F4320 X25.512 Y7.198
G1 F1800 X39.766 Y21.452 E147.26755
G0 F4320 X39.272 Y21.452
G1 F1800 X25.017 Y7.198 E148.03903
G0 F4320 X24.522 Y7.198
G1 F1800 X38.777 Y21.452 E148.81051
G0 F4320 X38.282 Y21.452
G1 F1800 X24.027 Y7.198 E149.58199
G0 F4320 X23.532 Y7.198
G1 F1800 X37.787 Y21.452 E150.35347
G0 F4320 X37.292 Y21.452
G1 F1800 X23.037 Y7.198 E151.12495
G0 F4320 X22.542 Y7.198
G1 F1800 X36.797 Y21.452 E151.89643
G0 F4320 X36.302 Y21.452
G1 F1800 X22.047 Y7.198 E152.66791
G0 F4320 X21.552 Y7.198
G1 F1800 X35.807 Y21.452 E153.43939
G0 F4320 X35.312 Y21.452
G1 F1800 X21.057 Y7.198 E154.21087
G0 F4320 X20.562 Y7.198
G1 F1800 X34.817 Y21.452 E154.98235
G0 F4320 X34.322 Y21.452
G1 F1800 X20.067 Y7.198 E155.75383
G0 F4320 X19.572 Y7.198
G1 F1800 X33.827 Y21.452 E156.52531
G0 F4320 X33.332 Y21.452
G1 F1800 X19.077 Y7.198 E157.29679
G0 F4320 X18.582 Y7.198
G1 F1800 X32.837 Y21.452 E158.06827
G0 F4320 X32.342 Y21.452
G1 F1800 X18.087 Y7.198 E158.83975
G0 F4320 X17.592 Y7.198
G1 F1800 X31.847 Y21.452 E159.61123
G0 F4320 X31.352 Y21.452
G1 F1800 X17.097 Y7.198 E160.38271
G0 F4320 X16.602 Y7.198
G1 F1800 X30.857 Y21.452 E161.15419
G0 F4320 X30.362 Y21.452
G1 F1800 X16.107 Y7.198 E161.92568
G0 F4320 X15.612 Y7.198
G1 F1800 X29.867 Y21.452 E162.69716
G0 F4320 X29.372 Y21.452
G1 F1800 X15.117 Y7.198 E163.46864
G0 F4320 X14.622 Y7.198
G1 F1800 X28.877 Y21.452 E164.24012
G0 F4320 X28.382 Y21.452
G1 F1800 X14.371 Y7.441 E164.99842
G0 F4320 X14.371 Y7.936
G1 F1800 X27.887 Y21.452 E165.72993
G0 F4320 X27.392 Y21.452
G1 F1800 X14.371 Y8.431 E166.43465
G0 F4320 X14.371 Y8.926
G1 F1800 X26.897 Y21.452 E167.11258
G0 F4320 X26.402 Y21.452
G1 F1800 X14.371 Y9.421 E167.76372
G0 F4320 X14.371 Y9.916
G1 F1800 X25.907 Y21.452 E168.38807
G0 F4320 X25.412 Y21.452
G1 F1800 X14.371 Y10.411 E168.98563
G0 F4320 X14.371 Y10.906
G1 F1800 X24.917 Y21.452 E169.5564
G0 F4320 X24.422 Y21.452
G1 F1800 X14.371 Y11.401 E170.10038
G0 F4320 X14.371 Y11.896
G1 F1800 X23.927 Y21.452 E170.61757
G0 F4320 X23.432 Y21.452
G1 F1800 X14.371 Y12.391 E171.10796
G0 F4320 X14.371 Y12.886
G1 F1800 X22.937 Y21.452 E171.57157
G0 F4320 X22.442 Y21.452
G1 F1800 X14.371 Y13.381 E172.00839
G0 F4320 X14.371 Y13.876
G1 F1800 X21.947 Y21.452 E172.41842
G0 F4320 X21.452 Y21.452
G1 F1800 X14.371 Y14.371 E172.80165
G0 F4320 X14.371 Y14.866
G1 F1800 X20.957 Y21.452 E173.1581
G0 F4320 X20.462 Y21.452
G1 F1800 X14.371 Y15.361 E173.48776
G0 F4320 X14.371 Y15.856
G1 F1800 X19.967 Y21.452 E173.79062
G0 F4320 X19.473 Y21.452
G1 F1800 X14.371 Y16.351 E174.06673
G0 F4320 X14.371 Y16.846
G1 F1800 X18.978 Y21.452 E174.31604
G0 F4320 X18.483 Y21.452
M104 S200
G1 F1800 X14.371 Y17.341 E174.53856
G0 F4320 X14.371 Y17.836
G1 F1800 X17.988 Y21.452 E174.73429
G0 F4320 X17.493 Y21.452
G1 F1800 X14.371 Y18.331 E174.90323
G0 F4320 X14.371 Y18.826
G1 F1800 X16.998 Y21.452 E175.04539
G0 F4320 X16.503 Y21.452
G1 F1800 X14.371 Y19.32 E175.16077
G0 F4320 X14.371 Y19.815
G1 F1800 X16.008 Y21.452 E175.24937
G0 F4320 X15.513 Y21.452
G1 F1800 X14.371 Y20.31 E175.31118
G0 F4320 X14.371 Y20.805
G1 F1800 X15.018 Y21.452 E175.34619
G0 F4320 X14.523 Y21.452
G1 F1800 X14.371 Y21.3 E175.35442
G0 F4320 X13.725 Y21.3
;MESH:NONMESH
G0 X14.032 Y21.794
G0 X106.125 Y21.951
;TIME_ELAPSED:190.025804
;LAYER:1
M140 S60
M106 S255
;MESH:SliderModule.stl
G0 F5760 X106.125 Y21.951 Z0.438
;TYPE:WALL-INNER
G1 F2400 X13.875 Y21.951 E177.70355
G1 X13.875 Y6.701 E178.09189
G1 X106.125 Y6.701 E180.44101
G1 X106.125 Y20.909 E180.80282
G0 F2160 X106.125 Y21.951
G0 F5760 X106.475 Y22.301
G1 F2400 E180.82935
G1 X13.525 Y22.301 E183.1963
G1 X13.525 Y6.351 E183.60247
G1 X106.475 Y6.351 E185.96942
G1 X106.475 Y21.259 E186.34905
G0 F2160 X106.475 Y22.301
G0 F5760 X106.8 Y22.626
;TYPE:WALL-OUTER
G1 F2400 E186.37558
G1 F2025 X13.2 Y22.626 E188.75909
G1 X13.2 Y6.026 E189.1818
G1 X106.8 Y6.026 E191.56531
G1 X106.8 Y21.584 E191.96149
G0 F1822.5 X106.8 Y22.626
G0 F5760 X106.6 Y22.626
G0 X106.6 Y22.351
G0 X106.04 Y21.611
G0 X105.785 Y21.611
;TYPE:SKIN
G1 F2400 E191.98802
G1 F1500 X14.215 Y21.611 E194.31983
G1 X14.215 Y7.041 E194.69086
G1 X105.785 Y7.041 E197.02267
G1 X105.785 Y20.569 E197.36715
G0 F1350 X105.785 Y21.611
G0 F5760 X105.259 Y21.453
G1 F2400 E197.39369
G1 F1500 X105.627 Y21.085 E197.40694
G0 F5760 X105.627 Y20.59
G1 F1500 X104.764 Y21.453 E197.43802
G0 F5760 X104.269 Y21.453
G1 F1500 X105.627 Y20.095 E197.48693
G0 F5760 X105.627 Y19.6
G1 F1500 X103.774 Y21.453 E197.55366
G0 F5760 X103.28 Y21.453
G1 F1500 X105.627 Y19.106 E197.63818
G0 F5760 X105.627 Y18.611
G1 F1500 X102.785 Y21.453 E197.74053
G0 F5760 X102.29 Y21.453
G1 F1500 X105.627 Y18.116 E197.8607
G0 F5760 X105.627 Y17.621
G1 F1500 X101.795 Y21.453 E197.9987
G0 F5760 X101.3 Y21.453
G1 F1500 X105.627 Y17.126 E198.15453
G0 F5760 X105.627 Y16.631
G1 F1500 X100.805 Y21.453 E198.32818
G0 F5760 X100.31 Y21.453
