;FLAVOR:Marlin
;TIME:5543
;Filament used: 3.77655m
;Layer height: 0.175
;Generated with Cura_SteamEngine 4.0.0
M140 S65
M105
M190 S65
M104 S205
M105
M109 S205
M82 ;absolute extrusion mode
G21;(metric values)
G90;(absolute positioning)
M82;(set extruder to absolute mode)
M107;(start with the fan off)
G28;(Home the printer)
G92 E0;(Reset the extruder to 0)
G0 Z5 E5 F500;(Move up and prime the nozzle)
G0 X-1 Z0;(Move outside the printable area)
G1 Y60 E8 F500;(Draw a priming/wiping line to the rear)
G1 X-1;(Move a little closer to the print area)
G1 Y10 E16 F500;(draw more priming/wiping)
G1 E15 F250;(Small retract)
G92 E0;(Zero the extruder)
G92 E0
G1 F2400 E-2.5
;LAYER_COUNT:80
;LAYER:0
M107
;MESH:SliderTray.stl
G0 F4320 X81.125 Y21.641 Z0.263
;TYPE:WALL-INNER
G1 F2400 E0
G1 F1800 X38.875 Y21.641 E1.61691
G1 X38.875 Y4.391 E2.27706
G1 X81.125 Y4.391 E3.89397
G1 X81.125 Y20.947 E4.52756
G0 F1620 X81.125 Y21.641
G0 F4320 X81.475 Y21.991
G1 F2400 E4.55412
G1 F1800 X38.525 Y21.991 E6.19782
G1 X38.525 Y4.041 E6.88476
G1 X81.475 Y4.041 E8.52846
G1 X81.475 Y21.297 E9.18884
G0 F1620 X81.475 Y21.991
G0 F4320 X81.8 Y22.316
;TYPE:WALL-OUTER
G1 F2400 E9.2154
G1 F1800 X38.2 Y22.316 E10.88397
G1 X38.2 Y3.716 E11.59579
G1 X81.8 Y3.716 E13.26436
G1 X81.8 Y21.622 E13.94962
G0 F1620 X81.8 Y22.316
G0 F4320 X81.6 Y22.316
G0 X81.6 Y22.041
G0 X81.04 Y21.301
G0 X80.785 Y21.301
;TYPE:SKIN
G1 F2400 E13.97618
G1 F1800 X39.215 Y21.301 E15.56706
G1 X39.215 Y4.731 E16.2012
G1 X80.785 Y4.731 E17.79208
G1 X80.785 Y20.607 E18.39965
G0 F1620 X80.785 Y21.301
G0 F4320 X81.04 Y21.301
G0 X81.04 Y5.39
G0 X80.627 Y5.39
G1 F2400 E18.42621
G1 F1800 X80.124 Y4.888 E18.45341
G0 F4320 X79.629 Y4.888
G1 F1800 X80.627 Y5.885 E18.50739
G0 F4320 X80.627 Y6.38
G1 F1800 X79.134 Y4.888 E18.58817
G0 F4320 X78.639 Y4.888
G1 F1800 X80.627 Y6.875 E18.69574
G0 F4320 X80.627 Y7.37
G1 F1800 X78.144 Y4.888 E18.8301
G0 F4320 X77.649 Y4.888
G1 F1800 X80.627 Y7.865 E18.99124
G0 F4320 X80.627 Y8.36
G1 F1800 X77.154 Y4.888 E19.17918
G0 F4320 X76.659 Y4.888
G1 F1800 X80.627 Y8.855 E19.39391
G0 F4320 X80.627 Y9.35
G1 F1800 X76.164 Y4.888 E19.63543
G0 F4320 X75.669 Y4.888
G1 F1800 X80.627 Y9.845 E19.90374
G0 F4320 X80.627 Y10.34
G1 F1800 X75.174 Y4.888 E20.19884
G0 F4320 X74.679 Y4.888
G1 F1800 X80.627 Y10.835 E20.52073
G0 F4320 X80.627 Y11.33
G1 F1800 X74.184 Y4.888 E20.86941
G0 F4320 X73.689 Y4.888
G1 F1800 X80.627 Y11.825 E21.24488
G0 F4320 X80.627 Y12.32
G1 F1800 X73.194 Y4.888 E21.64714
G0 F4320 X72.699 Y4.888
G1 F1800 X80.627 Y12.815 E22.07619
G0 F4320 X80.627 Y13.31
G1 F1800 X72.204 Y4.888 E22.53203
G0 F4320 X71.709 Y4.888
G1 F1800 X80.627 Y13.805 E23.01466
G0 F4320 X80.627 Y14.3
G1 F1800 X71.214 Y4.888 E23.52409
G0 F4320 X70.719 Y4.888
G1 F1800 X80.627 Y14.795 E24.0603
G0 F4320 X80.627 Y15.29
G1 F1800 X70.224 Y4.888 E24.6233
G0 F4320 X69.729 Y4.888
G1 F1800 X80.627 Y15.785 E25.21309
G0 F4320 X80.627 Y16.28
G1 F1800 X69.234 Y4.888 E25.82968
G0 F4320 X68.739 Y4.888
G1 F1800 X80.627 Y16.775 E26.47305
G0 F4320 X80.627 Y17.27
G1 F1800 X68.244 Y4.888 E27.14322
G0 F4320 X67.75 Y4.888
G1 F1800 X80.627 Y17.765 E27.84014
G0 F4320 X80.627 Y18.26
G1 F1800 X67.255 Y4.888 E28.56386
G0 F4320 X66.76 Y4.888
G1 F1800 X80.627 Y18.755 E29.31437
G0 F4320 X80.627 Y19.25
G1 F1800 X66.265 Y4.888 E30.09167
G0 F4320 X65.77 Y4.888
G1 F1800 X80.627 Y19.745 E30.89576
G0 F4320 X80.627 Y20.24
G1 F1800 X65.275 Y4.888 E31.72664
G0 F4320 X64.78 Y4.888
G1 F1800 X80.627 Y20.735 E32.5843
G0 F4320 X80.54 Y21.143
G1 F1800 X64.285 Y4.888 E33.46406
G0 F4320 X63.79 Y4.888
G1 F1800 X80.045 Y21.143 E34.34381
G0 F4320 X79.55 Y21.143
G1 F1800 X63.295 Y4.888 E35.22356
G0 F4320 X62.8 Y4.888
G1 F1800 X79.055 Y21.143 E36.10331
G0 F4320 X78.56 Y21.143
G1 F1800 X62.305 Y4.888 E36.98306
G0 F4320 X61.81 Y4.888
G1 F1800 X78.066 Y21.143 E37.86284
G0 F4320 X77.571 Y21.143
G1 F1800 X61.315 Y4.888 E38.74262
G0 F4320 X60.82 Y4.888
G1 F1800 X77.076 Y21.143 E39.62239
G0 F4320 X76.581 Y21.143
G1 F1800 X60.325 Y4.888 E40.50217
G0 F4320 X59.83 Y4.888
G1 F1800 X76.086 Y21.143 E41.38195
G0 F4320 X75.591 Y21.143
G1 F1800 X59.335 Y4.888 E42.26173
G0 F4320 X58.84 Y4.888
G1 F1800 X75.096 Y21.143 E43.14151
G0 F4320 X74.601 Y21.143
G1 F1800 X58.345 Y4.888 E44.02128
G0 F4320 X57.85 Y4.888
G1 F1800 X74.106 Y21.143 E44.90106
G0 F4320 X73.611 Y21.143
G1 F1800 X57.355 Y4.888 E45.78084
G0 F4320 X56.86 Y4.888
G1 F1800 X73.116 Y21.143 E46.66062
G0 F4320 X72.621 Y21.143
G1 F1800 X56.365 Y4.888 E47.5404
G0 F4320 X55.87 Y4.888
G1 F1800 X72.126 Y21.143 E48.42017
G0 F4320 X71.631 Y21.143
G1 F1800 X55.375 Y4.888 E49.29995
G0 F4320 X54.88 Y4.888
G1 F1800 X71.136 Y21.143 E50.17973
G0 F4320 X70.641 Y21.143
G1 F1800 X54.385 Y4.888 E51.05951
G0 F4320 X53.89 Y4.888
G1 F1800 X70.146 Y21.143 E51.93929
G0 F4320 X69.651 Y21.143
G1 F1800 X53.395 Y4.888 E52.81907
G0 F4320 X52.9 Y4.888
G1 F1800 X69.156 Y21.143 E53.69884
G0 F4320 X68.661 Y21.143
G1 F1800 X52.405 Y4.888 E54.57862
G0 F4320 X51.91 Y4.888
G1 F1800 X68.166 Y21.143 E55.4584
G0 F4320 X67.671 Y21.143
G1 F1800 X51.415 Y4.888 E56.33818
G0 F4320 X50.92 Y4.888
G1 F1800 X67.176 Y21.143 E57.21796
G0 F4320 X66.681 Y21.143
G1 F1800 X50.425 Y4.888 E58.09773
G0 F4320 X49.93 Y4.888
G1 F1800 X66.186 Y21.143 E58.97751
G0 F4320 X65.691 Y21.143
G1 F1800 X49.435 Y4.888 E59.85729
G0 F4320 X48.94 Y4.888
G1 F1800 X65.196 Y21.143 E60.73707
G0 F4320 X64.701 Y21.143
G1 F1800 X48.446 Y4.888 E61.61682
G0 F4320 X47.951 Y4.888
G1 F1800 X64.206 Y21.143 E62.49657
G0 F4320 X63.711 Y21.143
G1 F1800 X47.456 Y4.888 E63.37632
G0 F4320 X46.961 Y4.888
G1 F1800 X63.216 Y21.143 E64.25607
G0 F4320 X62.721 Y21.143
G1 F1800 X46.466 Y4.888 E65.13582
G0 F4320 X45.971 Y4.888
G1 F1800 X62.226 Y21.143 E66.01557
G0 F4320 X61.731 Y21.143
G1 F1800 X45.476 Y4.888 E66.89533
G0 F4320 X44.981 Y4.888
G1 F1800 X61.236 Y21.143 E67.77508
G0 F4320 X60.741 Y21.143
G1 F1800 X44.486 Y4.888 E68.65483
G0 F4320 X43.991 Y4.888
G1 F1800 X60.246 Y21.143 E69.53458
G0 F4320 X59.751 Y21.143
G1 F1800 X43.496 Y4.888 E70.41433
G0 F4320 X43.001 Y4.888
G1 F1800 X59.256 Y21.143 E71.29408
G0 F4320 X58.761 Y21.143
G1 F1800 X42.506 Y4.888 E72.17383
G0 F4320 X42.011 Y4.888
G1 F1800 X58.267 Y21.143 E73.05361
G0 F4320 X57.772 Y21.143
G1 F1800 X41.516 Y4.888 E73.93339
G0 F4320 X41.021 Y4.888
G1 F1800 X57.277 Y21.143 E74.81317
G0 F4320 X56.782 Y21.143
G1 F1800 X40.526 Y4.888 E75.69294
G0 F4320 X40.031 Y4.888
G1 F1800 X56.287 Y21.143 E76.57272
G0 F4320 X55.792 Y21.143
G1 F1800 X39.536 Y4.888 E77.4525
G0 F4320 X39.37 Y5.217
G1 F1800 X55.297 Y21.143 E78.31447
G0 F4320 X54.802 Y21.143
G1 F1800 X39.37 Y5.712 E79.14965
G0 F4320 X39.37 Y6.207
G1 F1800 X54.307 Y21.143 E79.95805
G0 F4320 X53.812 Y21.143
G1 F1800 X39.37 Y6.702 E80.73965
G0 F4320 X39.37 Y7.197
G1 F1800 X53.317 Y21.143 E81.49446
G0 F4320 X52.822 Y21.143
G1 F1800 X39.37 Y7.692 E82.22248
G0 F4320 X39.37 Y8.187
G1 F1800 X52.327 Y21.143 E82.92371
G0 F4320 X51.832 Y21.143
G1 F1800 X39.37 Y8.682 E83.59815
G0 F4320 X39.37 Y9.177
G1 F1800 X51.337 Y21.143 E84.2458
G0 F4320 X50.842 Y21.143
G1 F1800 X39.37 Y9.672 E84.86666
G0 F4320 X39.37 Y10.167
G1 F1800 X50.347 Y21.143 E85.46072
G0 F4320 X49.852 Y21.143
G1 F1800 X39.37 Y10.662 E86.028
G0 F4320 X39.37 Y11.157
G1 F1800 X49.357 Y21.143 E86.56849
G0 F4320 X48.862 Y21.143
G1 F1800 X39.37 Y11.652 E87.08219
G0 F4320 X39.37 Y12.147
G1 F1800 X48.367 Y21.143 E87.5691
G0 F4320 X47.872 Y21.143
G1 F1800 X39.37 Y12.642 E88.02921
G0 F4320 X39.37 Y13.137
G1 F1800 X47.377 Y21.143 E88.46254
G0 F4320 X46.882 Y21.143
G1 F1800 X39.37 Y13.632 E88.86908
G0 F4320 X39.37 Y14.127
G1 F1800 X46.387 Y21.143 E89.24882
G0 F4320 X45.892 Y21.143
G1 F1800 X39.37 Y14.622 E89.60178
G0 F4320 X39.37 Y15.117
G1 F1800 X45.397 Y21.143 E89.92794
G0 F4320 X44.902 Y21.143
G1 F1800 X39.37 Y15.612 E90.22732
G0 F4320 X39.37 Y16.107
G1 F1800 X44.407 Y21.143 E90.4999
G0 F4320 X43.912 Y21.143
G1 F1800 X39.37 Y16.602 E90.7457
G0 F4320 X39.37 Y17.097
G1 F1800 X43.417 Y21.143 E90.9647
G0 F4320 X42.922 Y21.143
G1 F1800 X39.37 Y17.592 E91.15692
G0 F4320 X39.37 Y18.087
G1 F1800 X42.427 Y21.143 E91.32234
G0 F4320 X41.932 Y21.143
G1 F1800 X39.37 Y18.582 E91.46097
G0 F4320 X39.37 Y19.077
G1 F1800 X41.437 Y21.143 E91.57282
G0 F4320 X40.942 Y21.143
G1 F1800 X39.37 Y19.572 E91.65787
G0 F4320 X39.37 Y20.066
G1 F1800 X40.447 Y21.143 E91.71616
G0 F4320 X39.952 Y21.143
G1 F1800 X39.37 Y20.561 E91.74766
G0 F4320 X39.37 Y21.056
G1 F1800 X39.457 Y21.143 E91.75236
G0 F4320 X39.457 Y21.791
G1 F2400 E89.25236
G0 F4320 X81.125 Y22.121
G0 X81.125 Y23.181
G0 X81.125 Y32.151
G0 X81.125 Y33.211
G0 X81.125 Y50.941
;TYPE:WALL-INNER
G1 F2400 E91.75236
G1 F1800 X38.875 Y50.941 E93.36927
G1 X38.875 Y33.691 E94.02943
G1 X81.125 Y33.691 E95.64633
G1 X81.125 Y50.247 E96.27993
G0 F1620 X81.125 Y50.941
G0 F4320 X81.475 Y51.291
G1 F2400 E96.30649
G1 F1800 X38.525 Y51.291 E97.95018
G1 X38.525 Y33.341 E98.63713
G1 X81.475 Y33.341 E100.28082
G1 X81.475 Y50.597 E100.94121
G0 F1620 X81.475 Y51.291
G0 F4320 X81.8 Y51.616
;TYPE:WALL-OUTER
G1 F2400 E100.96777
G1 F1800 X38.2 Y51.616 E102.63634
G1 X38.2 Y33.016 E103.34816
G1 X81.8 Y33.016 E105.01673
G1 X81.8 Y50.922 E105.70199
G0 F1620 X81.8 Y51.616
G0 F4320 X81.6 Y51.616
G0 X81.6 Y51.341
G0 X81.04 Y50.601
G0 X80.785 Y50.601
;TYPE:SKIN
G1 F2400 E105.72855
G1 F1800 X39.215 Y50.601 E107.31943
G1 X39.215 Y34.031 E107.95356
G1 X80.785 Y34.031 E109.54444
G1 X80.785 Y49.907 E110.15202
G0 F1620 X80.785 Y50.601
G0 F4320 X81.04 Y50.601
G0 X81.04 Y34.595
G0 X80.627 Y34.595
G1 F2400 E110.17858
G1 F1800 X80.22 Y34.187 E110.20063
G0 F4320 X79.725 Y34.187
G1 F1800 X80.627 Y35.09 E110.24948
G0 F4320 X80.627 Y35.585
G1 F1800 X79.23 Y34.187 E110.32511
G0 F4320 X78.735 Y34.187
G1 F1800 X80.627 Y36.08 E110.42754
G0 F4320 X80.627 Y36.575
G1 F1800 X78.24 Y34.187 E110.55675
G0 F4320 X77.745 Y34.187
G1 F1800 X80.627 Y37.07 E110.71276
G0 F4320 X80.627 Y37.565
G1 F1800 X77.25 Y34.187 E110.89556
G0 F4320 X76.755 Y34.187
G1 F1800 X80.627 Y38.06 E111.10514
G0 F4320 X80.627 Y38.554
G1 F1800 X76.26 Y34.187 E111.34149
G0 F4320 X75.765 Y34.187
G1 F1800 X80.627 Y39.049 E111.60463
G0 F4320 X80.627 Y39.544
G1 F1800 X75.27 Y34.187 E111.89457
G0 F4320 X74.775 Y34.187
G1 F1800 X80.627 Y40.039 E112.21129
G0 F4320 X80.627 Y40.534
G1 F1800 X74.28 Y34.187 E112.5548
G0 F4320 X73.785 Y34.187
G1 F1800 X80.627 Y41.029 E112.9251
G0 F4320 X80.627 Y41.524
G1 F1800 X73.29 Y34.187 E113.32219
G0 F4320 X72.795 Y34.187
G1 F1800 X80.627 Y42.019 E113.74607
G0 F4320 X80.627 Y42.514
G1 F1800 X72.3 Y34.187 E114.19675
G0 F4320 X71.805 Y34.187
G1 F1800 X80.627 Y43.009 E114.67421
G0 F4320 X80.627 Y43.504
G1 F1800 X71.311 Y34.187 E115.17844
G0 F4320 X70.816 Y34.187
G1 F1800 X80.627 Y43.999 E115.70945
G0 F4320 X80.627 Y44.494
G1 F1800 X70.321 Y34.187 E116.26726
G0 F4320 X69.826 Y34.187
G1 F1800 X80.627 Y44.989 E116.85186
G0 F4320 X80.627 Y45.484
G1 F1800 X69.331 Y34.187 E117.46325
G0 F4320 X68.836 Y34.187
G1 F1800 X80.627 Y45.979 E118.10142
G0 F4320 X80.627 Y46.474
G1 F1800 X68.341 Y34.187 E118.76639
G0 F4320 X67.846 Y34.187
G1 F1800 X80.627 Y46.969 E119.45815
G0 F4320 X80.627 Y47.464
G1 F1800 X67.351 Y34.187 E120.1767
G0 F4320 X66.856 Y34.187
G1 F1800 X80.627 Y47.959 E120.92204
G0 F4320 X80.627 Y48.454
G1 F1800 X66.361 Y34.187 E121.69417
G0 F4320 X65.866 Y34.187
G1 F1800 X80.627 Y48.949 E122.49309
G0 F4320 X80.627 Y49.444
G1 F1800 X65.371 Y34.187 E123.3188
G0 F4320 X64.876 Y34.187
G1 F1800 X80.627 Y49.939 E124.1713
G0 F4320 X80.627 Y50.434
G1 F1800 X64.381 Y34.187 E125.05059
G0 F4320 X63.886 Y34.187
G1 F1800 X80.142 Y50.443 E125.9304
G0 F4320 X79.647 Y50.443
G1 F1800 X63.391 Y34.187 E126.8102
G0 F4320 X62.896 Y34.187
G1 F1800 X79.152 Y50.443 E127.69001
G0 F4320 X78.657 Y50.443
G1 F1800 X62.401 Y34.187 E128.56981
G0 F4320 X61.906 Y34.187
G1 F1800 X78.162 Y50.443 E129.44962
G0 F4320 X77.667 Y50.443
G1 F1800 X61.411 Y34.187 E130.32942
G0 F4320 X60.916 Y34.187
G1 F1800 X77.172 Y50.443 E131.20923
G0 F4320 X76.677 Y50.443
G1 F1800 X60.421 Y34.187 E132.08903
G0 F4320 X59.926 Y34.187
G1 F1800 X76.182 Y50.443 E132.96884
G0 F4320 X75.687 Y50.443
G1 F1800 X59.431 Y34.187 E133.84864
G0 F4320 X58.936 Y34.187
G1 F1800 X75.192 Y50.443 E134.72845
G0 F4320 X74.697 Y50.443
G1 F1800 X58.441 Y34.187 E135.60825
G0 F4320 X57.946 Y34.187
G1 F1800 X74.202 Y50.443 E136.48806
G0 F4320 X73.707 Y50.443
G1 F1800 X57.451 Y34.187 E137.36786
G0 F4320 X56.956 Y34.187
G1 F1800 X73.212 Y50.443 E138.24767
G0 F4320 X72.717 Y50.443
G1 F1800 X56.461 Y34.187 E139.12747
G0 F4320 X55.966 Y34.187
G1 F1800 X72.222 Y50.443 E140.00728
G0 F4320 X71.727 Y50.443
G1 F1800 X55.471 Y34.187 E140.88708
G0 F4320 X54.976 Y34.187
G1 F1800 X71.232 Y50.443 E141.76689
G0 F4320 X70.737 Y50.443
G1 F1800 X54.481 Y34.187 E142.64669
G0 F4320 X53.986 Y34.187
G1 F1800 X70.242 Y50.443 E143.5265
G0 F4320 X69.747 Y50.443
G1 F1800 X53.491 Y34.187 E144.4063
G0 F4320 X52.996 Y34.187
G1 F1800 X69.252 Y50.443 E145.28611
G0 F4320 X68.757 Y50.443
G1 F1800 X52.501 Y34.187 E146.16591
G0 F4320 X52.006 Y34.187
G1 F1800 X68.262 Y50.443 E147.04572
G0 F4320 X67.767 Y50.443
G1 F1800 X51.512 Y34.187 E147.9255
G0 F4320 X51.017 Y34.187
G1 F1800 X67.272 Y50.443 E148.80528
G0 F4320 X66.777 Y50.443
G1 F1800 X50.522 Y34.187 E149.68505
G0 F4320 X50.027 Y34.187
G1 F1800 X66.282 Y50.443 E150.56483
G0 F4320 X65.787 Y50.443
G1 F1800 X49.532 Y34.187 E151.44461
G0 F4320 X49.037 Y34.187
G1 F1800 X65.292 Y50.443 E152.32439
G0 F4320 X64.797 Y50.443
G1 F1800 X48.542 Y34.187 E153.20417
G0 F4320 X48.047 Y34.187
G1 F1800 X64.302 Y50.443 E154.08394
G0 F4320 X63.807 Y50.443
G1 F1800 X47.552 Y34.187 E154.96372
G0 F4320 X47.057 Y34.187
G1 F1800 X63.312 Y50.443 E155.8435
G0 F4320 X62.817 Y50.443
G1 F1800 X46.562 Y34.187 E156.72328
G0 F4320 X46.067 Y34.187
G1 F1800 X62.322 Y50.443 E157.60306
G0 F4320 X61.828 Y50.443
G1 F1800 X45.572 Y34.187 E158.48286
G0 F4320 X45.077 Y34.187
G1 F1800 X61.333 Y50.443 E159.36267
G0 F4320 X60.838 Y50.443
G1 F1800 X44.582 Y34.187 E160.24247
G0 F4320 X44.087 Y34.187
G1 F1800 X60.343 Y50.443 E161.12228
G0 F4320 X59.848 Y50.443
G1 F1800 X43.592 Y34.187 E162.00208
G0 F4320 X43.097 Y34.187
G1 F1800 X59.353 Y50.443 E162.88189
G0 F4320 X58.858 Y50.443
G1 F1800 X42.602 Y34.187 E163.76169
G0 F4320 X42.107 Y34.187
G1 F1800 X58.363 Y50.443 E164.6415
G0 F4320 X57.868 Y50.443
G1 F1800 X41.612 Y34.187 E165.5213
G0 F4320 X41.117 Y34.187
G1 F1800 X57.373 Y50.443 E166.40111
G0 F4320 X56.878 Y50.443
G1 F1800 X40.622 Y34.187 E167.28091
G0 F4320 X40.127 Y34.187
G1 F1800 X56.383 Y50.443 E168.16072
G0 F4320 X55.888 Y50.443
G1 F1800 X39.632 Y34.187 E169.04052
G0 F4320 X39.37 Y34.421
G1 F1800 X55.393 Y50.443 E169.90769
G0 F4320 X54.898 Y50.443
G1 F1800 X39.37 Y34.916 E170.74807
G0 F4320 X39.37 Y35.411
G1 F1800 X54.403 Y50.443 E171.56166
G0 F4320 X53.908 Y50.443
G1 F1800 X39.37 Y35.906 E172.34845
G0 F4320 X39.37 Y36.401
G1 F1800 X53.413 Y50.443 E173.10846
G0 F4320 X52.918 Y50.443
G1 F1800 X39.37 Y36.896 E173.84168
G0 F4320 X39.37 Y37.391
G1 F1800 X52.423 Y50.443 E174.5481
G0 F4320 X51.928 Y50.443
G1 F1800 X39.37 Y37.886 E175.22774
G0 F4320 X39.37 Y38.381
G1 F1800 X51.433 Y50.443 E175.88058
G0 F4320 X50.938 Y50.443
G1 F1800 X39.37 Y38.876 E176.50664
G0 F4320 X39.37 Y39.37
G1 F1800 X50.443 Y50.443 E177.10593
G0 F4320 X49.948 Y50.443
G1 F1800 X39.37 Y39.865 E177.67843
G0 F4320 X39.37 Y40.36
G1 F1800 X49.453 Y50.443 E178.22414
G0 F4320 X48.958 Y50.443
G1 F1800 X39.37 Y40.855 E178.74306
G0 F4320 X39.37 Y41.35
G1 F1800 X48.463 Y50.443 E179.23519
G0 F4320 X47.968 Y50.443
G1 F1800 X39.37 Y41.845 E179.70053
G0 F4320 X39.37 Y42.34
G1 F1800 X47.473 Y50.443 E180.13908
G0 F4320 X46.978 Y50.443
G1 F1800 X39.37 Y42.835 E180.55084
G0 F4320 X39.37 Y43.33
G1 F1800 X46.483 Y50.443 E180.93581
G0 F4320 X45.988 Y50.443
G1 F1800 X39.37 Y43.825 E181.29399
G0 F4320 X39.37 Y44.32
G1 F1800 X45.493 Y50.443 E181.62537
G0 F4320 X44.998 Y50.443
G1 F1800 X39.37 Y44.815 E181.92997
G0 F4320 X39.37 Y45.31
G1 F1800 X44.503 Y50.443 E182.20778
G0 F4320 X44.008 Y50.443
G1 F1800 X39.37 Y45.805 E182.4588
G0 F4320 X39.37 Y46.3
M104 S200
G1 F1800 X43.513 Y50.443 E182.68302
G0 F4320 X43.018 Y50.443
